;FLAVOR:Marlin
;TIME:16275
;Filament used: 8.45463m
;Layer height: 0.2
;MINX:20.389
;MINY:220.048
;MINZ:0.2
;MAXX:141.695
;MAXY:259.87
;MAXZ:35.4
;Generated with Cura_SteamEngine 4.12.1
M140 S65
M105
M190 S65
M104 S215
M105
M109 S215
M82 ;absolute extrusion mode
M201 X500.00 Y500.00 Z100.00 E5000.00 ;Setup machine max acceleration
M203 X500.00 Y500.00 Z10.00 E50.00 ;Setup machine max feedrate
M204 P500.00 R1000.00 T500.00 ;Setup Print/Retract/Travel acceleration
M205 X8.00 Y8.00 Z0.40 E5.00 ;Setup Jerk
M220 S100 ;Reset Feedrate
M221 S100 ;Reset Flowrate

G28 ;Home

G92 E0 ;Reset Extruder
G1 Z2.0 F3000 ;Move Z Axis up
G1 X10.1 Y20 Z0.28 F5000.0 ;Move to start position
G1 X10.1 Y200.0 Z0.28 F1500.0 E15 ;Draw the first line
G1 X10.4 Y200.0 Z0.28 F5000.0 ;Move to side a little
G1 X10.4 Y20 Z0.28 F1500.0 E30 ;Draw the second line
G92 E0 ;Reset Extruder
G1 Z2.0 F3000 ;Move Z Axis up

G92 E0
G92 E0
G1 F2700 E-5
;LAYER_COUNT:178
;LAYER:0
M107
;MESH:battery_holder.v11.18_2mm.stl
G0 F6000 X86.642 Y250.442 Z0.2
;TYPE:WALL-INNER
G1 F2700 E0
G1 F300 X86.642 Y229.242 E0.70511
G1 X49.037 Y229.242 E1.95586
G1 X47.076 Y229.242 E2.02109
G1 X45.442 Y229.242 E2.07543
G1 X45.442 Y250.442 E2.78055
G1 X47.169 Y250.442 E2.83799
G1 X49.037 Y250.442 E2.90012
G1 X74.099 Y250.442 E3.73368
G1 X76.738 Y250.442 E3.82146
G1 X86.642 Y250.442 E4.15086
G0 F6000 X86.242 Y250.042
;TYPE:WALL-OUTER
G1 F300 X86.242 Y229.642 E4.82937
G1 X45.842 Y229.642 E6.17308
G1 X45.842 Y250.042 E6.85159
G1 X86.242 Y250.042 E8.1953
G1 F2700 E3.1953
G0 F6000 X86.542 Y250.042
G0 X86.824 Y250.442
G0 X95.828 Y250.454
G0 X98.96 Y250.401
G0 X99.314 Y244.399
G0 X101.314 Y244.399
G0 X101.314 Y241.899
G0 X102.97 Y241.899
G0 X103.324 Y250.408
G0 X140.442 Y250.612
;TYPE:WALL-INNER
G1 F2700 E8.1953
G1 F300 X118.041 Y250.607 E8.94036
G1 X116.32 Y250.612 E8.9976
G1 X103.142 Y250.59 E9.4359
G1 X103.142 Y241.727 E9.73069
G1 X101.142 Y241.727 E9.79721
G1 X101.142 Y244.227 E9.88036
G1 X99.142 Y244.227 E9.94688
G1 X99.142 Y250.58 E10.15818
G1 X95.831 Y250.624 E10.26831
G1 X86.642 Y250.624 E10.57394
G1 X76.738 Y250.624 E10.7242
G1 X74.099 Y250.606 E10.76225
G1 X49.037 Y250.606 E11.10487
G1 X47.169 Y250.638 E11.13291
G1 X45.44 Y250.618 E11.15973
G1 X43.942 Y250.599 E11.20956
G1 X43.942 Y244.758 E11.40383
G1 X32.942 Y244.758 E11.76969
G1 X32.942 Y244.258 E11.78632
G1 X30.942 Y244.258 E11.85284
G1 X30.942 Y241.758 E11.93599
G1 X28.942 Y241.758 E12.00252
G1 X28.942 Y250.594 E12.2964
G1 X26.642 Y250.616 E12.3729
G1 X26.642 Y247.11 E12.48951
G1 X21.642 Y248.11 E12.65911
G1 X21.642 Y243.074 E12.82661
G1 X26.642 Y244.074 E12.9962
G1 X26.641 Y235.61 E13.27771
G1 X21.642 Y236.61 E13.44727
G1 X21.642 Y232.074 E13.59814
G1 X26.642 Y233.074 E13.76774
G1 X26.642 Y229.068 E13.90098
G1 X28.942 Y229.09 E13.97748
G1 X28.942 Y237.958 E14.27243
G1 X30.942 Y237.958 E14.33895
G1 X30.942 Y235.458 E14.4221
G1 X32.942 Y235.458 E14.48862
G1 X32.942 Y234.958 E14.50525
G1 X43.942 Y234.958 E14.87111
G1 X43.942 Y229.085 E15.06645
G1 X45.439 Y229.067 E15.11624
G1 X47.076 Y229.046 E15.14158
G1 X49.037 Y229.079 E15.17093
G1 X86.641 Y229.079 E15.68186
G1 X92.988 Y229.078 E15.89297
G1 X95.803 Y229.063 E15.9866
G1 X99.142 Y229.105 E16.09766
G1 X99.142 Y235.427 E16.30793
G1 X101.142 Y235.427 E16.37445
G1 X101.142 Y237.927 E16.4576
G1 X103.142 Y237.927 E16.52412
G1 X103.142 Y229.095 E16.81787
G1 X116.354 Y229.073 E17.25731
G1 X118.04 Y229.079 E17.31339
G1 X139.165 Y229.071 E18.01601
G1 X140.442 Y229.073 E18.05848
G1 X140.442 Y250.612 E18.77487
G0 F6000 X140.842 Y251.012
;TYPE:WALL-OUTER
G1 F300 X118.042 Y251.007 E19.5332
G1 X116.32 Y251.012 E19.59047
G1 X102.742 Y250.989 E20.04208
G1 X102.742 Y242.127 E20.33683
G1 X101.542 Y242.127 E20.37674
G1 X101.542 Y244.627 E20.45989
G1 X99.542 Y244.627 E20.52642
G1 X99.542 Y250.975 E20.73755
G1 X95.836 Y251.024 E20.86082
G1 X76.735 Y251.024 E21.49613
G1 X74.098 Y251.006 E21.58383
G1 X49.04 Y251.006 E22.41727
G1 X47.171 Y251.038 E22.47944
G1 X43.542 Y250.994 E22.60015
G1 X43.542 Y245.158 E22.79425
G1 X32.542 Y245.158 E23.16012
G1 X32.542 Y244.658 E23.17675
G1 X30.542 Y244.658 E23.24327
G1 X30.542 Y242.158 E23.32642
G1 X29.342 Y242.158 E23.36633
G1 X29.342 Y250.99 E23.66008
G1 X26.409 Y251.018 E23.75764
G1 X26.242 Y251.015 E23.76319
G1 X26.242 Y247.598 E23.87684
G1 X21.242 Y248.598 E24.04644
G1 X21.242 Y242.586 E24.2464
G1 X26.242 Y243.586 E24.41599
G1 X26.241 Y236.098 E24.66504
G1 X21.242 Y237.098 E24.83461
G1 X21.242 Y231.586 E25.01794
G1 X26.242 Y232.586 E25.18753
G1 X26.242 Y228.669 E25.31781
G1 X26.382 Y228.666 E25.32247
G1 X29.342 Y228.694 E25.42092
G1 X29.342 Y237.558 E25.71574
G1 X30.542 Y237.558 E25.75565
G1 X30.542 Y235.058 E25.8388
G1 X32.542 Y235.058 E25.90532
G1 X32.542 Y234.558 E25.92195
G1 X43.542 Y234.558 E26.28781
G1 X43.542 Y228.69 E26.48298
G1 X47.078 Y228.646 E26.6006
G1 X49.04 Y228.679 E26.66587
G1 X92.987 Y228.678 E28.12755
G1 X95.806 Y228.663 E28.22131
G1 X99.542 Y228.71 E28.34558
G1 X99.542 Y235.027 E28.55569
G1 X101.542 Y235.027 E28.62221
G1 X101.542 Y237.527 E28.70536
G1 X102.742 Y237.527 E28.74527
G1 X102.742 Y228.696 E29.03899
G1 X116.354 Y228.673 E29.49173
G1 X118.041 Y228.679 E29.54784
G1 X139.165 Y228.671 E30.25042
G1 X140.842 Y228.673 E30.3062
G1 X140.842 Y251.012 E31.0492
G0 F6000 X140.572 Y250.742
G0 X140.051 Y250.501
G0 X140.052 Y250.222
;TYPE:SKIN
G1 F300 X118.041 Y250.217 E31.78129
G1 X116.32 Y250.222 E31.83853
G1 X103.532 Y250.2 E32.26386
G1 X103.532 Y241.337 E32.55864
G1 X100.752 Y241.337 E32.65111
G1 X100.752 Y243.837 E32.73426
G1 X98.752 Y243.837 E32.80078
G1 X98.752 Y250.195 E33.01225
G1 X95.825 Y250.234 E33.10961
G1 X87.032 Y250.234 E33.40206
G1 X87.032 Y229.468 E34.09274
G1 X92.99 Y229.468 E34.29091
G1 X95.8 Y229.453 E34.38437
G1 X98.752 Y229.491 E34.48256
G1 X98.752 Y235.817 E34.69297
G1 X100.752 Y235.817 E34.75949
G1 X100.752 Y238.317 E34.84264
G1 X103.532 Y238.317 E34.9351
G1 X103.532 Y229.485 E35.22885
G1 X116.353 Y229.463 E35.65528
G1 X118.039 Y229.469 E35.71136
G1 X139.164 Y229.461 E36.41398
G1 X140.052 Y229.463 E36.44351
G1 X140.052 Y250.222 E37.13396
G0 F6000 X140.051 Y250.501
G0 X140.332 Y229.836
G0 X139.892 Y229.836
G1 F300 X139.678 Y229.622 E37.14403
G0 F6000 X139.111 Y229.62
G1 F300 X139.892 Y230.402 E37.18079
G0 F6000 X139.892 Y230.967
G1 F300 X138.545 Y229.62 E37.24415
G0 F6000 X137.979 Y229.62
G1 F300 X139.892 Y231.533 E37.33413
G0 F6000 X139.892 Y232.099
G1 F300 X137.414 Y229.62 E37.45071
G0 F6000 X136.849 Y229.621
G1 F300 X139.892 Y232.665 E37.59386
G0 F6000 X139.892 Y233.23
G1 F300 X136.283 Y229.621 E37.76362
G0 F6000 X135.717 Y229.621
G1 F300 X139.892 Y233.796 E37.96
G0 F6000 X139.892 Y234.362
G1 F300 X135.152 Y229.622 E38.18296
G0 F6000 X134.587 Y229.622
G1 F300 X139.892 Y234.927 E38.43249
G0 F6000 X139.892 Y235.493
G1 F300 X134.021 Y229.622 E38.70864
G0 F6000 X133.455 Y229.622
G1 F300 X139.892 Y236.059 E39.01142
G0 F6000 X139.892 Y236.624
G1 F300 X132.89 Y229.623 E39.34075
G0 F6000 X132.325 Y229.623
G1 F300 X139.892 Y237.19 E39.69667
G0 F6000 X139.892 Y237.756
G1 F300 X131.759 Y229.623 E40.07923
G0 F6000 X131.194 Y229.623
G1 F300 X139.892 Y238.321 E40.48835
G0 F6000 X139.892 Y238.887
G1 F300 X130.628 Y229.623 E40.9241
G0 F6000 X130.063 Y229.623
G1 F300 X139.892 Y239.453 E41.38645
G0 F6000 X139.892 Y240.018
G1 F300 X129.498 Y229.624 E41.87535
G0 F6000 X128.932 Y229.624
G1 F300 X139.892 Y240.584 E42.39088
G0 F6000 X139.892 Y241.15
G1 F300 X128.366 Y229.624 E42.93303
G0 F6000 X127.801 Y229.624
G1 F300 X139.892 Y241.715 E43.50175
G0 F6000 X139.892 Y242.281
G1 F300 X127.236 Y229.625 E44.09705
G0 F6000 X126.67 Y229.625
G1 F300 X139.892 Y242.847 E44.71897
G0 F6000 X139.892 Y243.413
G1 F300 X126.104 Y229.625 E45.36752
G0 F6000 X125.539 Y229.625
G1 F300 X139.892 Y243.978 E46.04264
G0 F6000 X139.892 Y244.544
G1 F300 X124.974 Y229.625 E46.74436
G0 F6000 X124.408 Y229.625
G1 F300 X139.892 Y245.11 E47.4727
G0 F6000 X139.892 Y245.675
G1 F300 X123.842 Y229.625 E48.22765
G0 F6000 X123.277 Y229.626
G1 F300 X139.892 Y246.241 E49.00916
G0 F6000 X139.892 Y246.807
G1 F300 X122.712 Y229.626 E49.81728
G0 F6000 X122.146 Y229.626
G1 F300 X139.892 Y247.372 E50.652
G0 F6000 X139.892 Y247.938
G1 F300 X121.581 Y229.627 E51.51329
G0 F6000 X121.015 Y229.627
G1 F300 X139.892 Y248.504 E52.40121
G0 F6000 X139.892 Y249.069
G1 F300 X120.449 Y229.627 E53.31572
G0 F6000 X119.885 Y229.627
G1 F300 X139.892 Y249.635 E54.25682
G0 F6000 X139.751 Y250.06
G1 F300 X119.319 Y229.627 E55.2179
G0 F6000 X118.753 Y229.627
G1 F300 X139.186 Y250.06 E56.179
G0 F6000 X138.62 Y250.06
G1 F300 X118.187 Y229.627 E57.14011
G0 F6000 X117.621 Y229.627
G1 F300 X138.054 Y250.06 E58.10122
G0 F6000 X137.489 Y250.06
G1 F300 X117.053 Y229.625 E59.06244
G0 F6000 X116.485 Y229.623
G1 F300 X136.923 Y250.06 E60.02376
G0 F6000 X136.357 Y250.059
G1 F300 X115.92 Y229.623 E60.98503
G0 F6000 X115.355 Y229.624
G1 F300 X135.791 Y250.059 E61.94625
G0 F6000 X135.225 Y250.059
G1 F300 X114.791 Y229.625 E62.9074
G0 F6000 X114.226 Y229.626
G1 F300 X134.66 Y250.059 E63.86853
G0 F6000 X134.094 Y250.059
G1 F300 X113.661 Y229.627 E64.82961
G0 F6000 X113.096 Y229.627
G1 F300 X133.527 Y250.059 E65.79065
G0 F6000 X132.962 Y250.059
G1 F300 X112.532 Y229.629 E66.75161
G0 F6000 X111.967 Y229.63
G1 F300 X132.396 Y250.059 E67.71253
G0 F6000 X131.83 Y250.059
G1 F300 X111.403 Y229.631 E68.67338
G0 F6000 X110.838 Y229.632
G1 F300 X131.265 Y250.059 E69.6342
G0 F6000 X130.699 Y250.059
G1 F300 X110.273 Y229.632 E70.595
G0 F6000 X109.709 Y229.634
G1 F300 X130.133 Y250.058 E71.55568
G0 F6000 X129.567 Y250.058
G1 F300 X109.144 Y229.635 E72.51632
G0 F6000 X108.579 Y229.636
G1 F300 X129.001 Y250.058 E73.47691
G0 F6000 X128.436 Y250.058
G1 F300 X108.014 Y229.637 E74.43747
G0 F6000 X107.449 Y229.637
G1 F300 X127.87 Y250.058 E75.39801
G0 F6000 X127.303 Y250.057
G1 F300 X106.885 Y229.639 E76.35841
G0 F6000 X106.32 Y229.639
G1 F300 X126.738 Y250.057 E77.31881
G0 F6000 X126.172 Y250.057
G1 F300 X105.755 Y229.64 E78.27917
G0 F6000 X105.191 Y229.642
G1 F300 X125.606 Y250.057 E79.23943
G0 F6000 X125.041 Y250.057
G1 F300 X104.626 Y229.642 E80.19968
G0 F6000 X104.062 Y229.644
G1 F300 X124.475 Y250.057 E81.15985
G0 F6000 X123.909 Y250.056
G1 F300 X103.691 Y229.839 E82.11082
G0 F6000 X103.691 Y230.405
G1 F300 X123.343 Y250.056 E83.03517
G0 F6000 X122.777 Y250.056
G1 F300 X103.691 Y230.97 E83.93291
G0 F6000 X103.691 Y231.536
G1 F300 X122.212 Y250.056 E84.80406
G0 F6000 X121.646 Y250.056
G1 F300 X103.691 Y232.102 E85.64858
G0 F6000 X103.691 Y232.667
G1 F300 X121.08 Y250.056 E86.46651
G0 F6000 X120.514 Y250.056
G1 F300 X103.691 Y233.233 E87.25781
G0 F6000 X103.691 Y233.799
G1 F300 X119.948 Y250.056 E88.02249
G0 F6000 X119.382 Y250.056
G1 F300 X103.691 Y234.364 E88.76057
G0 F6000 X103.691 Y234.93
G1 F300 X118.817 Y250.056 E89.47205
G0 F6000 X118.251 Y250.056
G1 F300 X103.691 Y235.496 E90.15691
G0 F6000 X103.691 Y236.061
G1 F300 X117.686 Y250.056 E90.81519
G0 F6000 X117.122 Y250.058
G1 F300 X103.691 Y236.627 E91.44694
G0 F6000 X103.691 Y237.193
G1 F300 X116.558 Y250.06 E92.05217
G0 F6000 X115.993 Y250.06
G1 F300 X103.691 Y237.758 E92.63082
G0 F6000 X103.691 Y238.324
G1 F300 X115.425 Y250.059 E93.18277
G0 F6000 X114.859 Y250.058
G1 F300 X103.277 Y238.476 E93.72755
G0 F6000 X102.712 Y238.476
G1 F300 X114.293 Y250.057 E94.27229
G0 F6000 X113.726 Y250.056
G1 F300 X102.146 Y238.476 E94.81698
G0 F6000 X101.58 Y238.476
G1 F300 X113.159 Y250.055 E95.36162
G0 F6000 X112.592 Y250.054
G1 F300 X101.015 Y238.476 E95.90619
G0 F6000 X100.592 Y238.053
G1 F300 X92.165 Y229.627 E96.30254
G0 F6000 X91.6 Y229.627
G1 F300 X103.149 Y241.176 E96.84577
G0 F6000 X102.583 Y241.176
G1 F300 X91.034 Y229.627 E97.389
G0 F6000 X90.468 Y229.627
G1 F300 X102.017 Y241.176 E97.93223
G0 F6000 X101.452 Y241.176
G1 F300 X89.902 Y229.627 E98.47549
G0 F6000 X89.337 Y229.627
G1 F300 X100.886 Y241.176 E99.01872
G0 F6000 X100.592 Y241.447
G1 F300 X88.771 Y229.627 E99.57472
G0 F6000 X88.205 Y229.627
G1 F300 X100.592 Y242.013 E100.15734
G0 F6000 X100.592 Y242.579
G1 F300 X87.64 Y229.627 E100.76656
G0 F6000 X87.191 Y229.744
G1 F300 X100.592 Y243.145 E101.3969
G0 F6000 X100.557 Y243.676
G1 F300 X87.191 Y230.31 E102.0256
G0 F6000 X87.191 Y230.876
G1 F300 X99.991 Y243.676 E102.62767
G0 F6000 X99.426 Y243.676
G1 F300 X87.191 Y231.441 E103.20317
G0 F6000 X87.191 Y232.007
G1 F300 X98.86 Y243.676 E103.75204
G0 F6000 X98.591 Y243.973
G1 F300 X87.191 Y232.573 E104.28826
G0 F6000 X87.191 Y233.138
G1 F300 X98.591 Y244.538 E104.82448
G0 F6000 X98.591 Y245.104
G1 F300 X87.191 Y233.704 E105.3607
G0 F6000 X87.191 Y234.27
G1 F300 X98.591 Y245.67 E105.89693
G0 F6000 X98.591 Y246.235
G1 F300 X87.191 Y234.835 E106.43315
G0 F6000 X87.191 Y235.401
G1 F300 X98.591 Y246.801 E106.96937
G0 F6000 X98.591 Y247.367
G1 F300 X87.191 Y235.967 E107.50559
G0 F6000 X87.191 Y236.532
G1 F300 X98.591 Y247.932 E108.04181
G0 F6000 X98.591 Y248.498
G1 F300 X87.191 Y237.098 E108.57803
G0 F6000 X87.191 Y237.664
G1 F300 X98.591 Y249.064 E109.11425
G0 F6000 X98.591 Y249.629
G1 F300 X87.191 Y238.229 E109.65047
G0 F6000 X87.191 Y238.795
G1 F300 X98.434 Y250.037 E110.17929
G0 F6000 X97.875 Y250.044
G1 F300 X87.191 Y239.361 E110.68181
G0 F6000 X87.191 Y239.926
G1 F300 X97.317 Y250.052 E111.1581
G0 F6000 X96.759 Y250.06
G1 F300 X87.191 Y240.492 E111.60815
G0 F6000 X87.191 Y241.058
G1 F300 X96.201 Y250.067 E112.03193
G0 F6000 X95.641 Y250.073
G1 F300 X87.191 Y241.624 E112.42937
G0 F6000 X87.191 Y242.189
G1 F300 X95.075 Y250.073 E112.80021
G0 F6000 X94.509 Y250.073
G1 F300 X87.191 Y242.755 E113.14442
G0 F6000 X87.191 Y243.321
G1 F300 X93.944 Y250.073 E113.46204
G0 F6000 X93.378 Y250.073
G1 F300 X87.191 Y243.886 E113.75306
G0 F6000 X87.191 Y244.452
G1 F300 X92.812 Y250.073 E114.01745
G0 F6000 X92.247 Y250.073
G1 F300 X87.191 Y245.018 E114.25525
G0 F6000 X87.191 Y245.583
G1 F300 X91.681 Y250.073 E114.46644
G0 F6000 X91.115 Y250.073
G1 F300 X87.191 Y246.149 E114.65102
G0 F6000 X87.191 Y246.715
G1 F300 X90.549 Y250.073 E114.80897
G0 F6000 X89.984 Y250.073
G1 F300 X87.191 Y247.28 E114.94034
G0 F6000 X87.191 Y247.846
G1 F300 X89.418 Y250.073 E115.04509
G0 F6000 X88.852 Y250.073
G1 F300 X87.191 Y248.412 E115.12322
G0 F6000 X87.191 Y248.977
G1 F300 X88.287 Y250.073 E115.17477
G0 F6000 X87.721 Y250.073
G1 F300 X87.191 Y249.543 E115.1997
G1 F2700 E110.1997
G0 F6000 X86.752 Y249.543
G0 X86.824 Y250.442
G0 X95.828 Y250.454
G0 X98.96 Y250.401
G0 X99.314 Y244.399
G0 X101.314 Y244.399
G0 X101.314 Y241.899
G0 X102.97 Y241.899
G0 X103.252 Y249.639
G1 F2700 E115.1997
G0 F6000 X103.692 Y249.639
G1 F300 X104.092 Y250.039 E115.21852
G0 F6000 X104.659 Y250.04
G1 F300 X103.692 Y249.073 E115.264
G0 F6000 X103.692 Y248.507
G1 F300 X105.225 Y250.041 E115.33613
G0 F6000 X105.793 Y250.042
G1 F300 X103.692 Y247.942 E115.43493
G0 F6000 X103.692 Y247.376
G1 F300 X106.359 Y250.043 E115.56038
G0 F6000 X106.925 Y250.044
G1 F300 X103.692 Y246.81 E115.71248
G0 F6000 X103.692 Y246.244
G1 F300 X107.492 Y250.045 E115.89124
G0 F6000 X108.059 Y250.046
G1 F300 X103.692 Y245.679 E116.09665
G0 F6000 X103.692 Y245.113
G1 F300 X108.626 Y250.047 E116.32873
G0 F6000 X109.192 Y250.048
G1 F300 X103.692 Y244.547 E116.58746
G0 F6000 X103.692 Y243.982
G1 F300 X109.759 Y250.049 E116.87283
G0 F6000 X110.326 Y250.05
G1 F300 X103.692 Y243.416 E117.18487
G0 F6000 X103.692 Y242.85
G1 F300 X110.892 Y250.051 E117.52356
G0 F6000 X111.459 Y250.052
G1 F300 X103.692 Y242.285 E117.8889
G0 F6000 X103.692 Y241.719
G1 F300 X112.026 Y250.053 E118.2809
G1 F2700 E113.2809
G0 F6000 X112.025 Y250.494
G0 X103.324 Y250.408
G0 X103.324 Y241.545
G0 X100.96 Y241.545
G0 X100.96 Y244.045
G0 X98.96 Y244.045
G0 X98.96 Y250.401
G0 X95.828 Y250.454
G0 X86.824 Y250.442
G0 X86.824 Y229.26
G0 X95.801 Y229.233
G0 X98.96 Y229.284
G0 X98.96 Y235.609
G0 X100.96 Y235.609
G0 X101.032 Y237.488
G1 F2700 E118.2809
G0 F6000 X100.592 Y237.488
G1 F300 X99.08 Y235.976 E118.35202
G0 F6000 X99.646 Y235.976
G1 F300 X100.592 Y236.922 E118.39652
G0 F6000 X100.592 Y236.356
G1 F300 X100.211 Y235.976 E118.41442
G0 F6000 X100.211 Y235.537
G0 X99.032 Y235.488
G0 X98.592 Y235.488
G1 F300 X92.731 Y229.627 E118.6901
