;FLAVOR:Marlin
;TIME:5021
;Filament used: 2.50255m
;Layer height: 0.2
;MINX:16.969
;MINY:27.553
;MINZ:0.2
;MAXX:50.334
;MAXY:63.553
;MAXZ:35
;Generated with Cura_SteamEngine 4.12.1
M140 S65
M105
M190 S65
M104 S215
M105
M109 S215
M82 ;absolute extrusion mode
M201 X500.00 Y500.00 Z100.00 E5000.00 ;Setup machine max acceleration
M203 X500.00 Y500.00 Z10.00 E50.00 ;Setup machine max feedrate
M204 P500.00 R1000.00 T500.00 ;Setup Print/Retract/Travel acceleration
M205 X8.00 Y8.00 Z0.40 E5.00 ;Setup Jerk
M220 S100 ;Reset Feedrate
M221 S100 ;Reset Flowrate

G28 ;Home

G92 E0 ;Reset Extruder
G1 Z2.0 F3000 ;Move Z Axis up
G1 X10.1 Y20 Z0.28 F5000.0 ;Move to start position
G1 X10.1 Y200.0 Z0.28 F1500.0 E15 ;Draw the first line
G1 X10.4 Y200.0 Z0.28 F5000.0 ;Move to side a little
G1 X10.4 Y20 Z0.28 F1500.0 E30 ;Draw the second line
G92 E0 ;Reset Extruder
G1 Z2.0 F3000 ;Move Z Axis up

G92 E0
G92 E0
G1 F2700 E-5
;LAYER_COUNT:175
;LAYER:0
M107
;MESH:electronics_platform.v4.stl
G0 F6000 X32.213 Y55.415 Z0.2
;TYPE:WALL-INNER
G1 F2700 E0
G1 F300 X33.065 Y55.184 E0.02936
G1 X33.171 Y55.15 E0.03306
G1 X33.907 Y54.877 E0.05917
G1 X34.008 Y54.833 E0.06284
G1 X34.716 Y54.498 E0.08889
G1 X34.814 Y54.445 E0.09259
G1 X35.487 Y54.049 E0.11856
G1 X35.58 Y53.987 E0.12228
G1 X36.217 Y53.533 E0.1483
G1 X36.304 Y53.464 E0.15199
G1 X36.9 Y52.954 E0.17808
G1 X36.979 Y52.876 E0.18178
G1 X37.525 Y52.319 E0.20772
G1 X37.598 Y52.234 E0.21144
G1 X38.094 Y51.629 E0.23746
G1 X38.159 Y51.539 E0.24116
G1 X38.6 Y50.892 E0.2672
G1 X38.657 Y50.795 E0.27094
G1 X39.037 Y50.114 E0.29688
G1 X39.085 Y50.014 E0.30057
G1 X39.404 Y49.302 E0.32652
G1 X39.445 Y49.198 E0.33024
G1 X39.699 Y48.453 E0.35642
G1 X39.729 Y48.347 E0.36008
G1 X39.917 Y47.59 E0.38602
G1 X39.938 Y47.481 E0.38971
G1 X40.06 Y46.704 E0.41587
G1 X40.07 Y46.593 E0.41958
G1 X40.121 Y45.818 E0.44541
G1 X40.123 Y45.707 E0.44911
G1 X40.107 Y44.921 E0.47525
G1 X40.097 Y44.81 E0.47896
G1 X40.011 Y44.032 E0.50499
G1 X39.992 Y43.922 E0.50871
G1 X39.837 Y43.15 E0.5349
G1 X39.587 Y42.3 E0.56437
G1 X39.549 Y42.194 E0.56811
G1 X39.262 Y41.465 E0.59417
G1 X39.215 Y41.364 E0.59787
G1 X38.865 Y40.669 E0.62376
G1 X38.811 Y40.572 E0.62745
G1 X38.398 Y39.902 E0.65363
G1 X38.333 Y39.811 E0.65735
G1 X37.867 Y39.188 E0.68322
G1 X37.796 Y39.103 E0.68691
G1 X37.271 Y38.516 E0.7131
G1 X36.623 Y37.906 E0.7427
G1 X36.538 Y37.834 E0.7464
G1 X35.922 Y37.353 E0.7724
G1 X35.831 Y37.289 E0.7761
G1 X35.172 Y36.862 E0.80222
G1 X35.074 Y36.808 E0.80594
G1 X34.382 Y36.441 E0.83199
G1 X34.281 Y36.396 E0.83567
G1 X33.564 Y36.094 E0.86154
G1 X33.458 Y36.056 E0.86529
G1 X32.714 Y35.819 E0.89126
G1 X32.607 Y35.79 E0.89495
G1 X31.843 Y35.62 E0.92098
G1 X31.734 Y35.601 E0.92466
G1 X30.96 Y35.497 E0.95063
G1 X30.849 Y35.488 E0.95434
G1 X30.068 Y35.454 E0.98034
G1 X29.957 Y35.454 E0.98403
G1 X29.17 Y35.488 E1.01023
G1 X29.059 Y35.5 E1.01394
G1 X28.287 Y35.605 E1.03986
G1 X28.178 Y35.625 E1.04354
G1 X27.41 Y35.797 E1.06972
G1 X27.303 Y35.829 E1.07343
G1 X26.555 Y36.067 E1.09954
G1 X25.735 Y36.41 E1.1291
G1 X25.636 Y36.459 E1.13278
G1 X24.943 Y36.824 E1.15883
G1 X24.848 Y36.883 E1.16255
G1 X24.19 Y37.309 E1.18862
G1 X24.101 Y37.375 E1.19231
G1 X23.486 Y37.855 E1.21825
G1 X23.403 Y37.929 E1.22195
G1 X22.833 Y38.463 E1.24793
G1 X22.755 Y38.544 E1.25167
G1 X22.235 Y39.127 E1.27765
G1 X22.166 Y39.213 E1.28132
G1 X21.697 Y39.84 E1.30736
G1 X21.635 Y39.933 E1.31108
G1 X21.224 Y40.6 E1.33714
G1 X21.172 Y40.698 E1.34083
G1 X20.823 Y41.394 E1.36672
G1 X20.778 Y41.495 E1.3704
G1 X20.489 Y42.228 E1.39661
G1 X20.455 Y42.333 E1.40028
G1 X20.235 Y43.08 E1.42618
G1 X20.208 Y43.188 E1.42988
G1 X20.054 Y43.955 E1.4559
G1 X20.037 Y44.065 E1.4596
G1 X19.952 Y44.843 E1.48563
G1 X19.945 Y44.954 E1.48933
G1 X19.927 Y45.74 E1.51548
G1 X19.932 Y45.852 E1.51921
G1 X19.984 Y46.632 E1.54521
G1 X19.998 Y46.741 E1.54887
G1 X20.117 Y47.514 E1.57488
G1 X20.141 Y47.623 E1.57859
G1 X20.33 Y48.383 E1.60464
G1 X20.363 Y48.488 E1.6083
G1 X20.619 Y49.234 E1.63453
G1 X20.979 Y50.044 E1.66402
G1 X21.031 Y50.143 E1.66773
G1 X21.411 Y50.826 E1.69373
G1 X21.471 Y50.92 E1.69744
G1 X21.911 Y51.566 E1.72344
G1 X21.978 Y51.654 E1.72711
G1 X22.474 Y52.26 E1.75316
G1 X22.549 Y52.342 E1.75686
G1 X23.098 Y52.903 E1.78296
G1 X23.181 Y52.978 E1.78668
G1 X23.775 Y53.486 E1.81268
G1 X23.864 Y53.553 E1.81639
G1 X24.498 Y54.006 E1.8423
G1 X24.592 Y54.066 E1.84601
G1 X25.269 Y54.463 E1.87211
G1 X25.368 Y54.513 E1.8758
G1 X26.073 Y54.847 E1.90175
G1 X26.176 Y54.89 E1.90546
G1 X26.911 Y55.16 E1.93151
G1 X27.016 Y55.192 E1.93516
G1 X27.775 Y55.4 E1.96133
G1 X28.651 Y55.559 E1.99094
G1 X28.76 Y55.572 E1.9946
G1 X29.54 Y55.641 E2.02064
G1 X29.65 Y55.645 E2.0243
G1 X30.442 Y55.646 E2.05064
G1 X31.33 Y55.57 E2.08029
G1 X32.213 Y55.415 E2.1101
G0 F6000 X32.126 Y55.024
;TYPE:WALL-OUTER
G1 F300 X32.951 Y54.801 E2.13853
G1 X33.04 Y54.772 E2.14164
G1 X33.758 Y54.506 E2.16711
G1 X33.843 Y54.469 E2.17019
G1 X34.534 Y54.142 E2.19562
G1 X34.616 Y54.097 E2.19873
G1 X35.275 Y53.71 E2.22415
G1 X35.353 Y53.658 E2.22726
G1 X35.976 Y53.213 E2.25273
G1 X36.049 Y53.155 E2.25583
G1 X36.63 Y52.658 E2.28126
G1 X36.697 Y52.593 E2.28436
G1 X37.231 Y52.047 E2.30977
G1 X37.293 Y51.976 E2.3129
G1 X37.777 Y51.385 E2.33831
G1 X37.832 Y51.309 E2.34143
G1 X38.262 Y50.677 E2.36685
G1 X38.31 Y50.596 E2.36998
G1 X38.682 Y49.929 E2.39539
G1 X38.723 Y49.845 E2.3985
G1 X39.035 Y49.147 E2.42392
G1 X39.069 Y49.06 E2.42703
G1 X39.317 Y48.335 E2.45252
G1 X39.342 Y48.245 E2.45562
G1 X39.526 Y47.503 E2.48105
G1 X39.544 Y47.411 E2.48417
G1 X39.663 Y46.656 E2.50959
G1 X39.671 Y46.563 E2.51269
G1 X39.721 Y45.801 E2.53809
G1 X39.723 Y45.707 E2.54122
G1 X39.707 Y44.942 E2.56667
G1 X39.699 Y44.849 E2.56977
G1 X39.615 Y44.088 E2.59524
G1 X39.599 Y43.996 E2.59834
G1 X39.448 Y43.246 E2.62379
G1 X39.207 Y42.424 E2.65228
G1 X39.175 Y42.335 E2.65543
G1 X38.895 Y41.624 E2.68084
G1 X38.855 Y41.539 E2.68397
G1 X38.512 Y40.857 E2.70936
G1 X38.466 Y40.775 E2.71248
G1 X38.064 Y40.123 E2.73796
G1 X38.01 Y40.047 E2.74106
G1 X37.553 Y39.436 E2.76644
G1 X37.493 Y39.364 E2.76956
G1 X36.982 Y38.793 E2.79504
G1 X36.915 Y38.728 E2.79815
G1 X36.357 Y38.205 E2.82358
G1 X36.286 Y38.145 E2.82668
G1 X35.684 Y37.675 E2.85208
G1 X35.607 Y37.621 E2.85521
G1 X34.965 Y37.205 E2.88065
G1 X34.883 Y37.159 E2.88378
G1 X34.207 Y36.801 E2.90922
G1 X34.122 Y36.763 E2.91232
G1 X33.419 Y36.467 E2.93769
G1 X33.33 Y36.435 E2.94083
G1 X32.602 Y36.203 E2.96624
G1 X32.512 Y36.179 E2.96934
G1 X31.765 Y36.012 E2.9948
G1 X31.673 Y35.996 E2.99791
G1 X30.916 Y35.895 E3.02331
G1 X30.823 Y35.887 E3.02641
G1 X30.059 Y35.854 E3.05185
G1 X29.966 Y35.854 E3.05494
G1 X29.2 Y35.887 E3.08044
G1 X29.107 Y35.897 E3.08355
G1 X28.35 Y36 E3.10896
G1 X28.258 Y36.017 E3.11207
G1 X27.511 Y36.184 E3.13753
G1 X27.421 Y36.211 E3.14066
G1 X26.693 Y36.443 E3.16607
G1 X25.901 Y36.774 E3.19462
G1 X25.818 Y36.815 E3.1977
G1 X25.141 Y37.172 E3.22316
G1 X25.061 Y37.221 E3.22628
G1 X24.419 Y37.637 E3.25172
G1 X24.344 Y37.693 E3.25483
G1 X23.742 Y38.163 E3.28024
G1 X23.672 Y38.225 E3.28335
G1 X23.114 Y38.747 E3.30876
G1 X23.049 Y38.815 E3.31189
G1 X22.54 Y39.386 E3.33733
G1 X22.482 Y39.458 E3.34041
G1 X22.024 Y40.071 E3.36586
G1 X21.972 Y40.149 E3.36897
G1 X21.571 Y40.8 E3.3944
G1 X21.527 Y40.882 E3.3975
G1 X21.185 Y41.565 E3.42291
G1 X21.147 Y41.65 E3.426
G1 X20.866 Y42.363 E3.45149
G1 X20.837 Y42.452 E3.45461
G1 X20.621 Y43.184 E3.47999
G1 X20.599 Y43.275 E3.4831
G1 X20.448 Y44.024 E3.50852
G1 X20.434 Y44.117 E3.51164
G1 X20.351 Y44.877 E3.53707
G1 X20.345 Y44.971 E3.54021
G1 X20.327 Y45.736 E3.56566
G1 X20.331 Y45.83 E3.56879
G1 X20.382 Y46.593 E3.59422
G1 X20.394 Y46.685 E3.59731
G1 X20.51 Y47.441 E3.62274
G1 X20.53 Y47.532 E3.62584
G1 X20.715 Y48.274 E3.65128
G1 X20.743 Y48.363 E3.65438
G1 X20.992 Y49.088 E3.67988
G1 X21.34 Y49.871 E3.70838
G1 X21.383 Y49.954 E3.71149
G1 X21.755 Y50.621 E3.73689
G1 X21.805 Y50.7 E3.74
G1 X22.236 Y51.332 E3.76544
G1 X22.292 Y51.406 E3.76853
G1 X22.777 Y51.998 E3.79398
G1 X22.84 Y52.067 E3.79709
G1 X23.375 Y52.614 E3.82254
G1 X23.445 Y52.677 E3.82567
G1 X24.025 Y53.174 E3.85107
G1 X24.1 Y53.23 E3.85419
G1 X24.721 Y53.674 E3.87958
G1 X24.8 Y53.724 E3.88269
G1 X25.461 Y54.112 E3.90818
G1 X25.544 Y54.154 E3.91127
G1 X26.235 Y54.481 E3.9367
G1 X26.322 Y54.517 E3.93983
G1 X27.038 Y54.781 E3.96521
G1 X27.127 Y54.808 E3.96831
G1 X27.867 Y55.01 E3.99382
G1 X27.958 Y55.028 E3.9969
G1 X28.71 Y55.163 E4.02232
G1 X28.802 Y55.174 E4.0254
G1 X29.564 Y55.242 E4.05084
G1 X29.657 Y55.245 E4.05394
G1 X30.425 Y55.246 E4.07948
G1 X31.278 Y55.173 E4.10796
G1 X32.126 Y55.024 E4.13659
G0 F6000 X32.221 Y55.453
G1 F2700 E-0.86341
G0 F6000 X30.451 Y55.837
G0 X30.386 Y54.382
G0 X30.629 Y63.009
G0 X29.834 Y61.767
G0 X29.312 Y62.31
;TYPE:WALL-INNER
G1 F2700 E4.13659
G1 F300 X28.668 Y62.603 E4.16012
G1 X27.994 Y62.838 E4.18387
G1 X27.322 Y63.005 E4.2069
G1 X26.608 Y63.111 E4.2309
G1 X25.913 Y63.152 E4.25406
G1 X25.199 Y63.125 E4.27782
G1 X24.498 Y63.034 E4.30134
G1 X23.811 Y62.879 E4.32476
G1 X23.151 Y62.664 E4.34785
G1 X22.486 Y62.375 E4.37196
G1 X21.88 Y62.044 E4.39493
G1 X21.288 Y61.642 E4.41873
G1 X20.742 Y61.193 E4.44224
G1 X20.23 Y60.686 E4.46621
G1 X19.792 Y60.162 E4.48892
G1 X19.381 Y59.566 E4.513
G1 X19.041 Y58.959 E4.53614
G1 X18.754 Y58.314 E4.55962
G1 X18.528 Y57.64 E4.58327
G1 X18.364 Y56.945 E4.60702
G1 X18.269 Y56.269 E4.62972
G1 X18.234 Y55.495 E4.65549
G1 X18.234 Y35.575 E5.31803
G1 X18.268 Y34.84 E5.34251
G1 X18.366 Y34.148 E5.36575
G1 X18.532 Y33.448 E5.38968
G1 X18.754 Y32.791 E5.41275
G1 X19.046 Y32.137 E5.43657
G1 X19.391 Y31.524 E5.45996
G1 X19.791 Y30.947 E5.48331
G1 X20.245 Y30.405 E5.50683
G1 X20.754 Y29.901 E5.53065
G1 X21.297 Y29.458 E5.55396
G1 X21.886 Y29.06 E5.57761
G1 X22.501 Y28.724 E5.60091
G1 X23.151 Y28.443 E5.62447
G1 X23.832 Y28.223 E5.64827
G1 X24.513 Y28.07 E5.67148
G1 X25.21 Y27.98 E5.69486
G1 X25.924 Y27.954 E5.71862
G1 X26.625 Y27.994 E5.74198
G1 X27.322 Y28.1 E5.76543
G1 X27.989 Y28.266 E5.78829
G1 X28.668 Y28.502 E5.8122
G1 X29.309 Y28.795 E5.83564
G1 X29.943 Y29.16 E5.85997
G1 X46.903 Y40.003 E6.52949
G1 X47.423 Y40.374 E6.55074
G1 X47.93 Y40.818 E6.57315
G1 X48.378 Y41.299 E6.59501
G1 X48.779 Y41.824 E6.61699
G1 X49.123 Y42.387 E6.63893
G1 X49.415 Y42.988 E6.66116
G1 X49.637 Y43.601 E6.68284
G1 X49.801 Y44.24 E6.70478
G1 X49.9 Y44.898 E6.72691
G1 X49.932 Y45.558 E6.74889
G1 X49.899 Y46.228 E6.7712
G1 X49.801 Y46.869 E6.79277
G1 X49.636 Y47.509 E6.81475
G1 X49.409 Y48.131 E6.83677
G1 X49.115 Y48.734 E6.85909
G1 X48.777 Y49.284 E6.88056
G1 X48.362 Y49.826 E6.90326
G1 X47.927 Y50.292 E6.92447
G1 X47.428 Y50.729 E6.94653
G1 X46.867 Y51.128 E6.96942
G1 X29.939 Y61.949 E7.63766
G1 X29.312 Y62.31 E7.66172
G0 F6000 X29.495 Y62.666
;TYPE:WALL-OUTER
G1 F300 X28.817 Y62.975 E7.6865
G1 X28.11 Y63.221 E7.7114
G1 X27.396 Y63.399 E7.73587
G1 X26.657 Y63.509 E7.76072
G1 X25.911 Y63.553 E7.78558
G1 X25.165 Y63.524 E7.81041
G1 X24.434 Y63.429 E7.83493
G1 X23.706 Y63.265 E7.85975
G1 X23.007 Y63.037 E7.8842
G1 X22.309 Y62.734 E7.90951
G1 X21.67 Y62.385 E7.93373
G1 X21.05 Y61.964 E7.95865
G1 X20.472 Y61.489 E7.98354
G1 X19.939 Y60.961 E8.00849
G1 X19.474 Y60.404 E8.03262
G1 X19.041 Y59.777 E8.05797
G1 X18.684 Y59.139 E8.08228
G1 X18.381 Y58.46 E8.10701
G1 X18.143 Y57.75 E8.13192
G1 X17.97 Y57.018 E8.15694
G1 X17.87 Y56.299 E8.18108
G1 X17.834 Y55.513 E8.20725
G1 X17.834 Y35.556 E8.87102
G1 X17.869 Y34.808 E8.89593
G1 X17.972 Y34.076 E8.92051
G1 X18.148 Y33.334 E8.94588
G1 X18.38 Y32.648 E8.96996
G1 X18.691 Y31.952 E8.99532
G1 X19.051 Y31.311 E9.01977
G1 X19.473 Y30.703 E9.04439
G1 X19.949 Y30.135 E9.06904
G1 X20.485 Y29.604 E9.09413
G1 X21.054 Y29.14 E9.11855
G1 X21.681 Y28.716 E9.14372
G1 X22.324 Y28.365 E9.16809
G1 X23.014 Y28.067 E9.19309
G1 X23.721 Y27.838 E9.21781
G1 X24.448 Y27.675 E9.24259
G1 X25.177 Y27.581 E9.26703
G1 X25.921 Y27.554 E9.2918
G1 X26.665 Y27.596 E9.31658
G1 X27.402 Y27.708 E9.34137
G1 X28.107 Y27.883 E9.36553
G1 X28.817 Y28.13 E9.39054
G1 X29.497 Y28.441 E9.41541
G1 X30.143 Y28.813 E9.4402
G1 X47.135 Y39.677 E10.111
G1 X47.674 Y40.061 E10.13301
G1 X48.21 Y40.531 E10.15672
G1 X48.683 Y41.039 E10.17981
G1 X49.108 Y41.596 E10.20311
G1 X49.476 Y42.198 E10.22658
G1 X49.782 Y42.828 E10.24987
G1 X50.019 Y43.482 E10.27301
G1 X50.195 Y44.167 E10.29653
G1 X50.299 Y44.859 E10.3198
G1 X50.333 Y45.559 E10.34311
G1 X50.298 Y46.259 E10.36642
G1 X50.193 Y46.951 E10.3897
G1 X50.017 Y47.632 E10.4131
G1 X49.778 Y48.288 E10.43632
G1 X49.468 Y48.924 E10.45985
G1 X49.106 Y49.513 E10.48285
G1 X48.671 Y50.081 E10.50664
G1 X48.201 Y50.584 E10.52954
G1 X47.678 Y51.042 E10.55266
G1 X47.097 Y51.455 E10.57637
G1 X30.138 Y62.296 E11.24583
G1 X29.495 Y62.666 E11.2705
G0 F6000 X29.294 Y62.275
G0 X29.133 Y61.963
;TYPE:SKIN
G1 F300 X28.52 Y62.241 E11.29289
G1 X27.878 Y62.465 E11.31551
G1 X27.253 Y62.621 E11.33693
G1 X26.573 Y62.721 E11.35979
G1 X25.905 Y62.762 E11.38205
G1 X25.222 Y62.735 E11.40479
G1 X24.569 Y62.65 E11.42669
G1 X23.921 Y62.504 E11.44878
G1 X23.283 Y62.296 E11.4711
G1 X22.669 Y62.03 E11.49336
G1 X22.074 Y61.705 E11.5159
G1 X21.527 Y61.333 E11.53791
G1 X21.006 Y60.905 E11.56033
G1 X20.512 Y60.416 E11.58345
G1 X20.103 Y59.926 E11.60468
G1 X19.711 Y59.356 E11.62769
G1 X19.392 Y58.788 E11.64936
G1 X19.116 Y58.168 E11.67193
G1 X18.905 Y57.536 E11.69409
G1 X18.744 Y56.855 E11.71736
G1 X18.659 Y56.24 E11.73801
G1 X18.624 Y55.495 E11.76282
G1 X18.624 Y35.593 E12.42476
G1 X18.658 Y34.865 E12.449
G1 X18.746 Y34.238 E12.47006
G1 X18.91 Y33.545 E12.49375
G1 X19.117 Y32.934 E12.5152
G1 X19.395 Y32.312 E12.53786
G1 X19.726 Y31.723 E12.56034
G1 X20.098 Y31.188 E12.58201
G1 X20.527 Y30.676 E12.60423
G1 X21.022 Y30.185 E12.62741
G1 X21.528 Y29.772 E12.64914
G1 X22.079 Y29.4 E12.67125
G1 X22.682 Y29.07 E12.69411
G1 X23.289 Y28.808 E12.7161
G1 X23.935 Y28.599 E12.73869
G1 X24.585 Y28.454 E12.76084
G1 X25.231 Y28.37 E12.7825
G1 X25.916 Y28.344 E12.8053
G1 X26.586 Y28.383 E12.82762
G1 X27.255 Y28.485 E12.85013
G1 X27.876 Y28.64 E12.87142
G1 X28.516 Y28.862 E12.89395
G1 X29.13 Y29.142 E12.9164
G1 X29.74 Y29.494 E12.93982
G1 X46.685 Y40.327 E13.60874
G1 X47.184 Y40.683 E13.62913
G1 X47.663 Y41.101 E13.65028
G1 X48.072 Y41.542 E13.67028
G1 X48.458 Y42.046 E13.6914
G1 X48.78 Y42.574 E13.71196
G1 X49.054 Y43.137 E13.73279
G1 X49.265 Y43.721 E13.75344
G1 X49.418 Y44.317 E13.77391
G1 X49.51 Y44.935 E13.79469
G1 X49.542 Y45.558 E13.81544
G1 X49.511 Y46.189 E13.83645
G1 X49.418 Y46.79 E13.85668
G1 X49.263 Y47.391 E13.87732
G1 X49.048 Y47.981 E13.89821
G1 X48.769 Y48.552 E13.91934
G1 X48.461 Y49.054 E13.93893
G1 X48.057 Y49.582 E13.96105
G1 X47.655 Y50.012 E13.98062
G1 X47.189 Y50.42 E14.00122
G1 X46.649 Y50.804 E14.02326
G1 X29.736 Y61.615 E14.6909
G1 X29.133 Y61.963 E14.71405
G1 F2700 E9.71405
G0 F6000 X29.27 Y62.206
G0 X29.834 Y61.767
G0 X30.629 Y63.009
G0 X29.683 Y54.381
G0 X29.646 Y55.836
G1 F2700 E14.71405
G0 F6000 X29.516 Y56.031
G1 F300 X29.643 Y56.035 E14.71828
G1 X30.458 Y56.036 E14.74539
G1 X31.381 Y55.958 E14.77619
G1 X32.298 Y55.796 E14.80717
G1 X33.176 Y55.558 E14.83742
G1 X33.298 Y55.519 E14.84168
G1 X34.053 Y55.239 E14.86846
G1 X34.17 Y55.188 E14.87271
G1 X34.892 Y54.846 E14.89928
G1 X35.005 Y54.785 E14.90355
G1 X35.694 Y54.38 E14.93013
G1 X35.802 Y54.309 E14.93443
G1 X36.452 Y53.845 E14.961
G1 X36.552 Y53.764 E14.96528
G1 X37.163 Y53.241 E14.99203
G1 X37.255 Y53.151 E14.99631
G1 X37.812 Y52.583 E15.02277
G1 X37.896 Y52.486 E15.02703
G1 X38.404 Y51.867 E15.05367
G1 X38.479 Y51.763 E15.05793
G1 X38.929 Y51.101 E15.08456
G1 X38.996 Y50.989 E15.0889
G1 X39.384 Y50.293 E15.1154
G1 X39.439 Y50.177 E15.11967
G1 X39.763 Y49.454 E15.14602
G1 X39.811 Y49.333 E15.15035
G1 X40.072 Y48.569 E15.1772
G1 X40.106 Y48.446 E15.18145
G1 X40.298 Y47.674 E15.20791
G1 X40.322 Y47.548 E15.21217
G1 X40.448 Y46.752 E15.23898
G1 X40.511 Y45.834 E15.26958
G1 X40.513 Y45.707 E15.27381
G1 X40.497 Y44.899 E15.30069
G1 X40.485 Y44.771 E15.30496
G1 X40.397 Y43.978 E15.3315
G1 X40.376 Y43.85 E15.33581
G1 X40.216 Y43.056 E15.36275
G1 X39.958 Y42.179 E15.39316
G1 X39.914 Y42.057 E15.39747
G1 X39.621 Y41.311 E15.42413
