;FLAVOR:Marlin
;TIME:4958
;Filament used: 2.37469m
;Layer height: 0.2
;MINX:21.116
;MINY:234.037
;MINZ:0.2
;MAXX:54.481
;MAXY:270.924
;MAXZ:35
;Generated with Cura_SteamEngine 4.12.1
M140 S65
M105
M190 S65
M104 S215
M105
M109 S215
M82 ;absolute extrusion mode
M201 X500.00 Y500.00 Z100.00 E5000.00 ;Setup machine max acceleration
M203 X500.00 Y500.00 Z10.00 E50.00 ;Setup machine max feedrate
M204 P500.00 R1000.00 T500.00 ;Setup Print/Retract/Travel acceleration
M205 X8.00 Y8.00 Z0.40 E5.00 ;Setup Jerk
M220 S100 ;Reset Feedrate
M221 S100 ;Reset Flowrate

G28 ;Home

G92 E0 ;Reset Extruder
G1 Z2.0 F3000 ;Move Z Axis up
G1 X10.1 Y20 Z0.28 F5000.0 ;Move to start position
G1 X10.1 Y200.0 Z0.28 F1500.0 E15 ;Draw the first line
G1 X10.4 Y200.0 Z0.28 F5000.0 ;Move to side a little
G1 X10.4 Y20 Z0.28 F1500.0 E30 ;Draw the second line
G92 E0 ;Reset Extruder
G1 Z2.0 F3000 ;Move Z Axis up

G92 E0
G92 E0
G1 F2700 E-5
;LAYER_COUNT:175
;LAYER:0
M107
;MESH:electronics_platform.v12.stl
G0 F6000 X40.934 Y245.315 Z0.2
;TYPE:WALL-INNER
G1 F2700 E0
G1 F300 X41.021 Y244.941 E0.01277
G1 X41.038 Y244.841 E0.01615
G1 X41.06 Y244.41 E0.0305
G1 X41.019 Y244.072 E0.04182
G1 X41.001 Y243.958 E0.04566
G1 X40.907 Y243.642 E0.05663
G1 X40.869 Y243.529 E0.06059
G1 X40.635 Y243.066 E0.07785
G1 X40.191 Y242.716 E0.09665
G1 X39.757 Y242.49 E0.11293
G1 X39.288 Y242.349 E0.12921
G1 X38.802 Y242.298 E0.14547
G1 X38.314 Y242.34 E0.16176
G1 X37.843 Y242.471 E0.17802
G1 X37.43 Y242.676 E0.19335
G1 X32.175 Y245.936 E0.39904
G1 X31.809 Y246.216 E0.41436
G1 X31.482 Y246.578 E0.43059
G1 X31.227 Y246.998 E0.44693
G1 X31.057 Y247.456 E0.46318
G1 X30.975 Y247.938 E0.47944
G1 X30.984 Y248.428 E0.49574
G1 X31.102 Y248.981 E0.51455
G1 X31.423 Y249.41 E0.53237
G1 X31.76 Y249.725 E0.54771
G1 X32.141 Y249.97 E0.56278
G1 X32.452 Y250.104 E0.57404
G1 X32.568 Y250.15 E0.57819
G1 X32.987 Y250.248 E0.5925
G1 X33.444 Y250.274 E0.60773
G1 X33.894 Y250.219 E0.62281
G1 X34.328 Y250.088 E0.63789
G1 X34.709 Y249.896 E0.65208
G1 X39.853 Y246.705 E0.85341
G1 X40.196 Y246.447 E0.86769
G1 X40.506 Y246.115 E0.88279
G1 X40.714 Y245.799 E0.89538
G1 X40.76 Y245.722 E0.89836
G1 X40.934 Y245.315 E0.91308
G0 F6000 X40.552 Y245.19
;TYPE:WALL-OUTER
G1 F300 X40.629 Y244.861 E0.92432
G1 X40.64 Y244.797 E0.92648
G1 X40.659 Y244.424 E0.9389
G1 X40.623 Y244.128 E0.94882
G1 X40.61 Y244.047 E0.95155
G1 X40.526 Y243.763 E0.9614
G1 X40.499 Y243.684 E0.96418
G1 X40.318 Y243.325 E0.97755
G1 X39.973 Y243.053 E0.99216
G1 X39.606 Y242.862 E1.00592
G1 X39.209 Y242.743 E1.01971
G1 X38.798 Y242.7 E1.03345
G1 X38.385 Y242.735 E1.04724
G1 X37.987 Y242.846 E1.06098
G1 X37.625 Y243.026 E1.07442
G1 X32.402 Y246.266 E1.27885
G1 X32.081 Y246.511 E1.29228
G1 X31.804 Y246.818 E1.30604
G1 X31.589 Y247.173 E1.31984
G1 X31.445 Y247.56 E1.33357
G1 X31.376 Y247.968 E1.34734
G1 X31.383 Y248.382 E1.36111
G1 X31.475 Y248.812 E1.37573
G1 X31.722 Y249.142 E1.38944
G1 X32.007 Y249.408 E1.40241
G1 X32.33 Y249.616 E1.41519
G1 X32.604 Y249.734 E1.42511
G1 X32.688 Y249.767 E1.42811
G1 X33.045 Y249.851 E1.44031
G1 X33.431 Y249.873 E1.45317
G1 X33.811 Y249.826 E1.4659
G1 X34.179 Y249.715 E1.47869
G1 X34.513 Y249.547 E1.49112
G1 X39.627 Y246.374 E1.6913
G1 X39.928 Y246.148 E1.70382
G1 X40.191 Y245.867 E1.71662
G1 X40.375 Y245.587 E1.72776
G1 X40.403 Y245.54 E1.72958
G1 X40.552 Y245.19 E1.74223
G0 F6000 X40.97 Y245.326
G1 F2700 E-3.25777
G0 F6000 X40.657 Y246.233
G0 X41.231 Y247.951
G0 X43.245 Y248.148
G0 X43.88 Y248.266
G0 X44.494 Y248.462
G0 X45.081 Y248.736
G0 X45.624 Y249.084
G0 X46.12 Y249.499
G0 X46.559 Y249.973
G0 X46.934 Y250.498
G0 X47.237 Y251.068
G0 X47.468 Y251.672
G0 X47.617 Y252.3
G0 X47.685 Y252.944
G0 X47.673 Y253.522
G0 X47.285 Y255.514
;TYPE:WALL-INNER
G1 F2700 E1.74223
G1 F300 X47.549 Y254.901 E1.76443
G1 X47.732 Y254.261 E1.78657
G1 X47.831 Y253.602 E1.80873
G1 X47.846 Y252.936 E1.83089
G1 X47.775 Y252.272 E1.8531
G1 X47.621 Y251.624 E1.87526
G1 X47.384 Y251.001 E1.89742
G1 X47.071 Y250.414 E1.91955
G1 X46.684 Y249.871 E1.94173
G1 X46.231 Y249.381 E1.96392
G1 X45.72 Y248.955 E1.98605
G1 X45.158 Y248.596 E2.00823
G1 X44.554 Y248.313 E2.03042
G1 X43.92 Y248.109 E2.05257
G1 X43.264 Y247.988 E2.07475
G1 X42.599 Y247.952 E2.0969
G1 X41.934 Y248.002 E2.11909
G1 X41.281 Y248.135 E2.14125
G1 X40.651 Y248.351 E2.1634
G1 X40.053 Y248.646 E2.18558
G1 X39.498 Y249.016 E2.20776
G1 X38.995 Y249.452 E2.2299
G1 X38.551 Y249.95 E2.2521
G1 X38.176 Y250.501 E2.27426
G1 X37.873 Y251.094 E2.29641
G1 X37.649 Y251.722 E2.31859
G1 X37.508 Y252.373 E2.34074
G1 X37.45 Y253.037 E2.36291
G1 X37.477 Y253.703 E2.38508
G1 X37.59 Y254.36 E2.40725
G1 X37.786 Y254.997 E2.42942
G1 X38.061 Y255.605 E2.45162
G1 X38.414 Y256.171 E2.4738
G1 X38.834 Y256.687 E2.49593
G1 X39.317 Y257.147 E2.51812
G1 X39.855 Y257.54 E2.54027
G1 X40.439 Y257.861 E2.56244
G1 X41.059 Y258.106 E2.58461
G1 X41.707 Y258.268 E2.60683
G1 X42.367 Y258.346 E2.62893
G1 X43.034 Y258.34 E2.65112
G1 X43.693 Y258.248 E2.67325
G1 X44.337 Y258.073 E2.69545
G1 X44.953 Y257.817 E2.71763
G1 X45.53 Y257.484 E2.73979
G1 X46.06 Y257.08 E2.76196
G1 X46.534 Y256.612 E2.78411
G1 X46.944 Y256.087 E2.80627
G1 X47.285 Y255.514 E2.82844
G0 F6000 X46.928 Y255.332
;TYPE:WALL-OUTER
G1 F300 X47.171 Y254.766 E2.84893
G1 X47.34 Y254.176 E2.86934
G1 X47.432 Y253.567 E2.88983
G1 X47.446 Y252.953 E2.91026
G1 X47.38 Y252.34 E2.93076
G1 X47.238 Y251.742 E2.9512
G1 X47.019 Y251.167 E2.97167
G1 X46.73 Y250.625 E2.9921
G1 X46.373 Y250.124 E3.01256
G1 X45.955 Y249.672 E3.03304
G1 X45.483 Y249.278 E3.05349
G1 X44.965 Y248.947 E3.07393
G1 X44.407 Y248.686 E3.09442
G1 X43.822 Y248.498 E3.11486
G1 X43.217 Y248.386 E3.13532
G1 X42.603 Y248.353 E3.15577
G1 X41.989 Y248.399 E3.17625
G1 X41.386 Y248.522 E3.19672
G1 X40.805 Y248.721 E3.21715
G1 X40.253 Y248.993 E3.23761
G1 X39.741 Y249.335 E3.25809
G1 X39.276 Y249.737 E3.27854
G1 X38.867 Y250.197 E3.29901
G1 X38.521 Y250.705 E3.31945
G1 X38.241 Y251.253 E3.33992
G1 X38.034 Y251.832 E3.36037
G1 X37.904 Y252.433 E3.38082
G1 X37.851 Y253.046 E3.40129
G1 X37.876 Y253.661 E3.42176
G1 X37.98 Y254.267 E3.44221
G1 X38.161 Y254.855 E3.46267
G1 X38.415 Y255.416 E3.48316
G1 X38.74 Y255.938 E3.50361
G1 X39.128 Y256.415 E3.52406
G1 X39.574 Y256.839 E3.54453
G1 X40.07 Y257.202 E3.56497
G1 X40.609 Y257.498 E3.58542
G1 X41.182 Y257.724 E3.60591
G1 X41.779 Y257.874 E3.62638
G1 X42.389 Y257.946 E3.64681
G1 X43.004 Y257.94 E3.66727
G1 X43.613 Y257.855 E3.68772
G1 X44.207 Y257.694 E3.70819
G1 X44.775 Y257.458 E3.72865
G1 X45.308 Y257.15 E3.74912
G1 X45.797 Y256.777 E3.76958
G1 X46.235 Y256.345 E3.79004
G1 X46.613 Y255.861 E3.81046
G1 X46.928 Y255.332 E3.83094
G0 F6000 X47.32 Y255.531
G1 F2700 E-1.16906
G0 F6000 X47.102 Y256.195
G0 X45.899 Y255.372
G0 X54.338 Y264.44
G0 X52.878 Y264.236
G0 X52.692 Y265.644
;TYPE:WALL-INNER
G1 F2700 E3.83094
G1 F300 X52.404 Y266.288 E3.85441
G1 X52.06 Y266.899 E3.87773
G1 X51.653 Y267.488 E3.90154
G1 X51.207 Y268.018 E3.92458
G1 X50.699 Y268.52 E3.94833
G1 X50.157 Y268.964 E3.97164
G1 X49.558 Y269.369 E3.99568
G1 X48.951 Y269.701 E4.0187
G1 X48.289 Y269.986 E4.04267
G1 X47.627 Y270.201 E4.06582
G1 X46.94 Y270.355 E4.08924
G1 X46.243 Y270.446 E4.11261
G1 X45.527 Y270.472 E4.13644
G1 X44.834 Y270.43 E4.15954
G1 X44.132 Y270.327 E4.18313
G1 X43.466 Y270.162 E4.20596
G1 X42.794 Y269.929 E4.22961
G1 X42.156 Y269.639 E4.25292
G1 X41.516 Y269.271 E4.27748
G1 X24.546 Y258.423 E4.94737
G1 X24.017 Y258.046 E4.96897
G1 X23.526 Y257.615 E4.9907
G1 X23.072 Y257.127 E5.01287
G1 X22.671 Y256.602 E5.03484
G1 X22.327 Y256.039 E5.05679
G1 X22.035 Y255.438 E5.07901
G1 X21.813 Y254.824 E5.10073
G1 X21.649 Y254.186 E5.12264
G1 X21.551 Y253.529 E5.14473
G1 X21.518 Y252.866 E5.16681
G1 X21.551 Y252.197 E5.18909
G1 X21.649 Y251.556 E5.21066
G1 X21.814 Y250.917 E5.23261
G1 X22.041 Y250.294 E5.25466
G1 X22.334 Y249.692 E5.27693
G1 X22.683 Y249.126 E5.29904
G1 X23.072 Y248.616 E5.32038
G1 X23.539 Y248.118 E5.34309
G1 X24.02 Y247.698 E5.36432
G1 X24.578 Y247.301 E5.3871
G1 X41.516 Y236.473 E6.05574
G1 X42.117 Y236.126 E6.07882
G1 X42.226 Y236.074 E6.08284
G1 X42.751 Y235.834 E6.10204
G1 X42.862 Y235.792 E6.10598
G1 X43.427 Y235.595 E6.12589
G1 X43.512 Y235.57 E6.12883
G1 X44.079 Y235.431 E6.14825
G1 X44.178 Y235.412 E6.1516
G1 X44.838 Y235.312 E6.1738
G1 X45.535 Y235.273 E6.19702
G1 X46.25 Y235.3 E6.22082
G1 X46.952 Y235.391 E6.24437
G1 X47.638 Y235.547 E6.26776
G1 X48.308 Y235.765 E6.2912
G1 X48.957 Y236.047 E6.31473
G1 X49.572 Y236.384 E6.33806
G1 X50.158 Y236.781 E6.3616
G1 X50.708 Y237.233 E6.38528
G1 X51.215 Y237.735 E6.40901
G1 X51.662 Y238.269 E6.43217
G1 X52.066 Y238.856 E6.45587
G1 X52.411 Y239.471 E6.47933
G1 X52.697 Y240.114 E6.50273
G1 X52.921 Y240.783 E6.5262
G1 X53.087 Y241.481 E6.55006
G1 X53.181 Y242.157 E6.57276
G1 X53.216 Y242.93 E6.5985
G1 X53.216 Y262.848 E7.26097
G1 X53.179 Y263.594 E7.28581
G1 X53.085 Y264.273 E7.30861
G1 X52.919 Y264.969 E7.33241
G1 X52.692 Y265.644 E7.3561
G0 F6000 X53.066 Y265.787
;TYPE:WALL-OUTER
G1 F300 X52.759 Y266.473 E7.3811
G1 X52.403 Y267.106 E7.40525
G1 X51.972 Y267.73 E7.43047
G1 X51.497 Y268.295 E7.45502
G1 X50.969 Y268.816 E7.4797
G1 X50.392 Y269.289 E7.50451
G1 X49.77 Y269.709 E7.52947
G1 X49.128 Y270.06 E7.55381
G1 X48.433 Y270.36 E7.57899
G1 X47.734 Y270.587 E7.60343
G1 X47.002 Y270.751 E7.62838
G1 X46.276 Y270.845 E7.65273
G1 X45.528 Y270.872 E7.67762
G1 X44.785 Y270.828 E7.70238
G1 X44.062 Y270.721 E7.72669
G1 X43.352 Y270.546 E7.75101
G1 X43.304 Y270.531 E7.75268
G1 X42.657 Y270.305 E7.77548
G1 X42.605 Y270.284 E7.77734
G1 X41.99 Y270.003 E7.79983
G1 X41.943 Y269.979 E7.80159
G1 X41.307 Y269.612 E7.82601
G1 X24.316 Y258.75 E8.49674
G1 X23.772 Y258.363 E8.51895
G1 X23.241 Y257.896 E8.54247
G1 X22.767 Y257.387 E8.5656
G1 X22.342 Y256.83 E8.5889
G1 X21.974 Y256.228 E8.61237
G1 X21.668 Y255.598 E8.63566
G1 X21.431 Y254.943 E8.65883
G1 X21.255 Y254.259 E8.68232
G1 X21.152 Y253.567 E8.70559
G1 X21.117 Y252.866 E8.72894
G1 X21.152 Y252.166 E8.75225
G1 X21.257 Y251.474 E8.77553
G1 X21.433 Y250.794 E8.79889
G1 X21.672 Y250.137 E8.82214
G1 X21.984 Y249.497 E8.84582
G1 X22.352 Y248.9 E8.86915
G1 X22.693 Y248.451 E8.8879
G1 X22.769 Y248.354 E8.892
G1 X23.256 Y247.835 E8.91567
G1 X23.775 Y247.381 E8.93861
G1 X24.346 Y246.975 E8.96191
G1 X41.307 Y236.132 E9.63146
G1 X41.938 Y235.768 E9.65569
G1 X42.053 Y235.713 E9.65993
G1 X42.601 Y235.463 E9.67996
G1 X42.719 Y235.418 E9.68416
G1 X43.295 Y235.217 E9.70445
G1 X43.41 Y235.184 E9.70843
G1 X43.997 Y235.04 E9.72853
G1 X44.118 Y235.016 E9.73264
G1 X44.787 Y234.915 E9.75514
G1 X45.539 Y234.873 E9.78019
G1 X46.285 Y234.901 E9.80502
G1 X47.016 Y234.996 E9.82954
G1 X47.744 Y235.161 E9.85437
G1 X48.452 Y235.392 E9.87914
G1 X49.134 Y235.688 E9.90386
G1 X49.777 Y236.04 E9.92825
G1 X50.4 Y236.462 E9.95327
G1 X50.978 Y236.937 E9.97816
G1 X51.511 Y237.465 E10.00311
G1 X51.976 Y238.021 E10.02722
G1 X52.409 Y238.649 E10.05259
G1 X52.766 Y239.286 E10.07687
G1 X53.07 Y239.969 E10.10174
G1 X53.306 Y240.673 E10.12644
G1 X53.48 Y241.408 E10.15156
G1 X53.58 Y242.127 E10.1757
G1 X53.616 Y242.912 E10.20184
G1 X53.616 Y262.868 E10.86558
G1 X53.579 Y263.624 E10.89075
G1 X53.478 Y264.349 E10.9151
G1 X53.304 Y265.08 E10.94009
G1 X53.066 Y265.787 E10.9649
G0 F6000 X52.657 Y265.627
G0 X52.327 Y265.505
;TYPE:SKIN
G1 F300 X52.055 Y266.113 E10.98706
G1 X51.731 Y266.689 E11.00904
G1 X51.339 Y267.257 E11.03199
G1 X50.926 Y267.747 E11.05331
G1 X50.436 Y268.231 E11.07621
G1 X49.924 Y268.65 E11.09822
G1 X49.351 Y269.038 E11.12123
G1 X48.779 Y269.351 E11.14292
G1 X48.156 Y269.619 E11.16548
G1 X47.516 Y269.827 E11.18786
G1 X46.872 Y269.971 E11.20981
G1 X46.22 Y270.056 E11.23168
G1 X45.537 Y270.082 E11.25441
G1 X44.866 Y270.04 E11.27677
G1 X44.202 Y269.943 E11.29909
G1 X43.589 Y269.791 E11.3201
G1 X42.931 Y269.563 E11.34326
G1 X42.338 Y269.294 E11.36492
G1 X41.719 Y268.937 E11.38868
G1 X24.764 Y258.099 E12.05798
G1 X24.256 Y257.738 E12.0787
G1 X23.793 Y257.332 E12.09919
G1 X23.378 Y256.884 E12.1195
G1 X22.992 Y256.38 E12.14061
G1 X22.67 Y255.852 E12.16118
G1 X22.394 Y255.286 E12.18212
G1 X22.187 Y254.711 E12.20245
G1 X22.032 Y254.109 E12.22313
G1 X21.941 Y253.492 E12.24387
G1 X21.908 Y252.865 E12.26475
G1 X21.939 Y252.236 E12.2857
G1 X22.032 Y251.635 E12.30593
G1 X22.188 Y251.031 E12.32667
G1 X22.401 Y250.447 E12.34735
G1 X22.679 Y249.874 E12.36853
G1 X23.012 Y249.336 E12.38958
G1 X23.368 Y248.869 E12.40911
G1 X23.805 Y248.404 E12.43033
G1 X24.265 Y248.002 E12.45065
G1 X24.796 Y247.625 E12.47231
G1 X41.726 Y236.802 E13.14063
G1 X42.29 Y236.476 E13.1623
G1 X42.901 Y236.195 E13.18467
G1 X42.995 Y236.159 E13.18802
G1 X43.556 Y235.963 E13.20778
G1 X43.613 Y235.947 E13.20975
G1 X44.17 Y235.811 E13.22882
G1 X44.24 Y235.797 E13.2312
G1 X44.877 Y235.701 E13.25262
G1 X45.542 Y235.663 E13.27478
G1 X46.229 Y235.69 E13.29764
G1 X46.88 Y235.775 E13.31948
G1 X47.527 Y235.921 E13.34154
G1 X48.176 Y236.133 E13.36425
G1 X48.783 Y236.396 E13.38625
G1 X49.363 Y236.713 E13.40823
G1 X49.92 Y237.091 E13.43062
G1 X50.45 Y237.527 E13.45345
G1 X50.933 Y238.006 E13.47607
G1 X51.354 Y238.508 E13.49787
G1 X51.732 Y239.057 E13.52003
G1 X52.06 Y239.642 E13.54234
G1 X52.335 Y240.26 E13.56484
G1 X52.544 Y240.884 E13.58673
G1 X52.706 Y241.566 E13.61004
G1 X52.791 Y242.182 E13.63072
G1 X52.826 Y242.93 E13.65563
G1 X52.826 Y262.829 E14.31747
G1 X52.789 Y263.567 E14.34205
G1 X52.704 Y264.188 E14.3629
G1 X52.544 Y264.861 E14.38591
G1 X52.327 Y265.505 E14.40851
G1 F2700 E9.40851
G0 F6000 X52.582 Y265.619
G0 X52.878 Y264.236
G0 X54.338 Y264.44
G0 X45.229 Y256.123
G0 X46.185 Y257.224
G1 F2700 E14.40851
G0 F6000 X46.316 Y257.375
G1 F300 X46.826 Y256.872 E14.43233
G1 X47.266 Y256.308 E14.45612
G1 X47.634 Y255.692 E14.47999
G1 X47.917 Y255.032 E14.50388
G1 X48.114 Y254.344 E14.52768
G1 X48.221 Y253.635 E14.55153
G1 X48.236 Y252.92 E14.57531
G1 X48.161 Y252.206 E14.59919
G1 X47.995 Y251.509 E14.62302
G1 X47.739 Y250.839 E14.64688
G1 X47.403 Y250.208 E14.67065
G1 X46.987 Y249.625 E14.69448
G1 X46.5 Y249.098 E14.71834
G1 X45.951 Y248.639 E14.74214
G1 X45.347 Y248.253 E14.76598
G1 X44.697 Y247.95 E14.78984
G1 X44.016 Y247.73 E14.81364
G1 X43.31 Y247.6 E14.83752
G1 X42.595 Y247.562 E14.86133
G1 X41.88 Y247.615 E14.88518
G1 X41.178 Y247.758 E14.909
G1 X40.501 Y247.99 E14.93281
G1 X39.858 Y248.307 E14.95665
G1 X39.262 Y248.706 E14.98051
G1 X38.72 Y249.173 E15.0043
G1 X38.243 Y249.71 E15.02819
G1 X37.84 Y250.302 E15.05201
G1 X37.514 Y250.939 E15.07581
G1 X37.273 Y251.615 E15.09968
G1 X37.122 Y252.315 E15.1235
G1 X37.06 Y253.028 E15.1473
G1 X37.089 Y253.744 E15.17114
G1 X37.21 Y254.451 E15.19499
G1 X37.421 Y255.135 E15.2188
G1 X37.716 Y255.79 E15.24269
G1 X38.096 Y256.399 E15.26657
G1 X38.547 Y256.952 E15.2903
G1 X39.067 Y257.447 E15.31418
G1 X39.645 Y257.87 E15.338
G1 X40.273 Y258.214 E15.36182
G1 X40.94 Y258.478 E15.38568
G1 X41.637 Y258.652 E15.40957
G1 X42.346 Y258.736 E15.43332
G1 X43.063 Y258.73 E15.45717
G1 X43.771 Y258.631 E15.48094
G1 X44.464 Y258.443 E15.50483
G1 X45.126 Y258.168 E15.52867
G1 X45.747 Y257.809 E15.55253
G1 X46.316 Y257.375 E15.57633
G1 F2700 E10.57633
G0 F6000 X46.133 Y257.163
G0 X47.142 Y255.441
G0 X47.397 Y254.846
G0 X47.575 Y254.227
G0 X47.671 Y253.587
G0 X47.685 Y252.944
G0 X47.617 Y252.3
G0 X47.468 Y251.672
G0 X47.237 Y251.068
G0 X46.934 Y250.498
G0 X46.559 Y249.973
G0 X46.12 Y249.499
G0 X45.624 Y249.084
G0 X45.081 Y248.736
G0 X44.494 Y248.462
G0 X43.88 Y248.266
G0 X43.245 Y248.148
G0 X40.577 Y248.175
G0 X39.828 Y246.967
G1 F2700 E15.57633
G0 F6000 X40.073 Y247.027
G1 F300 X40.457 Y246.738 E15.59231
G1 X40.814 Y246.357 E15.60968
G1 X41.044 Y246.007 E15.62361
G1 X41.108 Y245.9 E15.62776
G1 X41.306 Y245.436 E15.64453
G1 X41.403 Y245.017 E15.65884
G1 X41.426 Y244.884 E15.66333
G1 X41.452 Y244.396 E15.67958
G1 X41.405 Y244.017 E15.69228
G1 X41.382 Y243.872 E15.69717
G1 X41.279 Y243.525 E15.70921
G1 X41.23 Y243.378 E15.71436
G1 X40.945 Y242.813 E15.73541
G1 X40.404 Y242.387 E15.75831
G1 X39.905 Y242.127 E15.77702
G1 X39.366 Y241.965 E15.79574
G1 X38.806 Y241.906 E15.81447
G1 X38.244 Y241.954 E15.83323
G1 X37.703 Y242.105 E15.85191
