;FLAVOR:Marlin
;TIME:4933
;Filament used: 2.31711m
;Layer height: 0.2
;MINX:21.727
;MINY:234.585
;MINZ:0.2
;MAXX:55.623
;MAXY:271.421
;MAXZ:35
;Generated with Cura_SteamEngine 4.12.1
M140 S65
M105
M190 S65
M104 S215
M105
M109 S215
M82 ;absolute extrusion mode
M201 X500.00 Y500.00 Z100.00 E5000.00 ;Setup machine max acceleration
M203 X500.00 Y500.00 Z10.00 E50.00 ;Setup machine max feedrate
M204 P500.00 R1000.00 T500.00 ;Setup Print/Retract/Travel acceleration
M205 X8.00 Y8.00 Z0.40 E5.00 ;Setup Jerk
M220 S100 ;Reset Feedrate
M221 S100 ;Reset Flowrate

G28 ;Home

G92 E0 ;Reset Extruder
G1 Z2.0 F3000 ;Move Z Axis up
G1 X10.1 Y20 Z0.28 F5000.0 ;Move to start position
G1 X10.1 Y200.0 Z0.28 F1500.0 E15 ;Draw the first line
G1 X10.4 Y200.0 Z0.28 F5000.0 ;Move to side a little
G1 X10.4 Y20 Z0.28 F1500.0 E30 ;Draw the second line
G92 E0 ;Reset Extruder
G1 Z2.0 F3000 ;Move Z Axis up

G92 E0
G92 E0
G1 F2700 E-5
;LAYER_COUNT:175
;LAYER:0
M107
;MESH:electronics_platform.v11.stl
G0 F6000 X41.898 Y245.444 Z0.2
;TYPE:WALL-INNER
G1 F2700 E0
G1 F300 X42.077 Y245.024 E0.01519
G1 X42.179 Y244.58 E0.03034
G1 X42.198 Y244.234 E0.04186
G1 X42.201 Y244.115 E0.04582
G1 X42.162 Y243.787 E0.05681
G1 X42.145 Y243.671 E0.06071
G1 X42.049 Y243.353 E0.07176
G1 X42.011 Y243.241 E0.07569
G1 X41.777 Y242.778 E0.09294
G1 X41.333 Y242.428 E0.11175
G1 X40.899 Y242.202 E0.12802
G1 X40.43 Y242.061 E0.14431
G1 X39.944 Y242.01 E0.16056
G1 X39.456 Y242.051 E0.17685
G1 X38.984 Y242.184 E0.19316
G1 X38.573 Y242.388 E0.20842
G1 X33.317 Y245.648 E0.41413
G1 X32.951 Y245.928 E0.42946
G1 X32.624 Y246.29 E0.44569
G1 X32.369 Y246.71 E0.46203
G1 X32.199 Y247.168 E0.47828
G1 X32.117 Y247.65 E0.49454
G1 X32.127 Y248.139 E0.51081
G1 X32.243 Y248.694 E0.52967
G1 X32.566 Y249.122 E0.5475
G1 X32.9 Y249.435 E0.56272
G1 X33.284 Y249.682 E0.57791
G1 X33.594 Y249.815 E0.58913
G1 X33.711 Y249.861 E0.59331
G1 X34.138 Y249.96 E0.60789
G1 X34.588 Y249.985 E0.62288
G1 X35.038 Y249.932 E0.63795
G1 X35.472 Y249.8 E0.65304
G1 X35.851 Y249.608 E0.66717
G1 X40.995 Y246.417 E0.8685
G1 X41.338 Y246.159 E0.88278
G1 X41.649 Y245.827 E0.89791
G1 X41.898 Y245.444 E0.9131
G0 F6000 X41.544 Y245.255
;TYPE:WALL-OUTER
G1 F300 X41.695 Y244.9 E0.92594
G1 X41.781 Y244.524 E0.93876
G1 X41.798 Y244.218 E0.94896
G1 X41.8 Y244.134 E0.95175
G1 X41.765 Y243.84 E0.9616
G1 X41.753 Y243.758 E0.96436
G1 X41.668 Y243.475 E0.97418
G1 X41.641 Y243.396 E0.97696
G1 X41.46 Y243.037 E0.99033
G1 X41.115 Y242.765 E1.00495
G1 X40.748 Y242.574 E1.01871
G1 X40.351 Y242.455 E1.03249
G1 X39.94 Y242.412 E1.04624
G1 X39.528 Y242.446 E1.05998
G1 X39.129 Y242.559 E1.07378
G1 X38.768 Y242.738 E1.08718
G1 X33.544 Y245.978 E1.29164
G1 X33.223 Y246.223 E1.30507
G1 X32.946 Y246.53 E1.31882
G1 X32.731 Y246.885 E1.33262
G1 X32.587 Y247.272 E1.34636
G1 X32.518 Y247.68 E1.36012
G1 X32.526 Y248.094 E1.37389
G1 X32.616 Y248.524 E1.3885
G1 X32.865 Y248.854 E1.40225
G1 X33.147 Y249.118 E1.4151
G1 X33.472 Y249.328 E1.42797
G1 X33.746 Y249.445 E1.43788
G1 X33.83 Y249.478 E1.44088
G1 X34.195 Y249.563 E1.45335
G1 X34.575 Y249.584 E1.46601
G1 X34.955 Y249.539 E1.47873
G1 X35.322 Y249.427 E1.49149
G1 X35.655 Y249.259 E1.5039
G1 X40.769 Y246.086 E1.70407
G1 X41.07 Y245.86 E1.71659
G1 X41.333 Y245.579 E1.72939
G1 X41.544 Y245.255 E1.74225
G0 F6000 X41.932 Y245.461
G1 F2700 E-3.25775
G0 F6000 X41.466 Y246.302
G0 X42.371 Y247.663
G0 X44.387 Y247.86
G0 X45.022 Y247.978
G0 X45.636 Y248.174
G0 X46.223 Y248.448
G0 X46.766 Y248.795
G0 X47.262 Y249.211
G0 X47.701 Y249.684
G0 X48.075 Y250.209
G0 X48.38 Y250.78
G0 X48.611 Y251.384
G0 X48.76 Y252.012
G0 X48.827 Y252.653
G0 X48.816 Y253.234
G0 X48.427 Y255.225
;TYPE:WALL-INNER
G1 F2700 E1.74225
G1 F300 X48.691 Y254.613 E1.76442
G1 X48.874 Y253.973 E1.78656
G1 X48.974 Y253.314 E1.80873
G1 X48.988 Y252.646 E1.83095
G1 X48.918 Y251.984 E1.85309
G1 X48.764 Y251.336 E1.87525
G1 X48.527 Y250.713 E1.89742
G1 X48.213 Y250.125 E1.91959
G1 X47.826 Y249.583 E1.94174
G1 X47.373 Y249.094 E1.96391
G1 X46.862 Y248.666 E1.98608
G1 X46.3 Y248.308 E2.00824
G1 X45.696 Y248.025 E2.03043
G1 X45.062 Y247.821 E2.05258
G1 X44.406 Y247.7 E2.07476
G1 X43.741 Y247.664 E2.09691
G1 X43.076 Y247.712 E2.11909
G1 X42.422 Y247.847 E2.1413
G1 X41.793 Y248.063 E2.16342
G1 X41.195 Y248.358 E2.1856
G1 X40.64 Y248.727 E2.20777
G1 X40.136 Y249.164 E2.22995
G1 X39.693 Y249.662 E2.25212
G1 X39.318 Y250.213 E2.27429
G1 X39.015 Y250.806 E2.29644
G1 X38.791 Y251.434 E2.31861
G1 X38.65 Y252.085 E2.34077
G1 X38.592 Y252.749 E2.36294
G1 X38.62 Y253.414 E2.38507
G1 X38.732 Y254.071 E2.40724
G1 X38.929 Y254.709 E2.42945
G1 X39.203 Y255.315 E2.45157
G1 X39.556 Y255.882 E2.47379
G1 X39.976 Y256.398 E2.49591
G1 X40.459 Y256.858 E2.5181
G1 X40.997 Y257.251 E2.54026
G1 X41.582 Y257.573 E2.56247
G1 X42.202 Y257.817 E2.58463
G1 X42.848 Y257.979 E2.60678
G1 X43.509 Y258.058 E2.62892
G1 X44.176 Y258.052 E2.65111
G1 X44.835 Y257.96 E2.67324
G1 X45.479 Y257.785 E2.69543
G1 X46.095 Y257.528 E2.71763
G1 X46.672 Y257.196 E2.73978
G1 X47.202 Y256.792 E2.76194
G1 X47.676 Y256.323 E2.78412
G1 X48.086 Y255.798 E2.80627
G1 X48.427 Y255.225 E2.82845
G0 F6000 X48.07 Y255.043
;TYPE:WALL-OUTER
G1 F300 X48.313 Y254.478 E2.84891
G1 X48.482 Y253.887 E2.86935
G1 X48.575 Y253.279 E2.88981
G1 X48.588 Y252.663 E2.9103
G1 X48.523 Y252.052 E2.93074
G1 X48.381 Y251.454 E2.95118
G1 X48.162 Y250.879 E2.97165
G1 X47.872 Y250.336 E2.99212
G1 X47.515 Y249.836 E3.01256
G1 X47.097 Y249.384 E3.03303
G1 X46.625 Y248.989 E3.0535
G1 X46.107 Y248.659 E3.07393
G1 X45.549 Y248.398 E3.09442
G1 X44.964 Y248.21 E3.11486
G1 X44.359 Y248.098 E3.13532
G1 X43.745 Y248.065 E3.15577
G1 X43.131 Y248.109 E3.17625
G1 X42.528 Y248.234 E3.19673
G1 X41.947 Y248.433 E3.21716
G1 X41.395 Y248.705 E3.23762
G1 X40.883 Y249.046 E3.25808
G1 X40.418 Y249.449 E3.27855
G1 X40.009 Y249.909 E3.29902
G1 X39.663 Y250.417 E3.31946
G1 X39.383 Y250.965 E3.33993
G1 X39.176 Y251.544 E3.36038
G1 X39.046 Y252.145 E3.38084
G1 X38.993 Y252.758 E3.4013
G1 X39.019 Y253.372 E3.42174
G1 X39.122 Y253.978 E3.44218
G1 X39.304 Y254.567 E3.46269
G1 X39.557 Y255.126 E3.4831
G1 X39.882 Y255.649 E3.50358
G1 X40.27 Y256.126 E3.52403
G1 X40.716 Y256.55 E3.5445
G1 X41.212 Y256.913 E3.56494
G1 X41.752 Y257.21 E3.58544
G1 X42.324 Y257.435 E3.60588
G1 X42.921 Y257.585 E3.62635
G1 X43.531 Y257.658 E3.64679
G1 X44.146 Y257.652 E3.66724
G1 X44.755 Y257.567 E3.68769
G1 X45.349 Y257.406 E3.70816
G1 X45.917 Y257.169 E3.72863
G1 X46.45 Y256.862 E3.74909
G1 X46.939 Y256.489 E3.76955
G1 X47.377 Y256.057 E3.79001
G1 X47.755 Y255.572 E3.81046
G1 X48.07 Y255.043 E3.83094
G0 F6000 X48.461 Y255.242
G1 F2700 E-1.16906
G0 F6000 X47.819 Y256.45
G0 X46.728 Y255.484
G0 X55.293 Y264.968
G0 X53.859 Y264.628
G0 X53.838 Y265.346
;TYPE:WALL-INNER
G1 F2700 E3.83094
G1 F300 X53.546 Y266 E3.85476
G1 X53.201 Y266.613 E3.87816
G1 X52.801 Y267.19 E3.90151
G1 X52.343 Y267.736 E3.92521
G1 X51.841 Y268.232 E3.94868
G1 X51.299 Y268.676 E3.97199
G1 X50.701 Y269.08 E3.99599
G1 X50.09 Y269.415 E4.01917
G1 X49.436 Y269.696 E4.04284
G1 X48.769 Y269.912 E4.06616
G1 X48.082 Y270.066 E4.08958
G1 X47.385 Y270.157 E4.11296
G1 X46.669 Y270.183 E4.13679
G1 X45.976 Y270.142 E4.15987
G1 X45.271 Y270.037 E4.18358
G1 X44.608 Y269.873 E4.2063
G1 X44.565 Y269.86 E4.20779
G1 X43.942 Y269.643 E4.22973
G1 X43.903 Y269.627 E4.23114
G1 X43.263 Y269.333 E4.25456
G1 X42.659 Y268.984 E4.27776
G1 X25.688 Y258.135 E4.9477
G1 X25.165 Y257.761 E4.96909
G1 X24.658 Y257.317 E4.9915
G1 X24.218 Y256.843 E5.01301
G1 X23.81 Y256.31 E5.03534
G1 X23.472 Y255.755 E5.05695
G1 X23.177 Y255.149 E5.07937
G1 X22.955 Y254.536 E5.10105
G1 X22.791 Y253.897 E5.12299
G1 X22.692 Y253.239 E5.14513
G1 X22.66 Y252.578 E5.16714
G1 X22.693 Y251.909 E5.18941
G1 X22.791 Y251.268 E5.21098
G1 X22.956 Y250.628 E5.23296
G1 X23.183 Y250.007 E5.25496
G1 X23.476 Y249.404 E5.27725
G1 X23.826 Y248.837 E5.29942
G1 X24.221 Y248.321 E5.32103
G1 X24.676 Y247.835 E5.34317
G1 X25.162 Y247.41 E5.36465
G1 X25.72 Y247.013 E5.38742
G1 X42.658 Y236.185 E6.05606
G1 X43.259 Y235.838 E6.07914
G1 X43.901 Y235.542 E6.10266
G1 X43.999 Y235.506 E6.10613
G1 X44.569 Y235.307 E6.12621
G1 X44.648 Y235.284 E6.12894
G1 X45.226 Y235.141 E6.14875
G1 X45.318 Y235.123 E6.15187
G1 X45.976 Y235.026 E6.17399
G1 X46.678 Y234.985 E6.19738
G1 X47.392 Y235.012 E6.22114
G1 X48.094 Y235.103 E6.24469
G1 X48.78 Y235.259 E6.26808
G1 X49.45 Y235.477 E6.29152
G1 X50.099 Y235.759 E6.31505
G1 X50.71 Y236.093 E6.33821
G1 X51.304 Y236.496 E6.36209
G1 X51.85 Y236.944 E6.38558
G1 X52.357 Y237.447 E6.40933
G1 X52.804 Y237.981 E6.4325
G1 X53.211 Y238.571 E6.45633
G1 X53.55 Y239.178 E6.47946
G1 X53.838 Y239.823 E6.50295
G1 X54.064 Y240.498 E6.52663
G1 X54.229 Y241.192 E6.55035
G1 X54.323 Y241.868 E6.57305
G1 X54.358 Y242.642 E6.59882
G1 X54.358 Y262.56 E7.2613
G1 X54.321 Y263.306 E7.28614
G1 X54.227 Y263.988 E7.30904
G1 X54.06 Y264.688 E7.33298
G1 X53.838 Y265.346 E7.35607
G0 F6000 X54.212 Y265.489
;TYPE:WALL-OUTER
G1 F300 X53.901 Y266.185 E7.38143
G1 X53.541 Y266.826 E7.40588
G1 X53.119 Y267.434 E7.4305
G1 X52.639 Y268.007 E7.45536
G1 X52.111 Y268.528 E7.48003
G1 X51.534 Y269.001 E7.50484
G1 X50.913 Y269.42 E7.52976
G1 X50.27 Y269.772 E7.55414
G1 X49.575 Y270.071 E7.57931
G1 X48.876 Y270.298 E7.60375
G1 X48.144 Y270.462 E7.6287
G1 X47.418 Y270.556 E7.65305
G1 X46.67 Y270.584 E7.67794
G1 X45.927 Y270.54 E7.7027
G1 X45.2 Y270.431 E7.72715
G1 X44.494 Y270.257 E7.75133
G1 X44.446 Y270.242 E7.75301
G1 X43.799 Y270.017 E7.77579
G1 X43.747 Y269.996 E7.77766
G1 X43.132 Y269.715 E7.80014
G1 X43.084 Y269.691 E7.80193
G1 X42.449 Y269.324 E7.82632
G1 X25.458 Y258.462 E8.49705
G1 X24.914 Y258.074 E8.51928
G1 X24.383 Y257.608 E8.54278
G1 X23.909 Y257.098 E8.56593
G1 X23.484 Y256.542 E8.58921
G1 X23.116 Y255.939 E8.61271
G1 X22.81 Y255.309 E8.636
G1 X22.573 Y254.655 E8.65914
G1 X22.397 Y253.97 E8.68266
G1 X22.293 Y253.278 E8.70594
G1 X22.259 Y252.578 E8.72924
G1 X22.294 Y251.878 E8.75256
G1 X22.399 Y251.186 E8.77584
G1 X22.575 Y250.505 E8.79923
G1 X22.814 Y249.849 E8.82245
G1 X23.126 Y249.209 E8.84613
G1 X23.494 Y248.612 E8.86946
G1 X23.912 Y248.066 E8.89233
G1 X24.398 Y247.547 E8.91598
G1 X24.917 Y247.093 E8.93891
G1 X25.488 Y246.687 E8.96222
G1 X42.449 Y235.844 E9.63177
G1 X43.08 Y235.48 E9.65599
G1 X43.195 Y235.425 E9.66023
G1 X43.749 Y235.171 E9.68051
G1 X43.861 Y235.13 E9.68447
G1 X44.437 Y234.929 E9.70476
G1 X44.552 Y234.896 E9.70874
G1 X45.139 Y234.751 E9.72885
G1 X45.259 Y234.727 E9.73292
G1 X45.927 Y234.628 E9.75538
G1 X46.681 Y234.585 E9.7805
G1 X47.427 Y234.613 E9.80533
G1 X48.158 Y234.708 E9.82985
G1 X48.886 Y234.873 E9.85468
G1 X49.594 Y235.104 E9.87945
G1 X50.276 Y235.4 E9.90417
G1 X50.92 Y235.752 E9.92858
G1 X51.542 Y236.174 E9.95358
G1 X52.12 Y236.648 E9.97845
G1 X52.653 Y237.177 E10.00342
G1 X53.118 Y237.733 E10.02753
G1 X53.551 Y238.36 E10.05287
G1 X53.908 Y238.998 E10.07719
G1 X54.211 Y239.678 E10.10195
G1 X54.449 Y240.388 E10.12686
G1 X54.622 Y241.119 E10.15184
G1 X54.722 Y241.838 E10.17599
G1 X54.758 Y242.624 E10.20216
G1 X54.758 Y262.58 E10.8659
G1 X54.721 Y263.336 E10.89107
G1 X54.62 Y264.061 E10.91542
G1 X54.444 Y264.802 E10.94075
G1 X54.212 Y265.489 E10.96487
G0 F6000 X53.803 Y265.329
G0 X53.475 Y265.2
;TYPE:SKIN
G1 F300 X53.193 Y265.832 E10.98788
G1 X52.868 Y266.411 E11.00997
G1 X52.499 Y266.943 E11.0315
G1 X52.056 Y267.471 E11.05443
G1 X51.578 Y267.943 E11.07677
G1 X51.062 Y268.366 E11.09896
G1 X50.5 Y268.746 E11.12152
G1 X49.927 Y269.06 E11.14326
G1 X49.295 Y269.332 E11.16614
G1 X48.658 Y269.538 E11.18841
G1 X48.014 Y269.682 E11.21036
G1 X47.362 Y269.767 E11.23223
G1 X46.678 Y269.793 E11.25499
G1 X46.011 Y269.752 E11.27722
G1 X45.34 Y269.653 E11.29978
G1 X44.714 Y269.498 E11.32123
G1 X44.689 Y269.491 E11.32209
G1 X44.081 Y269.278 E11.34352
G1 X43.432 Y268.981 E11.36726
G1 X42.869 Y268.655 E11.38889
G1 X25.906 Y257.811 E12.05852
G1 X25.404 Y257.453 E12.07903
G1 X24.931 Y257.038 E12.09996
G1 X24.518 Y256.594 E12.12012
G1 X24.131 Y256.088 E12.14131
G1 X23.817 Y255.572 E12.1614
G1 X23.537 Y254.996 E12.1827
G1 X23.327 Y254.416 E12.20322
G1 X23.174 Y253.82 E12.22369
G1 X23.082 Y253.202 E12.24447
G1 X23.05 Y252.578 E12.26525
G1 X23.081 Y251.948 E12.28623
G1 X23.174 Y251.347 E12.30645
G1 X23.332 Y250.735 E12.32748
G1 X23.54 Y250.166 E12.34763
G1 X23.82 Y249.59 E12.36893
G1 X24.15 Y249.056 E12.38981
G1 X24.517 Y248.576 E12.4099
G1 X24.948 Y248.116 E12.43087
G1 X25.407 Y247.714 E12.45116
G1 X25.938 Y247.337 E12.47282
G1 X42.868 Y236.514 E13.14115
G1 X43.423 Y236.193 E13.16247
G1 X44.06 Y235.899 E13.18581
G1 X44.698 Y235.675 E13.2083
G1 X44.75 Y235.66 E13.2101
G1 X45.31 Y235.522 E13.22928
G1 X45.383 Y235.508 E13.23175
G1 X46.011 Y235.416 E13.25286
G1 X46.686 Y235.375 E13.27535
G1 X47.371 Y235.402 E13.29815
G1 X48.022 Y235.487 E13.31999
G1 X48.669 Y235.633 E13.34205
G1 X49.318 Y235.845 E13.36476
G1 X49.925 Y236.108 E13.38676
G1 X50.501 Y236.422 E13.40858
G1 X51.066 Y236.806 E13.4313
G1 X51.592 Y237.238 E13.45394
G1 X52.075 Y237.717 E13.47657
G1 X52.493 Y238.217 E13.49824
G1 X52.874 Y238.77 E13.52058
G1 X53.201 Y239.353 E13.54281
G1 X53.478 Y239.976 E13.56549
G1 X53.686 Y240.595 E13.58721
G1 X53.848 Y241.277 E13.61052
G1 X53.933 Y241.893 E13.6312
G1 X53.968 Y242.642 E13.65614
G1 X53.968 Y262.541 E14.31799
G1 X53.931 Y263.279 E14.34256
G1 X53.846 Y263.903 E14.36351
G1 X53.685 Y264.579 E14.38662
G1 X53.475 Y265.2 E14.40843
G1 F2700 E9.40843
G0 F6000 X53.737 Y265.301
G0 X53.859 Y264.628
G0 X55.293 Y264.968
G0 X46.371 Y255.835
G0 X47.327 Y256.936
G1 F2700 E14.40843
G0 F6000 X47.459 Y257.087
G1 F300 X47.968 Y256.582 E14.43227
G1 X48.408 Y256.019 E14.45604
G1 X48.776 Y255.403 E14.4799
G1 X49.059 Y254.744 E14.50376
G1 X49.256 Y254.057 E14.52753
G1 X49.364 Y253.347 E14.55142
G1 X49.378 Y252.63 E14.57527
G1 X49.304 Y251.918 E14.59908
G1 X49.138 Y251.221 E14.62291
G1 X48.882 Y250.551 E14.64676
G1 X48.545 Y249.919 E14.67059
G1 X48.129 Y249.336 E14.69441
G1 X47.642 Y248.811 E14.71822
G1 X47.093 Y248.35 E14.74207
G1 X46.489 Y247.965 E14.76589
G1 X45.839 Y247.662 E14.78974
G1 X45.158 Y247.442 E14.81355
G1 X44.452 Y247.312 E14.83742
G1 X43.737 Y247.274 E14.86124
G1 X43.022 Y247.324 E14.88508
G1 X42.319 Y247.47 E14.90896
G1 X41.643 Y247.702 E14.93273
G1 X41 Y248.019 E14.95657
G1 X40.404 Y248.416 E14.98039
G1 X39.861 Y248.885 E15.00425
G1 X39.385 Y249.422 E15.02812
G1 X38.982 Y250.014 E15.05194
G1 X38.656 Y250.651 E15.07574
G1 X38.415 Y251.327 E15.09961
G1 X38.264 Y252.027 E15.12343
G1 X38.202 Y252.74 E15.14723
G1 X38.232 Y253.455 E15.17103
G1 X38.352 Y254.162 E15.19489
G1 X38.564 Y254.847 E15.21873
G1 X38.858 Y255.499 E15.24252
G1 X39.238 Y256.109 E15.26643
G1 X39.689 Y256.663 E15.29019
G1 X40.209 Y257.158 E15.31406
G1 X40.787 Y257.581 E15.33789
G1 X41.416 Y257.926 E15.36175
G1 X42.083 Y258.189 E15.3856
G1 X42.778 Y258.363 E15.40942
G1 X43.488 Y258.448 E15.43321
G1 X44.205 Y258.442 E15.45706
G1 X44.913 Y258.343 E15.48083
G1 X45.606 Y258.155 E15.50472
G1 X46.268 Y257.879 E15.52857
G1 X46.888 Y257.522 E15.55237
G1 X47.459 Y257.087 E15.57624
G1 F2700 E10.57624
G0 F6000 X47.275 Y256.875
G0 X48.284 Y255.152
G0 X48.539 Y254.558
G0 X48.717 Y253.938
G0 X48.814 Y253.299
G0 X48.827 Y252.653
G0 X48.76 Y252.012
G0 X48.611 Y251.384
G0 X48.38 Y250.78
G0 X48.075 Y250.209
G0 X47.701 Y249.684
G0 X47.262 Y249.211
G0 X46.766 Y248.795
G0 X46.223 Y248.448
G0 X45.636 Y248.174
G0 X45.022 Y247.978
G0 X44.387 Y247.86
G0 X41.719 Y247.887
G0 X40.97 Y246.679
G1 F2700 E15.57624
G0 F6000 X41.215 Y246.739
G1 F300 X41.599 Y246.45 E15.59223
G1 X41.957 Y246.069 E15.60961
G1 X42.243 Y245.628 E15.6271
G1 X42.449 Y245.145 E15.64456
G1 X42.567 Y244.635 E15.66197
G1 X42.588 Y244.249 E15.67483
G1 X42.591 Y244.097 E15.67989
G1 X42.548 Y243.736 E15.69198
G1 X42.527 Y243.586 E15.69702
G1 X42.42 Y243.234 E15.70925
G1 X42.372 Y243.09 E15.7143
G1 X42.087 Y242.525 E15.73535
G1 X41.546 Y242.099 E15.75825
G1 X41.047 Y241.839 E15.77697
G1 X40.508 Y241.677 E15.79568
G1 X39.948 Y241.618 E15.81441
G1 X39.386 Y241.665 E15.83317
G1 X38.843 Y241.819 E15.85194
G1 X38.384 Y242.047 E15.86899
G1 X33.095 Y245.326 E16.07597
G1 X32.686 Y245.64 E16.09312
