;FLAVOR:Marlin
;TIME:4664
;Filament used: 2.15636m
;Layer height: 0.2
;MINX:20.321
;MINY:242.574
;MINZ:0.2
;MAXX:53.666
;MAXY:278.625
;MAXZ:35
;Generated with Cura_SteamEngine 4.12.1
M140 S65
M105
M190 S65
M104 S215
M105
M109 S215
M82 ;absolute extrusion mode
M201 X500.00 Y500.00 Z100.00 E5000.00 ;Setup machine max acceleration
M203 X500.00 Y500.00 Z10.00 E50.00 ;Setup machine max feedrate
M204 P500.00 R1000.00 T500.00 ;Setup Print/Retract/Travel acceleration
M205 X8.00 Y8.00 Z0.40 E5.00 ;Setup Jerk
M220 S100 ;Reset Feedrate
M221 S100 ;Reset Flowrate

G28 ;Home

G92 E0 ;Reset Extruder
G1 Z2.0 F3000 ;Move Z Axis up
G1 X10.1 Y20 Z0.28 F5000.0 ;Move to start position
G1 X10.1 Y200.0 Z0.28 F1500.0 E15 ;Draw the first line
G1 X10.4 Y200.0 Z0.28 F5000.0 ;Move to side a little
G1 X10.4 Y20 Z0.28 F1500.0 E30 ;Draw the second line
G92 E0 ;Reset Extruder
G1 Z2.0 F3000 ;Move Z Axis up

G92 E0
G92 E0
G1 F2700 E-5
;LAYER_COUNT:175
;LAYER:0
M107
;MESH:electronics_platform.v9.stl
G0 F6000 X46.659 Y262.569 Z0.2
;TYPE:WALL-INNER
G1 F2700 E0
G1 F300 X46.84 Y261.94 E0.02177
G1 X46.937 Y261.293 E0.04353
G1 X46.951 Y260.641 E0.06522
G1 X46.883 Y259.99 E0.08699
G1 X46.731 Y259.354 E0.10874
G1 X46.499 Y258.743 E0.13048
G1 X46.191 Y258.167 E0.1522
G1 X45.813 Y257.635 E0.17391
G1 X45.368 Y257.155 E0.19568
G1 X44.866 Y256.736 E0.21743
G1 X44.315 Y256.385 E0.23916
G1 X43.723 Y256.108 E0.26089
G1 X43.101 Y255.907 E0.28264
G1 X42.458 Y255.788 E0.30438
G1 X41.805 Y255.753 E0.32613
G1 X41.153 Y255.802 E0.34788
G1 X40.513 Y255.933 E0.36961
G1 X39.895 Y256.145 E0.39134
G1 X39.309 Y256.434 E0.41307
G1 X38.764 Y256.796 E0.43483
G1 X38.27 Y257.225 E0.45659
G1 X37.836 Y257.713 E0.47832
G1 X37.467 Y258.253 E0.50007
G1 X37.171 Y258.835 E0.52179
G1 X36.951 Y259.451 E0.54354
G1 X36.812 Y260.089 E0.56526
G1 X36.755 Y260.74 E0.58699
G1 X36.782 Y261.393 E0.60873
G1 X36.893 Y262.038 E0.6305
G1 X37.086 Y262.662 E0.65222
G1 X37.355 Y263.257 E0.67394
G1 X37.701 Y263.814 E0.69575
G1 X38.113 Y264.32 E0.71745
G1 X38.587 Y264.771 E0.73922
G1 X39.114 Y265.156 E0.76092
G1 X39.688 Y265.471 E0.7827
G1 X40.295 Y265.711 E0.80441
G1 X40.929 Y265.87 E0.82615
G1 X41.578 Y265.947 E0.84789
G1 X42.232 Y265.942 E0.86964
G1 X42.879 Y265.851 E0.89137
G1 X43.51 Y265.68 E0.91312
G1 X44.114 Y265.428 E0.93488
G1 X44.68 Y265.102 E0.95661
G1 X45.2 Y264.706 E0.97835
G1 X45.665 Y264.247 E1.00008
G1 X46.068 Y263.731 E1.02185
G1 X46.401 Y263.169 E1.04358
G1 X46.659 Y262.569 E1.0653
G0 F6000 X46.282 Y262.434
;TYPE:WALL-OUTER
G1 F300 X46.448 Y261.855 E1.08534
G1 X46.538 Y261.259 E1.10539
G1 X46.551 Y260.658 E1.12538
G1 X46.488 Y260.058 E1.14545
G1 X46.348 Y259.472 E1.16548
G1 X46.134 Y258.909 E1.18552
G1 X45.85 Y258.378 E1.20555
G1 X45.502 Y257.888 E1.22553
G1 X45.092 Y257.446 E1.24559
G1 X44.629 Y257.059 E1.26566
G1 X44.122 Y256.736 E1.28565
G1 X43.576 Y256.481 E1.30569
G1 X43.003 Y256.296 E1.32572
G1 X42.411 Y256.186 E1.34575
G1 X41.809 Y256.154 E1.3658
G1 X41.208 Y256.199 E1.38584
G1 X40.618 Y256.32 E1.40588
G1 X40.049 Y256.515 E1.42588
G1 X39.509 Y256.781 E1.4459
G1 X39.007 Y257.115 E1.46596
G1 X38.552 Y257.51 E1.486
G1 X38.152 Y257.96 E1.50602
G1 X37.812 Y258.457 E1.52605
G1 X37.539 Y258.994 E1.54609
G1 X37.336 Y259.561 E1.56612
G1 X37.208 Y260.149 E1.58613
G1 X37.156 Y260.749 E1.60616
G1 X37.181 Y261.351 E1.6262
G1 X37.283 Y261.945 E1.64625
G1 X37.461 Y262.52 E1.66627
G1 X37.709 Y263.068 E1.68628
G1 X38.027 Y263.581 E1.70635
G1 X38.407 Y264.048 E1.72638
G1 X38.844 Y264.463 E1.74642
G1 X39.329 Y264.818 E1.76641
G1 X39.858 Y265.108 E1.78648
G1 X40.418 Y265.329 E1.8065
G1 X41.002 Y265.476 E1.82653
G1 X41.6 Y265.547 E1.84656
G1 X42.202 Y265.542 E1.86658
G1 X42.799 Y265.458 E1.88663
G1 X43.38 Y265.301 E1.90665
G1 X43.936 Y265.069 E1.92669
G1 X44.458 Y264.768 E1.94673
G1 X44.937 Y264.403 E1.96676
G1 X45.366 Y263.98 E1.9868
G1 X45.737 Y263.505 E2.00684
G1 X46.044 Y262.987 E2.02687
G1 X46.282 Y262.434 E2.0469
G0 F6000 X46.696 Y262.581
G1 F2700 E-2.9531
G0 F6000 X46.226 Y263.839
G0 X45.018 Y263.021
G0 X53.65 Y271.358
G0 X52.566 Y271.308
G0 X52.122 Y272.68
;TYPE:WALL-INNER
G1 F2700 E2.0469
G1 F300 X51.901 Y273.336 E2.06992
G1 X51.607 Y273.994 E2.09389
G1 X51.268 Y274.598 E2.11693
G1 X50.86 Y275.187 E2.14076
G1 X50.412 Y275.719 E2.16389
G1 X49.904 Y276.221 E2.18764
G1 X49.363 Y276.666 E2.21094
G1 X48.764 Y277.07 E2.23497
G1 X48.156 Y277.402 E2.25801
G1 X47.494 Y277.687 E2.28199
G1 X46.832 Y277.902 E2.30514
G1 X46.145 Y278.056 E2.32855
G1 X45.448 Y278.147 E2.35193
G1 X44.732 Y278.173 E2.37576
G1 X44.04 Y278.131 E2.39882
G1 X43.338 Y278.028 E2.42242
G1 X42.672 Y277.863 E2.44524
G1 X41.999 Y277.63 E2.46893
G1 X41.362 Y277.34 E2.49221
G1 X40.722 Y276.972 E2.51676
G1 X23.747 Y266.121 E3.18685
G1 X23.231 Y265.752 E3.20795
G1 X22.721 Y265.306 E3.23048
G1 X22.282 Y264.833 E3.25194
G1 X21.875 Y264.299 E3.27428
G1 X21.531 Y263.739 E3.29614
G1 X21.244 Y263.146 E3.31805
G1 X21.017 Y262.521 E3.34016
G1 X20.854 Y261.887 E3.36194
G1 X20.756 Y261.23 E3.38403
G1 X20.723 Y260.567 E3.40611
G1 X20.756 Y259.898 E3.42839
G1 X20.854 Y259.257 E3.44995
G1 X21.018 Y258.622 E3.47177
G1 X21.25 Y257.988 E3.49422
G1 X21.539 Y257.392 E3.51625
G1 X21.884 Y256.834 E3.53807
G1 X22.278 Y256.317 E3.55969
G1 X22.735 Y255.83 E3.5819
G1 X23.237 Y255.39 E3.60411
G1 X23.783 Y255.002 E3.62639
G1 X40.722 Y244.174 E4.29505
G1 X41.323 Y243.827 E4.31813
G1 X41.432 Y243.775 E4.32215
G1 X41.957 Y243.535 E4.34135
G1 X42.068 Y243.493 E4.3453
G1 X42.633 Y243.296 E4.3652
G1 X42.718 Y243.271 E4.36814
G1 X43.285 Y243.132 E4.38756
G1 X43.384 Y243.113 E4.39091
G1 X44.044 Y243.013 E4.41312
G1 X44.74 Y242.974 E4.4363
G1 X45.455 Y243.001 E4.4601
G1 X46.157 Y243.092 E4.48364
G1 X46.843 Y243.248 E4.50704
G1 X47.513 Y243.466 E4.53048
G1 X48.162 Y243.748 E4.55401
G1 X48.778 Y244.085 E4.57737
G1 X49.372 Y244.487 E4.60122
G1 X49.907 Y244.927 E4.62426
G1 X50.42 Y245.436 E4.6483
G1 X50.867 Y245.97 E4.67146
G1 X51.269 Y246.553 E4.69501
G1 X51.615 Y247.17 E4.71854
G1 X51.904 Y247.822 E4.74226
G1 X52.128 Y248.488 E4.76563
G1 X52.293 Y249.182 E4.78936
G1 X52.387 Y249.858 E4.81206
G1 X52.421 Y250.631 E4.83779
G1 X52.421 Y270.551 E5.50034
G1 X52.386 Y271.295 E5.52511
G1 X52.291 Y271.974 E5.54791
G1 X52.122 Y272.68 E5.57206
G0 F6000 X52.507 Y272.791
;TYPE:WALL-OUTER
G1 F300 X52.275 Y273.479 E5.59621
G1 X51.964 Y274.174 E5.62153
G1 X51.605 Y274.815 E5.64597
G1 X51.183 Y275.424 E5.67061
G1 X50.702 Y275.996 E5.69547
G1 X50.174 Y276.517 E5.72014
G1 X49.598 Y276.99 E5.74493
G1 X48.976 Y277.41 E5.76989
G1 X48.333 Y277.761 E5.79426
G1 X47.638 Y278.061 E5.81943
G1 X46.939 Y278.288 E5.84388
G1 X46.207 Y278.452 E5.86883
G1 X45.481 Y278.546 E5.89317
G1 X44.733 Y278.573 E5.91807
G1 X43.991 Y278.529 E5.94279
G1 X43.268 Y278.422 E5.9671
G1 X42.558 Y278.247 E5.99142
G1 X42.51 Y278.232 E5.9931
G1 X41.862 Y278.006 E6.01592
G1 X41.81 Y277.985 E6.01779
G1 X41.196 Y277.704 E6.04024
G1 X41.149 Y277.68 E6.042
G1 X40.513 Y277.313 E6.06642
G1 X23.521 Y266.451 E6.73718
G1 X22.978 Y266.063 E6.75938
G1 X22.446 Y265.597 E6.7829
G1 X21.973 Y265.088 E6.80601
G1 X21.546 Y264.528 E6.82944
G1 X21.18 Y263.932 E6.8527
G1 X20.874 Y263.299 E6.87608
G1 X20.636 Y262.644 E6.89926
G1 X20.46 Y261.96 E6.92275
G1 X20.357 Y261.268 E6.94602
G1 X20.322 Y260.567 E6.96937
G1 X20.357 Y259.867 E6.99268
G1 X20.462 Y259.175 E7.01596
G1 X20.638 Y258.495 E7.03932
G1 X20.88 Y257.834 E7.06273
G1 X21.185 Y257.205 E7.08598
G1 X21.558 Y256.601 E7.10959
G1 X21.899 Y256.152 E7.12835
G1 X21.975 Y256.055 E7.13244
G1 X22.456 Y255.542 E7.15583
G1 X22.987 Y255.077 E7.17931
G1 X23.551 Y254.676 E7.20233
G1 X40.513 Y243.833 E7.8719
G1 X41.144 Y243.469 E7.89613
G1 X41.259 Y243.414 E7.90037
G1 X41.807 Y243.164 E7.92041
G1 X41.925 Y243.119 E7.92461
G1 X42.501 Y242.918 E7.9449
G1 X42.616 Y242.885 E7.94888
G1 X43.203 Y242.741 E7.96898
G1 X43.324 Y242.717 E7.97308
G1 X43.993 Y242.616 E7.99559
G1 X44.744 Y242.574 E8.0206
G1 X45.49 Y242.602 E8.04543
G1 X46.221 Y242.697 E8.06995
G1 X46.949 Y242.862 E8.09478
G1 X47.657 Y243.093 E8.11955
G1 X48.339 Y243.389 E8.14428
G1 X48.983 Y243.741 E8.16869
G1 X49.615 Y244.169 E8.19407
G1 X50.177 Y244.632 E8.21829
G1 X50.716 Y245.166 E8.24353
G1 X51.181 Y245.722 E8.26763
G1 X51.609 Y246.342 E8.29269
G1 X51.977 Y246.999 E8.31774
G1 X52.274 Y247.667 E8.34205
G1 X52.513 Y248.378 E8.367
G1 X52.686 Y249.109 E8.39199
G1 X52.786 Y249.828 E8.41613
G1 X52.821 Y250.613 E8.44227
G1 X52.821 Y270.57 E9.10604
G1 X52.785 Y271.325 E9.13118
G1 X52.684 Y272.05 E9.15552
G1 X52.507 Y272.791 E9.18086
G0 F6000 X52.085 Y272.67
G0 X51.746 Y272.575
;TYPE:SKIN
G1 F300 X51.536 Y273.197 E9.2027
G1 X51.258 Y273.819 E9.22536
G1 X50.935 Y274.396 E9.24735
G1 X50.552 Y274.949 E9.26973
G1 X50.131 Y275.448 E9.29144
G1 X49.64 Y275.933 E9.31439
G1 X49.136 Y276.348 E9.33611
G1 X48.562 Y276.735 E9.35913
G1 X47.985 Y277.051 E9.38102
G1 X47.353 Y277.323 E9.4039
G1 X46.721 Y277.528 E9.426
G1 X46.077 Y277.672 E9.44795
G1 X45.425 Y277.757 E9.46982
G1 X44.742 Y277.783 E9.49255
G1 X44.072 Y277.741 E9.51488
G1 X43.408 Y277.644 E9.5372
G1 X42.791 Y277.491 E9.55834
G1 X42.144 Y277.267 E9.58111
G1 X41.54 Y276.993 E9.60317
G1 X40.925 Y276.638 E9.62679
G1 X23.965 Y265.797 E10.29628
G1 X23.476 Y265.448 E10.31626
G1 X22.989 Y265.022 E10.33778
G1 X22.578 Y264.579 E10.35788
G1 X22.197 Y264.079 E10.37878
G1 X21.875 Y263.555 E10.39924
G1 X21.605 Y262.997 E10.41986
G1 X21.389 Y262.401 E10.44094
G1 X21.237 Y261.81 E10.46124
G1 X21.146 Y261.193 E10.48198
G1 X21.113 Y260.566 E10.50287
G1 X21.144 Y259.937 E10.52381
G1 X21.238 Y259.333 E10.54414
G1 X21.394 Y258.729 E10.56489
G1 X21.607 Y258.145 E10.58557
G1 X21.88 Y257.581 E10.60641
G1 X22.211 Y257.047 E10.6273
G1 X22.574 Y256.57 E10.64724
G1 X23.006 Y256.11 E10.66823
G1 X23.476 Y255.699 E10.689
G1 X24.001 Y255.326 E10.71042
G1 X40.932 Y244.503 E11.37877
G1 X41.496 Y244.177 E11.40043
G1 X42.107 Y243.896 E11.4228
G1 X42.201 Y243.86 E11.42615
G1 X42.762 Y243.664 E11.44592
G1 X42.864 Y243.637 E11.44942
G1 X43.375 Y243.512 E11.46692
G1 X43.446 Y243.498 E11.46933
G1 X44.083 Y243.402 E11.49075
G1 X44.747 Y243.364 E11.51288
G1 X45.434 Y243.391 E11.53574
G1 X46.085 Y243.476 E11.55758
G1 X46.732 Y243.622 E11.57964
G1 X47.381 Y243.834 E11.60235
G1 X47.988 Y244.097 E11.62435
G1 X48.575 Y244.418 E11.6466
G1 X49.139 Y244.8 E11.66926
G1 X49.643 Y245.215 E11.69097
G1 X50.138 Y245.706 E11.71416
G1 X50.556 Y246.206 E11.73584
G1 X50.938 Y246.76 E11.75822
G1 X51.264 Y247.341 E11.78038
G1 X51.539 Y247.962 E11.80297
G1 X51.753 Y248.596 E11.82522
G1 X51.912 Y249.267 E11.84816
G1 X51.997 Y249.883 E11.86884
G1 X52.031 Y250.631 E11.89375
G1 X52.031 Y270.533 E12.55569
G1 X51.996 Y271.266 E12.5801
G1 X51.911 Y271.883 E12.60081
G1 X51.746 Y272.575 E12.62447
G1 F2700 E7.62447
G0 F6000 X52.01 Y272.664
G0 X52.566 Y271.308
G0 X53.65 Y271.358
G0 X44.72 Y263.404
G0 X45.776 Y264.432
G0 X45.273 Y264.789
G1 F2700 E12.62447
G0 F6000 X45.456 Y265.001
G1 F300 X45.957 Y264.507 E12.64787
G1 X46.391 Y263.951 E12.67133
G1 X46.75 Y263.346 E12.69473
G1 X47.027 Y262.7 E12.71811
G1 X47.222 Y262.024 E12.74151
G1 X47.327 Y261.326 E12.76499
G1 X47.341 Y260.625 E12.78831
G1 X47.269 Y259.924 E12.81175
G1 X47.105 Y259.239 E12.83517
G1 X46.854 Y258.581 E12.8586
G1 X46.523 Y257.962 E12.88194
G1 X46.117 Y257.389 E12.9053
G1 X45.637 Y256.872 E12.92876
G1 X45.096 Y256.42 E12.95221
G1 X44.504 Y256.042 E12.97557
G1 X43.866 Y255.745 E12.99898
G1 X43.197 Y255.528 E13.02237
G1 X42.504 Y255.4 E13.04581
G1 X41.801 Y255.363 E13.06923
G1 X41.099 Y255.415 E13.09264
G1 X40.41 Y255.556 E13.11603
G1 X39.745 Y255.784 E13.13941
G1 X39.114 Y256.095 E13.16281
G1 X38.528 Y256.486 E13.18624
G1 X37.995 Y256.947 E13.20968
G1 X37.528 Y257.473 E13.23307
G1 X37.131 Y258.054 E13.25648
G1 X36.812 Y258.681 E13.27988
G1 X36.575 Y259.344 E13.30329
G1 X36.426 Y260.03 E13.32664
G1 X36.365 Y260.731 E13.35005
G1 X36.394 Y261.434 E13.37345
G1 X36.513 Y262.129 E13.3969
G1 X36.721 Y262.8 E13.42026
G1 X37.01 Y263.441 E13.44365
G1 X37.383 Y264.041 E13.46715
G1 X37.826 Y264.585 E13.49048
G1 X38.337 Y265.071 E13.51394
G1 X38.904 Y265.486 E13.53731
G1 X39.522 Y265.824 E13.56074
G1 X40.176 Y266.083 E13.58413
G1 X40.859 Y266.254 E13.60755
G1 X41.556 Y266.337 E13.6309
G1 X42.261 Y266.332 E13.65435
G1 X42.957 Y266.233 E13.67773
G1 X43.637 Y266.05 E13.70115
G1 X44.287 Y265.779 E13.72457
G1 X44.897 Y265.427 E13.748
G1 X45.456 Y265.001 E13.77137
G1 F2700 E8.77137
G0 F6000 X45.273 Y264.789
G0 X46.258 Y263.096
G0 X46.508 Y262.514
G0 X46.683 Y261.906
G0 X46.777 Y261.279
G0 X46.673 Y258.664
G0 X45.345 Y259.265
G0 X53.361 Y248.208
G0 X51.927 Y248.548
G0 X51.507 Y247.202
G1 F2700 E13.77137
G0 F6000 X51.123 Y247.415
G1 F300 X47.982 Y244.275 E13.91909
G0 F6000 X48.193 Y243.892
G0 X47.162 Y243.469
G0 X47.027 Y243.886
G1 F300 X51.507 Y248.366 E14.12982
G0 F6000 X51.717 Y249.142
G1 F300 X46.253 Y243.678 E14.38683
G0 F6000 X45.581 Y243.571
G1 F300 X51.827 Y249.817 E14.68062
G0 F6000 X51.861 Y250.416
G1 F300 X44.976 Y243.532 E15.00445
G0 F6000 X44.421 Y243.542
G1 F300 X51.871 Y250.992 E15.35487
G0 F6000 X51.871 Y251.558
G1 F300 X43.903 Y243.59 E15.72966
G0 F6000 X43.414 Y243.666
G1 F300 X51.871 Y252.123 E16.12745
G0 F6000 X51.871 Y252.689
G1 F300 X42.959 Y243.777 E16.54665
G0 F6000 X42.53 Y243.914
G1 F300 X51.871 Y253.255 E16.98602
G0 F6000 X51.871 Y253.82
G1 F300 X42.117 Y244.067 E17.44479
G0 F6000 X41.729 Y244.245
G1 F300 X51.871 Y254.386 E17.92182
G0 F6000 X51.871 Y254.952
G1 F300 X41.359 Y244.44 E18.41627
G0 F6000 X41.002 Y244.649
G1 F300 X51.871 Y255.517 E18.92749
G0 F6000 X51.871 Y256.083
G1 F300 X40.657 Y244.869 E19.45496
G0 F6000 X40.312 Y245.09
G1 F300 X51.871 Y256.649 E19.99866
G0 F6000 X51.871 Y257.215
G1 F300 X39.967 Y245.31 E20.55861
G0 F6000 X39.622 Y245.531
G1 F300 X51.871 Y257.78 E21.13477
G0 F6000 X51.871 Y258.346
G1 F300 X39.276 Y245.752 E21.72718
G0 F6000 X38.931 Y245.972
G1 F300 X51.871 Y258.912 E22.33583
G0 F6000 X51.871 Y259.477
G1 F300 X38.586 Y246.193 E22.9607
G0 F6000 X38.241 Y246.413
G1 F300 X51.871 Y260.043 E23.60181
G0 F6000 X51.871 Y260.609
G1 F300 X37.896 Y246.634 E24.25915
G0 F6000 X37.551 Y246.855
G1 F300 X51.871 Y261.174 E24.9327
G0 F6000 X51.871 Y261.74
G1 F300 X37.206 Y247.075 E25.62249
G0 F6000 X36.861 Y247.296
G1 F300 X51.871 Y262.306 E26.32852
G0 F6000 X51.871 Y262.871
G1 F300 X36.515 Y247.516 E27.05079
G0 F6000 X36.17 Y247.736
G1 F300 X44.118 Y255.684 E27.42464
G0 F6000 X43.241 Y255.373
G1 F300 X35.825 Y247.957 E27.77347
G0 F6000 X35.48 Y248.178
G1 F300 X42.546 Y255.244 E28.10583
G0 F6000 X41.946 Y255.209
G1 F300 X35.135 Y248.398 E28.4262
G0 F6000 X34.79 Y248.619
G1 F300 X41.401 Y255.23 E28.73716
G0 F6000 X40.896 Y255.291
G1 F300 X34.445 Y248.84 E29.0406
G0 F6000 X34.1 Y249.06
G1 F300 X40.427 Y255.387 E29.3382
G0 F6000 X40 Y255.526
G1 F300 X33.755 Y249.281 E29.63194
G0 F6000 X33.41 Y249.501
G1 F300 X39.589 Y255.681 E29.92261
G0 F6000 X39.21 Y255.868
G1 F300 X33.065 Y249.722 E30.21167
G0 F6000 X32.719 Y249.943
G1 F300 X38.852 Y256.075 E30.50013
G0 F6000 X38.513 Y256.302
G1 F300 X32.374 Y250.163 E30.78889
G0 F6000 X32.029 Y250.384
G1 F300 X38.201 Y256.556 E31.0792
G0 F6000 X37.897 Y256.817
G1 F300 X31.684 Y250.605 E31.37142
G0 F6000 X31.339 Y250.825
G1 F300 X37.63 Y257.116 E31.66733
G0 F6000 X37.369 Y257.421
G1 F300 X30.994 Y251.046 E31.96719
G0 F6000 X30.649 Y251.266
G1 F300 X37.14 Y257.758 E32.27253
G0 F6000 X36.925 Y258.108
G1 F300 X30.304 Y251.487 E32.58396
G0 F6000 X29.959 Y251.708
G1 F300 X36.734 Y258.482 E32.90261
G0 F6000 X36.57 Y258.884
G1 F300 X29.614 Y251.928 E33.2298
G0 F6000 X29.269 Y252.149
G1 F300 X36.42 Y259.301 E33.56618
G0 F6000 X36.319 Y259.765
G1 F300 X28.923 Y252.369 E33.91407
G0 F6000 X28.578 Y252.589
G1 F300 X36.246 Y260.257 E34.27475
G0 F6000 X36.208 Y260.785
G1 F300 X28.233 Y252.81 E34.64987
G0 F6000 X27.888 Y253.031
G1 F300 X36.232 Y261.374 E35.04232
G0 F6000 X36.336 Y262.044
G1 F300 X27.543 Y253.251 E35.45592
G0 F6000 X27.198 Y253.472
G1 F300 X36.565 Y262.84 E35.89653
G0 F6000 X36.982 Y262.702
G0 X37.558 Y263.794
G0 X37.186 Y264.025
G1 F300 X26.853 Y253.692 E36.38257
G0 F6000 X26.508 Y253.913
G1 F300 X48.904 Y276.309 E37.43601
G0 F6000 X49.225 Y276.065
