;FLAVOR:Marlin
;TIME:4906
;Filament used: 2.48115m
;Layer height: 0.2
;MINX:20.983
;MINY:240.44
;MINZ:0.2
;MAXX:53.768
;MAXY:276.44
;MAXZ:35
;Generated with Cura_SteamEngine 4.12.1
M140 S65
M105
M190 S65
M104 S215
M105
M109 S215
M82 ;absolute extrusion mode
M201 X500.00 Y500.00 Z100.00 E5000.00 ;Setup machine max acceleration
M203 X500.00 Y500.00 Z10.00 E50.00 ;Setup machine max feedrate
M204 P500.00 R1000.00 T500.00 ;Setup Print/Retract/Travel acceleration
M205 X8.00 Y8.00 Z0.40 E5.00 ;Setup Jerk
M220 S100 ;Reset Feedrate
M221 S100 ;Reset Flowrate

G28 ;Home

G92 E0 ;Reset Extruder
G1 Z2.0 F3000 ;Move Z Axis up
G1 X10.1 Y20 Z0.28 F5000.0 ;Move to start position
G1 X10.1 Y200.0 Z0.28 F1500.0 E15 ;Draw the first line
G1 X10.4 Y200.0 Z0.28 F5000.0 ;Move to side a little
G1 X10.4 Y20 Z0.28 F1500.0 E30 ;Draw the second line
G92 E0 ;Reset Extruder
G1 Z2.0 F3000 ;Move Z Axis up

G92 E0
G92 E0
G1 F2700 E-5
;LAYER_COUNT:175
;LAYER:0
M107
;MESH:electronics_platform.v3.stl
G0 F6000 X43.133 Y261.341 Z0.2
;TYPE:WALL-INNER
G1 F2700 E0
G1 F300 X43.163 Y261.233 E0.00373
G1 X43.35 Y260.476 E0.02966
G1 X43.371 Y260.368 E0.03332
G1 X43.493 Y259.591 E0.05948
G1 X43.503 Y259.48 E0.06319
G1 X43.555 Y258.706 E0.08899
G1 X43.557 Y258.594 E0.09272
G1 X43.54 Y257.806 E0.11893
G1 X43.53 Y257.697 E0.12257
G1 X43.444 Y256.919 E0.14861
G1 X43.425 Y256.809 E0.15232
G1 X43.271 Y256.042 E0.17834
G1 X43.242 Y255.935 E0.18203
G1 X43.021 Y255.187 E0.20797
G1 X42.983 Y255.081 E0.21171
G1 X42.695 Y254.352 E0.23778
G1 X42.648 Y254.251 E0.24149
G1 X42.298 Y253.556 E0.26737
G1 X42.244 Y253.459 E0.27106
G1 X41.831 Y252.791 E0.29718
G1 X41.768 Y252.701 E0.30084
G1 X41.3 Y252.074 E0.32686
G1 X41.229 Y251.988 E0.33057
G1 X40.705 Y251.404 E0.35667
G1 X40.626 Y251.327 E0.36033
G1 X40.056 Y250.792 E0.38634
G1 X39.97 Y250.72 E0.39007
G1 X39.357 Y250.243 E0.4159
G1 X39.267 Y250.178 E0.41959
G1 X38.606 Y249.749 E0.4458
G1 X38.508 Y249.695 E0.44952
G1 X37.816 Y249.328 E0.47558
G1 X37.715 Y249.283 E0.47925
G1 X36.997 Y248.981 E0.50516
G1 X36.892 Y248.943 E0.50887
G1 X36.148 Y248.706 E0.53485
G1 X36.041 Y248.677 E0.53853
G1 X35.277 Y248.506 E0.56457
G1 X35.167 Y248.487 E0.56828
G1 X34.393 Y248.384 E0.59426
G1 X34.283 Y248.375 E0.59793
G1 X33.501 Y248.341 E0.62396
G1 X33.39 Y248.341 E0.62765
G1 X32.603 Y248.375 E0.65385
G1 X32.492 Y248.387 E0.65757
G1 X31.72 Y248.491 E0.68347
G1 X31.611 Y248.511 E0.68716
G1 X30.843 Y248.684 E0.71334
G1 X30.736 Y248.716 E0.71706
G1 X29.988 Y248.954 E0.74317
G1 X29.168 Y249.297 E0.77273
G1 X29.069 Y249.346 E0.7764
G1 X28.376 Y249.712 E0.80247
G1 X28.282 Y249.77 E0.80614
G1 X27.625 Y250.194 E0.83215
G1 X27.535 Y250.261 E0.83588
G1 X26.92 Y250.742 E0.86185
G1 X26.837 Y250.816 E0.86555
G1 X26.267 Y251.35 E0.89153
G1 X26.189 Y251.43 E0.89524
G1 X25.667 Y252.014 E0.9213
G1 X25.598 Y252.101 E0.92499
G1 X25.13 Y252.727 E0.95099
G1 X25.068 Y252.82 E0.9547
G1 X24.659 Y253.485 E0.98067
G1 X24.606 Y253.582 E0.98435
G1 X24.256 Y254.281 E1.01035
G1 X24.211 Y254.382 E1.01402
G1 X23.922 Y255.115 E1.04023
G1 X23.888 Y255.22 E1.0439
G1 X23.668 Y255.967 E1.0698
G1 X23.641 Y256.076 E1.07354
G1 X23.488 Y256.842 E1.09952
G1 X23.471 Y256.952 E1.10322
G1 X23.385 Y257.729 E1.12922
G1 X23.378 Y257.841 E1.13295
G1 X23.36 Y258.633 E1.1593
G1 X23.417 Y259.517 E1.18876
G1 X23.431 Y259.628 E1.19248
G1 X23.551 Y260.401 E1.2185
G1 X23.574 Y260.509 E1.22218
G1 X23.763 Y261.269 E1.24822
G1 X23.796 Y261.375 E1.25192
G1 X24.052 Y262.12 E1.27812
G1 X24.412 Y262.931 E1.30763
G1 X24.464 Y263.031 E1.31138
G1 X24.845 Y263.713 E1.33736
G1 X24.905 Y263.807 E1.34107
G1 X25.343 Y264.451 E1.36697
G1 X25.411 Y264.54 E1.3707
G1 X25.907 Y265.147 E1.39677
G1 X25.982 Y265.229 E1.40047
G1 X26.531 Y265.79 E1.42657
G1 X26.614 Y265.865 E1.43029
G1 X27.209 Y266.374 E1.45634
G1 X27.298 Y266.44 E1.46002
G1 X27.932 Y266.893 E1.48594
G1 X28.026 Y266.953 E1.48965
G1 X28.703 Y267.35 E1.51575
G1 X28.802 Y267.4 E1.51944
G1 X29.505 Y267.734 E1.54533
G1 X29.61 Y267.777 E1.5491
G1 X30.342 Y268.046 E1.57504
G1 X30.447 Y268.079 E1.5787
G1 X31.209 Y268.286 E1.60496
G1 X32.081 Y268.444 E1.63444
G1 X32.192 Y268.459 E1.63816
G1 X32.974 Y268.528 E1.66427
G1 X33.084 Y268.532 E1.66793
G1 X33.876 Y268.533 E1.69428
G1 X34.763 Y268.456 E1.72389
G1 X35.645 Y268.301 E1.75367
G1 X36.501 Y268.072 E1.78315
G1 X36.607 Y268.036 E1.78687
G1 X37.341 Y267.765 E1.81289
G1 X37.443 Y267.72 E1.8166
G1 X38.15 Y267.385 E1.84262
G1 X38.248 Y267.332 E1.84633
G1 X38.921 Y266.936 E1.8723
G1 X39.013 Y266.874 E1.87599
G1 X39.652 Y266.42 E1.90206
G1 X39.739 Y266.349 E1.9058
G1 X40.333 Y265.841 E1.93179
G1 X40.412 Y265.764 E1.93546
G1 X40.959 Y265.206 E1.96145
G1 X41.033 Y265.121 E1.9652
G1 X41.526 Y264.516 E1.99116
G1 X41.592 Y264.427 E1.99484
G1 X42.032 Y263.78 E2.02087
G1 X42.09 Y263.684 E2.0246
G1 X42.469 Y263.001 E2.05058
G1 X42.518 Y262.902 E2.05425
G1 X42.837 Y262.187 E2.08029
G1 X42.878 Y262.084 E2.08398
G1 X43.133 Y261.341 E2.1101
G0 F6000 X42.751 Y261.223
;TYPE:WALL-OUTER
G1 F300 X42.776 Y261.132 E2.11324
G1 X42.959 Y260.39 E2.13866
G1 X42.977 Y260.298 E2.14178
G1 X43.096 Y259.543 E2.1672
G1 X43.104 Y259.45 E2.17031
G1 X43.155 Y258.688 E2.19571
G1 X43.157 Y258.594 E2.19883
G1 X43.14 Y257.828 E2.22432
G1 X43.132 Y257.736 E2.22739
G1 X43.048 Y256.975 E2.25285
G1 X43.032 Y256.883 E2.25596
G1 X42.881 Y256.133 E2.28141
G1 X42.857 Y256.043 E2.2845
G1 X42.641 Y255.311 E2.30989
G1 X42.609 Y255.222 E2.31303
G1 X42.328 Y254.511 E2.33846
G1 X42.288 Y254.426 E2.34159
G1 X41.945 Y253.744 E2.36698
G1 X41.899 Y253.662 E2.3701
G1 X41.497 Y253.011 E2.39555
G1 X41.444 Y252.935 E2.39863
G1 X40.986 Y252.322 E2.42408
G1 X40.926 Y252.25 E2.4272
G1 X40.415 Y251.68 E2.45266
G1 X40.349 Y251.615 E2.45574
G1 X39.791 Y251.092 E2.48118
G1 X39.719 Y251.032 E2.4843
G1 X39.117 Y250.563 E2.50968
G1 X39.041 Y250.508 E2.5128
G1 X38.399 Y250.092 E2.53824
G1 X38.317 Y250.046 E2.54137
G1 X37.641 Y249.688 E2.56681
G1 X37.556 Y249.65 E2.56991
G1 X36.852 Y249.354 E2.59531
G1 X36.763 Y249.322 E2.59846
G1 X36.036 Y249.09 E2.62384
G1 X35.946 Y249.066 E2.62694
G1 X35.199 Y248.898 E2.6524
G1 X35.107 Y248.882 E2.65551
G1 X34.349 Y248.782 E2.68094
G1 X34.257 Y248.774 E2.68401
G1 X33.492 Y248.741 E2.70948
G1 X33.399 Y248.741 E2.71257
G1 X32.633 Y248.774 E2.73807
G1 X32.54 Y248.784 E2.74118
G1 X31.783 Y248.886 E2.76659
G1 X31.691 Y248.903 E2.7697
G1 X30.944 Y249.071 E2.79516
G1 X30.854 Y249.098 E2.79829
G1 X30.126 Y249.33 E2.8237
G1 X29.334 Y249.661 E2.85225
G1 X29.251 Y249.702 E2.85533
G1 X28.575 Y250.059 E2.88076
G1 X28.496 Y250.108 E2.88385
G1 X27.853 Y250.523 E2.9093
G1 X27.778 Y250.579 E2.91242
G1 X27.176 Y251.05 E2.93784
G1 X27.106 Y251.112 E2.94095
G1 X26.548 Y251.634 E2.96636
G1 X26.483 Y251.702 E2.96949
G1 X25.973 Y252.272 E2.99493
G1 X25.915 Y252.345 E2.99803
G1 X25.457 Y252.958 E3.02348
G1 X25.405 Y253.036 E3.0266
G1 X25.005 Y253.686 E3.05199
G1 X24.96 Y253.768 E3.0551
G1 X24.618 Y254.452 E3.08053
G1 X24.58 Y254.537 E3.08363
G1 X24.299 Y255.25 E3.10912
G1 X24.27 Y255.339 E3.11223
G1 X24.054 Y256.071 E3.13762
G1 X24.032 Y256.162 E3.14073
G1 X23.882 Y256.911 E3.16614
G1 X23.868 Y257.004 E3.16926
G1 X23.784 Y257.764 E3.1947
G1 X23.778 Y257.858 E3.19783
G1 X23.76 Y258.625 E3.22335
G1 X23.815 Y259.479 E3.25181
G1 X23.827 Y259.572 E3.25493
G1 X23.944 Y260.327 E3.28034
G1 X23.964 Y260.418 E3.28344
G1 X24.148 Y261.161 E3.3089
G1 X24.176 Y261.25 E3.312
G1 X24.425 Y261.974 E3.33747
G1 X24.773 Y262.758 E3.36599
G1 X24.816 Y262.841 E3.3691
G1 X25.189 Y263.508 E3.39452
G1 X25.239 Y263.587 E3.39763
G1 X25.668 Y264.217 E3.42298
G1 X25.725 Y264.292 E3.42611
G1 X26.21 Y264.885 E3.45159
G1 X26.273 Y264.954 E3.4547
G1 X26.808 Y265.501 E3.48015
G1 X26.878 Y265.564 E3.48328
G1 X27.459 Y266.061 E3.50871
G1 X27.534 Y266.117 E3.51183
G1 X28.155 Y266.561 E3.53722
G1 X28.234 Y266.611 E3.54033
G1 X28.895 Y266.999 E3.56582
G1 X28.978 Y267.041 E3.56891
G1 X29.667 Y267.368 E3.59428
G1 X29.755 Y267.404 E3.59744
G1 X30.472 Y267.667 E3.62284
G1 X30.56 Y267.695 E3.62591
G1 X31.3 Y267.896 E3.65142
G1 X31.391 Y267.914 E3.6545
G1 X32.142 Y268.049 E3.67988
G1 X32.235 Y268.061 E3.683
G1 X32.998 Y268.129 E3.70848
G1 X33.091 Y268.132 E3.71157
G1 X33.859 Y268.133 E3.73712
G1 X34.711 Y268.059 E3.76556
G1 X35.559 Y267.91 E3.7942
G1 X36.385 Y267.689 E3.82264
G1 X36.474 Y267.659 E3.82576
G1 X37.191 Y267.394 E3.85119
G1 X37.277 Y267.356 E3.85431
G1 X37.968 Y267.029 E3.87974
G1 X38.05 Y266.984 E3.88285
G1 X38.708 Y266.597 E3.90824
G1 X38.786 Y266.545 E3.91136
G1 X39.41 Y266.101 E3.93683
G1 X39.483 Y266.042 E3.93995
G1 X40.063 Y265.545 E3.96536
G1 X40.13 Y265.48 E3.96846
G1 X40.665 Y264.934 E3.99389
G1 X40.727 Y264.863 E3.99702
G1 X41.21 Y264.271 E4.02243
G1 X41.265 Y264.196 E4.02553
G1 X41.695 Y263.564 E4.05095
G1 X41.744 Y263.483 E4.0541
G1 X42.115 Y262.815 E4.07951
G1 X42.156 Y262.732 E4.08259
G1 X42.468 Y262.033 E4.10805
G1 X42.502 Y261.946 E4.11116
G1 X42.751 Y261.223 E4.13659
G0 F6000 X43.171 Y261.352
G1 F2700 E-0.86341
G0 F6000 X43.536 Y260.517
G0 X42.114 Y260.204
G0 X53.208 Y262.951
G0 X52.036 Y262.053
G0 X52.839 Y261.025
;TYPE:WALL-INNER
G1 F2700 E4.13659
G1 F300 X52.553 Y261.614 E4.15837
G1 X52.208 Y262.175 E4.18028
G1 X51.796 Y262.713 E4.20281
G1 X51.361 Y263.179 E4.22402
G1 X50.856 Y263.621 E4.24634
G1 X50.316 Y264.004 E4.26836
G1 X33.372 Y274.836 E4.93723
G1 X32.741 Y275.198 E4.96143
G1 X32.102 Y275.49 E4.9848
G1 X31.428 Y275.725 E5.00854
G1 X30.755 Y275.892 E5.0316
G1 X30.041 Y275.998 E5.05561
G1 X29.347 Y276.039 E5.07873
G1 X28.633 Y276.012 E5.1025
G1 X27.932 Y275.921 E5.12601
G1 X27.246 Y275.765 E5.14941
G1 X26.585 Y275.55 E5.17252
G1 X25.92 Y275.262 E5.19663
G1 X25.309 Y274.927 E5.2198
G1 X24.725 Y274.532 E5.24325
G1 X24.169 Y274.075 E5.26719
G1 X23.676 Y273.587 E5.29026
G1 X23.215 Y273.035 E5.31418
G1 X22.824 Y272.468 E5.33709
G1 X22.475 Y271.843 E5.3609
G1 X22.186 Y271.194 E5.38453
G1 X21.96 Y270.523 E5.40808
G1 X21.796 Y269.832 E5.4317
G1 X21.702 Y269.156 E5.4544
G1 X21.668 Y268.382 E5.48017
G1 X21.668 Y248.462 E6.14271
G1 X21.702 Y247.724 E6.16728
G1 X21.797 Y247.042 E6.19018
G1 X21.964 Y246.34 E6.21418
G1 X22.186 Y245.683 E6.23725
G1 X22.478 Y245.028 E6.2611
G1 X22.818 Y244.42 E6.28427
G1 X23.229 Y243.827 E6.30827
G1 X23.667 Y243.302 E6.33101
G1 X24.183 Y242.793 E6.35512
G1 X24.729 Y242.346 E6.37859
G1 X25.318 Y241.949 E6.40221
G1 X25.944 Y241.606 E6.42595
G1 X26.591 Y241.328 E6.44937
G1 X27.253 Y241.113 E6.47252
G1 X27.946 Y240.956 E6.49616
G1 X28.642 Y240.867 E6.5195
G1 X29.357 Y240.841 E6.54329
G1 X30.053 Y240.882 E6.56648
G1 X30.767 Y240.99 E6.5905
G1 X31.434 Y241.156 E6.61336
G1 X32.109 Y241.391 E6.63713
G1 X32.746 Y241.684 E6.66045
G1 X33.376 Y242.047 E6.68464
G1 X50.334 Y252.888 E7.35407
G1 X50.863 Y253.265 E7.37567
G1 X51.334 Y253.675 E7.39644
G1 X51.358 Y253.698 E7.39755
G1 X51.807 Y254.181 E7.41948
G1 X52.208 Y254.706 E7.44145
G1 X52.563 Y255.285 E7.46404
G1 X52.843 Y255.865 E7.48546
G1 X53.071 Y256.491 E7.50762
G1 X53.234 Y257.13 E7.52956
G1 X53.335 Y257.796 E7.55196
G1 X53.367 Y258.444 E7.57354
G1 X53.332 Y259.097 E7.59529
G1 X53.232 Y259.765 E7.61776
G1 X53.071 Y260.392 E7.63929
G1 X52.839 Y261.025 E7.66171
G0 F6000 X53.209 Y261.179
;TYPE:WALL-OUTER
G1 F300 X52.904 Y261.808 E7.68496
G1 X52.54 Y262.4 E7.70807
G1 X52.105 Y262.968 E7.73187
G1 X51.64 Y263.466 E7.75453
G1 X51.105 Y263.934 E7.77817
G1 X50.531 Y264.341 E7.80158
G1 X33.571 Y275.183 E8.47108
G1 X32.924 Y275.554 E8.49589
G1 X32.251 Y275.862 E8.5205
G1 X31.543 Y276.108 E8.54543
G1 X30.829 Y276.286 E8.56991
G1 X30.09 Y276.396 E8.59476
G1 X29.345 Y276.44 E8.61958
G1 X28.599 Y276.411 E8.64441
G1 X27.868 Y276.316 E8.66893
G1 X27.14 Y276.151 E8.69376
G1 X26.441 Y275.923 E8.71821
G1 X25.743 Y275.621 E8.74351
G1 X25.104 Y275.271 E8.76774
G1 X24.483 Y274.851 E8.79267
G1 X23.905 Y274.376 E8.81756
G1 X23.38 Y273.856 E8.84213
G1 X22.897 Y273.277 E8.86721
G1 X22.484 Y272.679 E8.89138
G1 X22.112 Y272.014 E8.91673
G1 X21.815 Y271.346 E8.94104
G1 X21.576 Y270.636 E8.96596
G1 X21.403 Y269.905 E8.99094
G1 X21.303 Y269.186 E9.01509
G1 X21.268 Y268.4 E9.04126
G1 X21.268 Y248.443 E9.70503
G1 X21.303 Y247.694 E9.72997
G1 X21.404 Y246.969 E9.75431
G1 X21.58 Y246.227 E9.77968
G1 X21.812 Y245.54 E9.8038
G1 X22.12 Y244.848 E9.82899
G1 X22.481 Y244.203 E9.85357
G1 X22.907 Y243.589 E9.87843
G1 X23.376 Y243.027 E9.90277
G1 X23.914 Y242.496 E9.92792
G1 X24.493 Y242.022 E9.9528
G1 X25.106 Y241.609 E9.97739
G1 X25.764 Y241.249 E10.00233
G1 X26.448 Y240.954 E10.02711
G1 X27.151 Y240.726 E10.05169
G1 X27.881 Y240.561 E10.07658
G1 X28.609 Y240.468 E10.10099
G1 X29.356 Y240.44 E10.12586
G1 X30.102 Y240.485 E10.15071
G1 X30.841 Y240.596 E10.17557
G1 X31.55 Y240.773 E10.19987
G1 X32.254 Y241.018 E10.22467
G1 X32.939 Y241.333 E10.24974
G1 X33.576 Y241.7 E10.27419
G1 X50.566 Y252.562 E10.9449
G1 X51.108 Y252.948 E10.96703
G1 X51.608 Y253.384 E10.98909
G1 X51.643 Y253.417 E10.99069
G1 X52.116 Y253.926 E11.0138
G1 X52.537 Y254.477 E11.03687
G1 X52.914 Y255.092 E11.06086
G1 X53.213 Y255.712 E11.08375
G1 X53.455 Y256.375 E11.10723
G1 X53.627 Y257.051 E11.13043
G1 X53.732 Y257.746 E11.15381
G1 X53.767 Y258.445 E11.17708
G1 X53.73 Y259.146 E11.20043
G1 X53.626 Y259.838 E11.22371
G1 X53.451 Y260.519 E11.24709
G1 X53.209 Y261.179 E11.27047
G0 F6000 X52.804 Y261.008
G0 X52.482 Y260.867
;TYPE:SKIN
G1 F300 X52.211 Y261.425 E11.29111
G1 X51.889 Y261.949 E11.31156
G1 X51.491 Y262.469 E11.33334
G1 X51.089 Y262.899 E11.35292
G1 X50.617 Y263.312 E11.37378
G1 X50.098 Y263.68 E11.39494
G1 X33.169 Y274.502 E12.06322
G1 X32.563 Y274.851 E12.08648
G1 X31.954 Y275.128 E12.10873
G1 X31.312 Y275.352 E12.13135
G1 X30.686 Y275.508 E12.1528
G1 X30.006 Y275.608 E12.17566
G1 X29.339 Y275.649 E12.19789
G1 X28.656 Y275.622 E12.22062
G1 X28.003 Y275.537 E12.24253
G1 X27.357 Y275.391 E12.26455
G1 X26.722 Y275.184 E12.28677
G1 X26.089 Y274.91 E12.30971
G1 X25.516 Y274.597 E12.33143
G1 X24.963 Y274.222 E12.35365
G1 X24.427 Y273.781 E12.37674
G1 X23.966 Y273.324 E12.39833
G1 X23.523 Y272.794 E12.4213
G1 X23.16 Y272.266 E12.44261
G1 X22.82 Y271.66 E12.46572
G1 X22.551 Y271.054 E12.48777
G1 X22.335 Y270.415 E12.51021
G1 X22.177 Y269.747 E12.53304
G1 X22.092 Y269.127 E12.55385
G1 X22.058 Y268.382 E12.57866
G1 X22.058 Y248.48 E13.2406
G1 X22.092 Y247.749 E13.26494
G1 X22.178 Y247.127 E13.28583
G1 X22.342 Y246.437 E13.30941
G1 X22.545 Y245.835 E13.33055
G1 X22.823 Y245.211 E13.35327
G1 X23.159 Y244.611 E13.37614
G1 X23.529 Y244.077 E13.39775
G1 X23.967 Y243.552 E13.42049
G1 X24.435 Y243.091 E13.44234
G1 X24.959 Y242.662 E13.46486
G1 X25.53 Y242.277 E13.48777
G1 X26.107 Y241.961 E13.50965
G1 X26.732 Y241.692 E13.53228
G1 X27.364 Y241.487 E13.55438
G1 X28.019 Y241.339 E13.57671
G1 X28.661 Y241.257 E13.59824
G1 X29.348 Y241.231 E13.6211
G1 X30.016 Y241.272 E13.64336
G1 X30.699 Y241.374 E13.66633
G1 X31.321 Y241.53 E13.68766
G1 X31.953 Y241.749 E13.70991
G1 X32.572 Y242.034 E13.73257
G1 X33.173 Y242.381 E13.75565
G1 X50.116 Y253.212 E14.42448
G1 X50.623 Y253.573 E14.44519
G1 X51.081 Y253.971 E14.46537
G1 X51.504 Y254.426 E14.48603
G1 X51.88 Y254.918 E14.50663
G1 X52.224 Y255.479 E14.52851
G1 X52.482 Y256.014 E14.54827
G1 X52.7 Y256.613 E14.56947
G1 X52.85 Y257.204 E14.58975
G1 X52.945 Y257.834 E14.61094
G1 X52.976 Y258.442 E14.63119
G1 X52.942 Y259.06 E14.65177
G1 X52.849 Y259.688 E14.67289
G1 X52.696 Y260.281 E14.69326
G1 X52.482 Y260.867 E14.71401
G1 F2700 E9.71401
G0 F6000 X52.739 Y260.978
G0 X52.036 Y262.053
G0 X53.208 Y262.951
G0 X42.127 Y260.14
G0 X43.559 Y260.401
G0 X43.603 Y259.606
G1 F2700 E14.71401
G0 F6000 X43.881 Y259.639
G1 F300 X43.945 Y258.722 E14.74458
G1 X43.947 Y258.594 E14.74884
G1 X43.93 Y257.784 E14.77579
G1 X43.918 Y257.658 E14.78
G1 X43.83 Y256.865 E14.80653
G1 X43.809 Y256.738 E14.81081
G1 X43.651 Y255.952 E14.83748
G1 X43.617 Y255.828 E14.84176
G1 X43.392 Y255.066 E14.86818
G1 X43.348 Y254.943 E14.87253
G1 X43.054 Y254.198 E14.89917
G1 X42.999 Y254.081 E14.90347
G1 X42.643 Y253.373 E14.92982
G1 X42.581 Y253.262 E14.93405
G1 X42.157 Y252.576 E14.96087
G1 X42.084 Y252.473 E14.96507
G1 X41.607 Y251.833 E14.99162
G1 X41.525 Y251.733 E14.99592
