;FLAVOR:Marlin
;TIME:5048
;Filament used: 2.33904m
;Layer height: 0.2
;MINX:29.568
;MINY:239.918
;MINZ:0.2
;MAXX:62.738
;MAXY:276.315
;MAXZ:35
;Generated with Cura_SteamEngine 4.12.1
M140 S65
M105
M190 S65
M104 S215
M105
M109 S215
M82 ;absolute extrusion mode
M201 X500.00 Y500.00 Z100.00 E5000.00 ;Setup machine max acceleration
M203 X500.00 Y500.00 Z10.00 E50.00 ;Setup machine max feedrate
M204 P500.00 R1000.00 T500.00 ;Setup Print/Retract/Travel acceleration
M205 X8.00 Y8.00 Z0.40 E5.00 ;Setup Jerk
M220 S100 ;Reset Feedrate
M221 S100 ;Reset Flowrate

G28 ;Home

G92 E0 ;Reset Extruder
G1 Z2.0 F3000 ;Move Z Axis up
G1 X10.1 Y20 Z0.28 F5000.0 ;Move to start position
G1 X10.1 Y200.0 Z0.28 F1500.0 E15 ;Draw the first line
G1 X10.4 Y200.0 Z0.28 F5000.0 ;Move to side a little
G1 X10.4 Y20 Z0.28 F1500.0 E30 ;Draw the second line
G92 E0 ;Reset Extruder
G1 Z2.0 F3000 ;Move Z Axis up

G92 E0
G92 E0
G1 F2700 E-5
;LAYER_COUNT:175
;LAYER:0
M107
;MESH:electronics_platform.v1.stl
G0 F6000 X51.842 Y261.217 Z0.2
;TYPE:WALL-INNER
G1 F2700 E0
G1 F300 X52.081 Y260.342 E0.03017
G1 X52.24 Y259.452 E0.06024
G1 X52.321 Y258.55 E0.09036
G1 X52.322 Y257.836 E0.11411
G1 X52.319 Y257.637 E0.12073
G1 X52.236 Y256.74 E0.15069
G1 X52.11 Y256.04 E0.17435
G1 X52.072 Y255.845 E0.18095
G1 X51.883 Y255.162 E0.20452
G1 X51.828 Y254.973 E0.21107
G1 X51.58 Y254.308 E0.23468
G1 X51.506 Y254.123 E0.2413
G1 X51.115 Y253.312 E0.27125
G1 X50.75 Y252.701 E0.29492
G1 X50.645 Y252.531 E0.30157
G1 X50.114 Y251.802 E0.33156
G1 X49.516 Y251.12 E0.36173
G1 X48.859 Y250.496 E0.39187
G1 X48.151 Y249.933 E0.42196
G1 X47.392 Y249.434 E0.45217
G1 X46.593 Y249.006 E0.48231
G1 X45.759 Y248.652 E0.51245
G1 X44.897 Y248.374 E0.54257
G1 X44.013 Y248.174 E0.57272
G1 X43.309 Y248.079 E0.59635
G1 X43.112 Y248.055 E0.60295
G1 X42.21 Y248.015 E0.63298
G1 X41.499 Y248.047 E0.65665
G1 X41.301 Y248.059 E0.66325
G1 X40.6 Y248.152 E0.68677
G1 X40.403 Y248.181 E0.69339
G1 X39.712 Y248.339 E0.71696
G1 X39.521 Y248.385 E0.7235
G1 X38.846 Y248.603 E0.74709
G1 X38.659 Y248.667 E0.75366
G1 X38.009 Y248.944 E0.77716
G1 X37.826 Y249.024 E0.78381
G1 X37.202 Y249.361 E0.8074
G1 X37.03 Y249.457 E0.81395
G1 X36.439 Y249.846 E0.83748
G1 X36.275 Y249.957 E0.84407
G1 X35.72 Y250.399 E0.86766
G1 X35.567 Y250.524 E0.87424
G1 X35.055 Y251.013 E0.89778
G1 X34.913 Y251.153 E0.90442
G1 X34.32 Y251.833 E0.93442
G1 X33.902 Y252.409 E0.9581
G1 X33.787 Y252.571 E0.9647
G1 X33.325 Y253.348 E0.99477
G1 X32.935 Y254.165 E1.02488
G1 X32.616 Y255.013 E1.05501
G1 X32.377 Y255.889 E1.08522
G1 X32.218 Y256.78 E1.11532
G1 X32.138 Y257.681 E1.1454
G1 X32.137 Y258.395 E1.16915
G1 X32.14 Y258.593 E1.17574
G1 X32.203 Y259.298 E1.19928
G1 X32.224 Y259.496 E1.2059
G1 X32.386 Y260.382 E1.23586
G1 X32.575 Y261.069 E1.25956
G1 X32.63 Y261.259 E1.26614
G1 X32.949 Y262.105 E1.29621
G1 X33.345 Y262.919 E1.32632
G1 X33.709 Y263.53 E1.34997
G1 X33.814 Y263.7 E1.35662
G1 X34.345 Y264.429 E1.38661
G1 X34.943 Y265.111 E1.41678
G1 X35.598 Y265.735 E1.44687
G1 X36.309 Y266.299 E1.47706
G1 X37.066 Y266.797 E1.50719
G1 X37.865 Y267.225 E1.53734
G1 X38.699 Y267.579 E1.56747
G1 X39.561 Y267.857 E1.5976
G1 X40.446 Y268.057 E1.62778
G1 X41.15 Y268.152 E1.6514
G1 X41.347 Y268.176 E1.658
G1 X42.248 Y268.215 E1.688
G1 X42.96 Y268.184 E1.7117
G1 X43.158 Y268.172 E1.7183
G1 X44.055 Y268.051 E1.74841
G1 X44.747 Y267.892 E1.77202
G1 X44.938 Y267.846 E1.77856
G1 X45.612 Y267.628 E1.80212
G1 X45.799 Y267.564 E1.80869
G1 X46.451 Y267.286 E1.83227
G1 X46.631 Y267.207 E1.8388
G1 X47.256 Y266.871 E1.8624
G1 X47.43 Y266.774 E1.86903
G1 X48.02 Y266.385 E1.89254
G1 X48.184 Y266.274 E1.89912
G1 X48.738 Y265.833 E1.92267
G1 X48.893 Y265.707 E1.92932
G1 X49.404 Y265.218 E1.95284
G1 X49.545 Y265.078 E1.95945
G1 X50.139 Y264.398 E1.98948
G1 X50.557 Y263.822 E2.01315
G1 X50.672 Y263.66 E2.01976
G1 X51.134 Y262.883 E2.04983
G1 X51.524 Y262.066 E2.07994
G1 X51.842 Y261.217 E2.11009
G0 F6000 X51.461 Y261.094
;TYPE:WALL-OUTER
G1 F300 X51.69 Y260.254 E2.13905
G1 X51.843 Y259.399 E2.16794
G1 X51.921 Y258.532 E2.19689
G1 X51.922 Y257.839 E2.21994
G1 X51.919 Y257.659 E2.22593
G1 X51.839 Y256.794 E2.25482
G1 X51.717 Y256.114 E2.2778
G1 X51.682 Y255.937 E2.2838
G1 X51.498 Y255.271 E2.30678
G1 X51.448 Y255.099 E2.31274
G1 X51.207 Y254.452 E2.3357
G1 X51.14 Y254.284 E2.34172
G1 X50.762 Y253.502 E2.37061
G1 X50.408 Y252.908 E2.3936
G1 X50.313 Y252.754 E2.39962
G1 X49.801 Y252.052 E2.42852
G1 X49.227 Y251.397 E2.45749
G1 X48.596 Y250.798 E2.48643
G1 X47.916 Y250.257 E2.51533
G1 X47.187 Y249.778 E2.54434
G1 X46.42 Y249.367 E2.57328
G1 X45.619 Y249.027 E2.60222
G1 X44.791 Y248.76 E2.63116
G1 X43.942 Y248.568 E2.66011
G1 X43.258 Y248.476 E2.68307
G1 X43.079 Y248.454 E2.68906
G1 X42.21 Y248.415 E2.718
G1 X41.52 Y248.446 E2.74097
G1 X41.34 Y248.457 E2.74697
G1 X40.655 Y248.548 E2.76995
G1 X40.477 Y248.574 E2.77593
G1 X39.804 Y248.728 E2.7989
G1 X39.63 Y248.77 E2.80485
G1 X38.972 Y248.983 E2.82785
G1 X38.802 Y249.041 E2.83383
G1 X38.168 Y249.311 E2.85675
G1 X38.002 Y249.384 E2.86278
G1 X37.394 Y249.712 E2.88575
G1 X37.237 Y249.799 E2.89172
G1 X36.661 Y250.179 E2.91468
G1 X36.512 Y250.28 E2.92066
G1 X35.971 Y250.71 E2.94365
G1 X35.832 Y250.824 E2.94963
G1 X35.333 Y251.3 E2.97256
G1 X35.204 Y251.427 E2.97859
G1 X34.633 Y252.082 E3.00749
G1 X34.227 Y252.642 E3.03049
G1 X34.123 Y252.789 E3.03648
G1 X33.678 Y253.537 E3.06543
G1 X33.303 Y254.322 E3.09437
G1 X32.997 Y255.136 E3.12329
G1 X32.768 Y255.977 E3.15228
G1 X32.615 Y256.833 E3.1812
G1 X32.538 Y257.699 E3.21012
G1 X32.537 Y258.392 E3.23317
G1 X32.54 Y258.572 E3.23915
G1 X32.601 Y259.259 E3.26209
G1 X32.62 Y259.439 E3.26811
G1 X32.776 Y260.293 E3.29699
G1 X32.96 Y260.96 E3.32
G1 X33.01 Y261.132 E3.32596
G1 X33.317 Y261.947 E3.35493
G1 X33.697 Y262.729 E3.38384
G1 X34.051 Y263.323 E3.40684
G1 X34.146 Y263.477 E3.41286
G1 X34.658 Y264.179 E3.44176
G1 X35.232 Y264.834 E3.47073
G1 X35.861 Y265.433 E3.49962
G1 X36.544 Y265.975 E3.52862
G1 X37.271 Y266.453 E3.55755
G1 X38.038 Y266.864 E3.5865
G1 X38.839 Y267.204 E3.61544
G1 X39.667 Y267.471 E3.64437
G1 X40.517 Y267.663 E3.67336
G1 X41.201 Y267.755 E3.69631
G1 X41.38 Y267.777 E3.70231
G1 X42.248 Y267.815 E3.73121
G1 X42.939 Y267.785 E3.75421
G1 X43.119 Y267.774 E3.76021
G1 X43.803 Y267.683 E3.78316
G1 X43.982 Y267.657 E3.78918
G1 X44.655 Y267.503 E3.81214
G1 X44.829 Y267.461 E3.81809
G1 X45.486 Y267.248 E3.84107
G1 X45.656 Y267.19 E3.84704
G1 X46.292 Y266.919 E3.87003
G1 X46.456 Y266.847 E3.87599
G1 X47.064 Y266.52 E3.89895
G1 X47.222 Y266.432 E3.90497
G1 X47.798 Y266.052 E3.92792
G1 X47.947 Y265.951 E3.93391
G1 X48.487 Y265.522 E3.95684
G1 X48.627 Y265.407 E3.96287
G1 X49.125 Y264.931 E3.98578
G1 X49.254 Y264.804 E3.9918
G1 X49.826 Y264.149 E4.02073
G1 X50.232 Y263.589 E4.04373
G1 X50.336 Y263.442 E4.04972
G1 X50.781 Y262.694 E4.07867
G1 X51.156 Y261.909 E4.1076
G1 X51.461 Y261.094 E4.13655
G0 F6000 X51.879 Y261.229
G1 F2700 E-0.86345
G0 F6000 X52.267 Y260.384
G0 X50.847 Y260.06
G0 X62.568 Y262.063
G0 X61.312 Y261.289
G0 X61.795 Y260.774
;TYPE:WALL-INNER
G1 F2700 E4.13655
G1 F300 X61.497 Y261.389 E4.15928
G1 X61.141 Y261.967 E4.18186
G1 X60.736 Y262.498 E4.20407
G1 X60.255 Y263.012 E4.22748
G1 X59.76 Y263.444 E4.24933
G1 X59.185 Y263.854 E4.27282
G1 X42.253 Y274.678 E4.94122
G1 X41.619 Y275.045 E4.96558
G1 X40.952 Y275.349 E4.98996
G1 X40.253 Y275.592 E5.01458
G1 X39.566 Y275.763 E5.03813
G1 X38.834 Y275.873 E5.06275
G1 X38.12 Y275.915 E5.08653
G1 X37.389 Y275.888 E5.11086
G1 X36.669 Y275.794 E5.13501
G1 X35.964 Y275.635 E5.15905
G1 X35.282 Y275.412 E5.18292
G1 X34.605 Y275.119 E5.20745
G1 X33.975 Y274.774 E5.23134
G1 X33.38 Y274.37 E5.25526
G1 X32.813 Y273.905 E5.27965
G1 X32.294 Y273.393 E5.3039
G1 X31.836 Y272.843 E5.32771
G1 X31.419 Y272.239 E5.35212
G1 X31.067 Y271.613 E5.376
G1 X30.767 Y270.937 E5.4006
G1 X30.541 Y270.265 E5.42418
G1 X30.371 Y269.55 E5.44863
G1 X30.273 Y268.85 E5.47214
G1 X30.238 Y268.095 E5.49727
G1 X30.238 Y248.139 E6.16101
G1 X30.273 Y247.379 E6.18632
G1 X30.373 Y246.676 E6.20994
G1 X30.543 Y245.958 E6.23448
G1 X30.772 Y245.281 E6.25825
G1 X31.068 Y244.615 E6.28249
G1 X31.424 Y243.983 E6.30661
G1 X31.843 Y243.378 E6.33109
G1 X32.293 Y242.839 E6.35444
G1 X32.818 Y242.321 E6.37897
G1 X33.385 Y241.857 E6.40334
G1 X33.986 Y241.451 E6.42747
G1 X34.616 Y241.106 E6.45136
G1 X35.286 Y240.818 E6.47561
G1 X35.972 Y240.594 E6.49961
G1 X36.671 Y240.437 E6.52344
G1 X37.35 Y240.347 E6.54622
G1 X37.455 Y240.339 E6.54973
G1 X38.07 Y240.318 E6.57019
G1 X38.181 Y240.318 E6.57388
G1 X38.765 Y240.351 E6.59334
G1 X38.887 Y240.364 E6.59742
G1 X39.473 Y240.451 E6.61712
G1 X39.612 Y240.476 E6.62182
G1 X40.179 Y240.618 E6.64126
G1 X40.29 Y240.649 E6.6451
G1 X40.863 Y240.848 E6.66527
G1 X40.964 Y240.885 E6.66885
G1 X41.621 Y241.187 E6.6929
G1 X42.244 Y241.547 E6.71683
G1 X59.188 Y252.379 E7.38571
G1 X59.759 Y252.787 E7.40905
G1 X60.278 Y253.241 E7.43198
G1 X60.735 Y253.731 E7.45427
G1 X61.143 Y254.267 E7.47667
G1 X61.506 Y254.859 E7.49977
G1 X61.797 Y255.462 E7.52204
G1 X62.034 Y256.112 E7.54505
G1 X62.201 Y256.762 E7.56737
G1 X62.303 Y257.44 E7.59018
G1 X62.336 Y258.12 E7.61282
G1 X62.302 Y258.812 E7.63586
G1 X62.201 Y259.472 E7.65807
G1 X62.03 Y260.136 E7.68088
G1 X61.795 Y260.774 E7.70349
G0 F6000 X62.162 Y260.933
;TYPE:WALL-OUTER
G1 F300 X61.849 Y261.58 E7.72739
G1 X61.471 Y262.193 E7.75135
G1 X61.037 Y262.763 E7.77518
G1 X60.538 Y263.295 E7.79944
G1 X60.005 Y263.761 E7.82298
G1 X59.415 Y264.181 E7.84707
G1 X42.454 Y275.024 E8.51662
G1 X41.826 Y275.388 E8.54076
G1 X41.785 Y275.409 E8.5423
G1 X41.098 Y275.722 E8.56741
G1 X40.372 Y275.975 E8.59298
G1 X39.64 Y276.157 E8.61806
G1 X38.883 Y276.27 E8.64352
G1 X38.118 Y276.315 E8.66901
G1 X37.354 Y276.287 E8.69444
G1 X36.605 Y276.189 E8.71956
G1 X35.859 Y276.021 E8.74499
G1 X35.138 Y275.785 E8.77023
G1 X34.428 Y275.478 E8.79595
G1 X33.765 Y275.115 E8.82109
G1 X33.142 Y274.692 E8.84614
G1 X32.543 Y274.201 E8.8719
G1 X32.003 Y273.668 E8.89714
G1 X31.517 Y273.085 E8.92238
G1 X31.076 Y272.446 E8.94821
G1 X30.709 Y271.793 E8.97312
G1 X30.395 Y271.084 E8.99891
G1 X30.157 Y270.378 E9.02369
G1 X29.978 Y269.623 E9.0495
G1 X29.874 Y268.88 E9.07445
G1 X29.838 Y268.114 E9.09996
G1 X29.838 Y248.12 E9.76496
G1 X29.874 Y247.347 E9.7907
G1 X29.979 Y246.604 E9.81565
G1 X30.159 Y245.844 E9.84163
G1 X30.398 Y245.138 E9.86642
G1 X30.713 Y244.43 E9.8922
G1 X31.084 Y243.77 E9.91738
G1 X31.521 Y243.14 E9.94288
G1 X32.002 Y242.564 E9.96784
G1 X32.549 Y242.024 E9.9934
G1 X33.142 Y241.539 E10.01888
G1 X33.781 Y241.107 E10.04454
G1 X34.436 Y240.749 E10.06937
G1 X35.146 Y240.443 E10.09508
G1 X35.867 Y240.208 E10.1203
G1 X36.609 Y240.041 E10.1456
G1 X37.303 Y239.949 E10.16888
G1 X37.433 Y239.939 E10.17322
G1 X38.057 Y239.918 E10.19399
G1 X38.185 Y239.918 E10.19824
G1 X38.808 Y239.953 E10.219
G1 X38.939 Y239.967 E10.22338
G1 X39.545 Y240.057 E10.24376
G1 X39.688 Y240.083 E10.24859
G1 X40.276 Y240.23 E10.26875
G1 X40.416 Y240.269 E10.27358
G1 X40.994 Y240.47 E10.29394
G1 X41.113 Y240.514 E10.29816
G1 X41.805 Y240.832 E10.32349
G1 X42.454 Y241.207 E10.34842
G1 X59.42 Y252.053 E11.01816
G1 X60.01 Y252.474 E11.04227
G1 X60.552 Y252.949 E11.06624
G1 X61.04 Y253.472 E11.09003
G1 X61.478 Y254.048 E11.1141
G1 X61.855 Y254.661 E11.13803
G1 X62.167 Y255.309 E11.16195
G1 X62.415 Y255.989 E11.18603
G1 X62.595 Y256.689 E11.21007
G1 X62.702 Y257.401 E11.23401
G1 X62.737 Y258.121 E11.25799
G1 X62.701 Y258.842 E11.282
G1 X62.593 Y259.554 E11.30595
G1 X62.412 Y260.254 E11.33
G1 X62.162 Y260.933 E11.35407
G0 F6000 X61.758 Y260.761
G0 X61.435 Y260.622
;TYPE:SKIN
G1 F300 X61.155 Y261.2 E11.37543
G1 X60.816 Y261.751 E11.39694
G1 X60.444 Y262.239 E11.41735
G1 X59.983 Y262.731 E11.43978
G1 X59.515 Y263.14 E11.46045
G1 X58.967 Y263.53 E11.48282
G1 X42.043 Y274.349 E12.1509
G1 X41.45 Y274.693 E12.17371
G1 X40.801 Y274.989 E12.19743
G1 X40.14 Y275.218 E12.2207
G1 X39.498 Y275.379 E12.24271
G1 X38.797 Y275.483 E12.26628
G1 X38.111 Y275.525 E12.28914
G1 X37.412 Y275.498 E12.31241
G1 X36.74 Y275.41 E12.33495
G1 X36.074 Y275.26 E12.35766
G1 X35.416 Y275.045 E12.38068
G1 X34.777 Y274.769 E12.40383
G1 X34.176 Y274.44 E12.42662
G1 X33.619 Y274.061 E12.44903
G1 X33.065 Y273.607 E12.47285
G1 X32.588 Y273.136 E12.49515
G1 X32.15 Y272.61 E12.51791
G1 X31.748 Y272.029 E12.54141
G1 X31.418 Y271.442 E12.56381
G1 X31.132 Y270.797 E12.58728
G1 X30.916 Y270.157 E12.60974
G1 X30.752 Y269.465 E12.6334
G1 X30.663 Y268.821 E12.65502
G1 X30.628 Y268.095 E12.67919
G1 X30.628 Y248.157 E13.34233
G1 X30.663 Y247.41 E13.36721
G1 X30.754 Y246.76 E13.38904
G1 X30.921 Y246.055 E13.41313
G1 X31.131 Y245.433 E13.43497
G1 X31.419 Y244.786 E13.45852
G1 X31.759 Y244.182 E13.48158
G1 X32.143 Y243.628 E13.504
G1 X32.593 Y243.089 E13.52735
G1 X33.07 Y242.619 E13.54962
G1 X33.622 Y242.167 E13.57335
G1 X34.189 Y241.784 E13.59611
G1 X34.779 Y241.461 E13.61848
G1 X35.429 Y241.182 E13.64201
G1 X36.082 Y240.969 E13.66485
G1 X36.742 Y240.82 E13.68736
G1 X37.386 Y240.735 E13.70896
G1 X37.475 Y240.729 E13.71193
G1 X38.083 Y240.708 E13.73216
G1 X38.159 Y240.708 E13.73469
G1 X38.74 Y240.741 E13.75405
G1 X38.841 Y240.752 E13.75743
G1 X39.413 Y240.837 E13.77666
G1 X39.536 Y240.859 E13.78082
G1 X40.074 Y240.994 E13.79926
G1 X40.185 Y241.025 E13.8031
G1 X40.729 Y241.215 E13.82226
G1 X40.815 Y241.246 E13.8253
G1 X41.458 Y241.542 E13.84885
G1 X42.034 Y241.876 E13.87099
G1 X58.97 Y252.703 E14.53956
G1 X59.514 Y253.091 E14.56178
G1 X60.016 Y253.53 E14.58396
G1 X60.434 Y253.979 E14.60436
G1 X60.821 Y254.487 E14.6256
G1 X61.16 Y255.04 E14.64718
G1 X61.434 Y255.608 E14.66815
G1 X61.663 Y256.236 E14.69039
G1 X61.818 Y256.839 E14.71109
G1 X61.913 Y257.477 E14.73255
G1 X61.946 Y258.12 E14.75396
G1 X61.914 Y258.773 E14.77571
G1 X61.818 Y259.393 E14.79657
G1 X61.655 Y260.023 E14.81822
G1 X61.435 Y260.622 E14.83944
G1 F2700 E9.83944
G0 F6000 X61.687 Y260.744
G0 X61.312 Y261.289
G0 X62.568 Y262.063
G0 X50.958 Y259.44
G0 X52.39 Y259.696
G1 F2700 E14.83944
G0 F6000 X52.626 Y259.504
G1 F300 X52.711 Y258.568 E14.8707
G1 X52.712 Y257.834 E14.89511
G1 X52.709 Y257.616 E14.90237
G1 X52.622 Y256.687 E14.9334
G1 X52.494 Y255.968 E14.95769
G1 X52.452 Y255.755 E14.96491
G1 X52.258 Y255.055 E14.98907
G1 X52.199 Y254.85 E14.99617
G1 X51.944 Y254.167 E15.02041
G1 X51.863 Y253.965 E15.02765
G1 X51.458 Y253.127 E15.05861
G1 X51.083 Y252.498 E15.08297
G1 X50.969 Y252.313 E15.09019
G1 X50.419 Y251.558 E15.12126
G1 X49.797 Y250.849 E15.15263
G1 X49.115 Y250.201 E15.18392
G1 X48.38 Y249.617 E15.21514
G1 X47.591 Y249.099 E15.24654
G1 X46.761 Y248.653 E15.27788
G1 X45.895 Y248.286 E15.30916
G1 X45 Y247.998 E15.34043
G1 X44.083 Y247.79 E15.3717
G1 X43.358 Y247.693 E15.39603
G1 X43.145 Y247.667 E15.40317
G1 X42.21 Y247.625 E15.4343
G1 X41.478 Y247.657 E15.45867
G1 X41.264 Y247.671 E15.4658
G1 X40.546 Y247.766 E15.48989
G1 X40.331 Y247.797 E15.49712
G1 X39.623 Y247.959 E15.52127
G1 X39.415 Y248.009 E15.52839
G1 X38.723 Y248.233 E15.55258
G1 X38.519 Y248.302 E15.55974
G1 X37.655 Y248.673 E15.59102
G1 X37.015 Y249.019 E15.61521
G1 X36.827 Y249.123 E15.62236
G1 X36.223 Y249.522 E15.64644
G1 X36.044 Y249.643 E15.65362
G1 X35.475 Y250.095 E15.67779
G1 X35.308 Y250.232 E15.68498
G1 X34.784 Y250.733 E15.70909
G1 X34.629 Y250.886 E15.71633
G1 X34.014 Y251.59 E15.74742
G1 X33.46 Y252.358 E15.77892
G1 X32.98 Y253.164 E15.81012
G1 X32.576 Y254.013 E15.84139
G1 X32.245 Y254.892 E15.87263
G1 X31.996 Y255.803 E15.90404
G1 X31.831 Y256.729 E15.93533
G1 X31.748 Y257.663 E15.96652
G1 X31.747 Y258.397 E15.99093
G1 X31.75 Y258.613 E15.99811
G1 X31.815 Y259.335 E16.02223
G1 X31.838 Y259.552 E16.02948
G1 X32.006 Y260.469 E16.06049
G1 X32.259 Y261.382 E16.092
G1 X32.59 Y262.259 E16.12318
G1 X33.002 Y263.104 E16.15445
G1 X33.376 Y263.733 E16.17879
G1 X33.49 Y263.918 E16.18601
G1 X34.04 Y264.673 E16.21708
G1 X34.662 Y265.382 E16.24845
G1 X35.342 Y266.03 E16.27969
G1 X36.081 Y266.615 E16.31104
G1 X36.867 Y267.132 E16.34233
G1 X37.697 Y267.578 E16.37367
G1 X38.563 Y267.945 E16.40495
G1 X39.458 Y268.233 E16.43622
G1 X40.377 Y268.441 E16.46756
G1 X41.101 Y268.538 E16.49186
