;FLAVOR:Marlin
;TIME:5859
;Filament used: 2.69537m
;Layer height: 0.2
;MINX:57.201
;MINY:68.655
;MINZ:0.2
;MAXX:90.475
;MAXY:104.654
;MAXZ:35
;Generated with Cura_SteamEngine 4.12.1
M140 S65
M105
M190 S65
M104 S215
M105
M109 S215
M82 ;absolute extrusion mode
M201 X500.00 Y500.00 Z100.00 E5000.00 ;Setup machine max acceleration
M203 X500.00 Y500.00 Z10.00 E50.00 ;Setup machine max feedrate
M204 P500.00 R1000.00 T500.00 ;Setup Print/Retract/Travel acceleration
M205 X8.00 Y8.00 Z0.40 E5.00 ;Setup Jerk
M220 S100 ;Reset Feedrate
M221 S100 ;Reset Flowrate

G28 ;Home
G29 ;BL-touch
G92 E0 ;Reset Extruder
G1 Z2.0 F3000 ;Move Z Axis up
G1 X10.1 Y20 Z0.28 F5000.0 ;Move to start position
G1 X10.1 Y200.0 Z0.28 F1500.0 E15 ;Draw the first line
G1 X10.4 Y200.0 Z0.28 F5000.0 ;Move to side a little
G1 X10.4 Y20 Z0.28 F1500.0 E30 ;Draw the second line
G92 E0 ;Reset Extruder
G1 Z2.0 F3000 ;Move Z Axis up
G92 E0
G92 E0
G1 F2700 E-5
;LAYER_COUNT:175
;LAYER:0
M107
;MESH:electronics_platform.v13.tp4056.stl
G0 F6000 X70.74 Y84.001 Z0.2
;TYPE:WALL-INNER
G1 F2700 E0
G1 F300 X71.124 Y83.811 E0.01425
G1 X76.698 Y80.354 E0.2324
G1 X77.038 Y80.094 E0.24664
G1 X77.332 Y79.759 E0.26146
G1 X77.383 Y79.68 E0.26459
G1 X77.572 Y79.35 E0.27724
G1 X77.717 Y78.933 E0.29192
G1 X77.734 Y78.84 E0.29507
G1 X77.781 Y78.474 E0.30734
G1 X77.78 Y78.359 E0.31117
G1 X77.759 Y78.023 E0.32236
G1 X77.73 Y77.896 E0.3267
G1 X77.646 Y77.577 E0.33767
G1 X77.593 Y77.456 E0.34206
G1 X77.447 Y77.159 E0.35307
G1 X77.372 Y77.052 E0.35741
G1 X77.169 Y76.785 E0.36857
G1 X77.074 Y76.696 E0.3729
G1 X76.817 Y76.469 E0.3843
G1 X76.425 Y76.241 E0.39939
G1 X76.301 Y76.194 E0.4038
G1 X75.986 Y76.088 E0.41485
G1 X75.859 Y76.066 E0.41914
G1 X75.519 Y76.021 E0.43055
G1 X75.058 Y76.05 E0.44591
G1 X74.611 Y76.168 E0.46129
G1 X74.22 Y76.36 E0.47577
G1 X68.645 Y79.818 E0.69397
G1 X68.301 Y80.082 E0.7084
G1 X67.994 Y80.431 E0.72385
G1 X67.763 Y80.836 E0.73936
G1 X67.616 Y81.276 E0.75479
G1 X67.558 Y81.734 E0.77015
G1 X67.58 Y82.074 E0.78148
G1 X67.593 Y82.203 E0.78579
G1 X67.679 Y82.53 E0.79704
G1 X67.719 Y82.656 E0.80143
G1 X67.869 Y82.958 E0.81265
G1 X67.933 Y83.07 E0.81694
G1 X68.134 Y83.334 E0.82798
G1 X68.22 Y83.433 E0.83234
G1 X68.472 Y83.656 E0.84353
G1 X68.577 Y83.735 E0.8479
G1 X68.866 Y83.902 E0.859
G1 X68.985 Y83.959 E0.86339
G1 X69.313 Y84.07 E0.87491
G1 X69.4 Y84.095 E0.87792
G1 X69.839 Y84.151 E0.89264
G1 X70.294 Y84.121 E0.9078
G1 X70.74 Y84.001 E0.92317
G0 F6000 X70.598 Y83.625
;TYPE:WALL-OUTER
G1 F300 X70.929 Y83.461 E0.93545
G1 X76.47 Y80.025 E1.1523
G1 X76.763 Y79.8 E1.16459
G1 X77.012 Y79.517 E1.17713
G1 X77.041 Y79.472 E1.17891
G1 X77.206 Y79.184 E1.18995
G1 X77.329 Y78.83 E1.20241
G1 X77.339 Y78.777 E1.20421
G1 X77.381 Y78.451 E1.21514
G1 X77.38 Y78.374 E1.2177
G1 X77.362 Y78.08 E1.2275
G1 X77.342 Y77.992 E1.2305
G1 X77.267 Y77.709 E1.24024
G1 X77.23 Y77.624 E1.24332
G1 X77.101 Y77.362 E1.25303
G1 X77.049 Y77.287 E1.25607
G1 X76.871 Y77.054 E1.26582
G1 X76.805 Y76.992 E1.26883
G1 X76.582 Y76.795 E1.27873
G1 X76.252 Y76.603 E1.29143
G1 X76.166 Y76.57 E1.29449
G1 X75.889 Y76.477 E1.30421
G1 X75.8 Y76.462 E1.30721
G1 X75.505 Y76.423 E1.31711
G1 X75.122 Y76.447 E1.32987
G1 X74.751 Y76.545 E1.34263
G1 X74.414 Y76.71 E1.35511
G1 X68.873 Y80.147 E1.57198
G1 X68.576 Y80.375 E1.58444
G1 X68.321 Y80.665 E1.59728
G1 X68.13 Y81 E1.61011
G1 X68.008 Y81.365 E1.62291
G1 X67.96 Y81.746 E1.63568
G1 X67.979 Y82.041 E1.64551
G1 X67.988 Y82.132 E1.64855
G1 X68.063 Y82.418 E1.65839
G1 X68.091 Y82.505 E1.66143
G1 X68.222 Y82.77 E1.67126
G1 X68.267 Y82.849 E1.67428
G1 X68.444 Y83.081 E1.68399
G1 X68.505 Y83.151 E1.68708
G1 X68.725 Y83.346 E1.69685
G1 X68.798 Y83.401 E1.69989
G1 X69.053 Y83.548 E1.70968
G1 X69.136 Y83.588 E1.71275
G1 X69.432 Y83.688 E1.72314
G1 X69.481 Y83.702 E1.72484
G1 X69.851 Y83.749 E1.73724
G1 X70.228 Y83.724 E1.74981
G1 X70.598 Y83.625 E1.76255
G0 F6000 X70.753 Y84.036
G1 F2700 E-3.23745
G0 F6000 X71.217 Y83.978
G0 X70.51 Y82.705
G0 X75.498 Y85.852
G0 X74.096 Y85.452
G0 X74.268 Y87.468
G0 X74.377 Y88.106
G0 X74.567 Y88.722
G0 X74.833 Y89.309
G0 X75.174 Y89.859
G0 X75.581 Y90.36
G0 X76.051 Y90.805
G0 X76.571 Y91.186
G0 X77.137 Y91.497
G0 X77.738 Y91.735
G0 X78.365 Y91.892
G0 X79.005 Y91.968
G0 X80.966 Y91.856
;TYPE:WALL-INNER
G1 F2700 E1.76255
G1 F300 X81.583 Y91.599 E1.78478
G1 X82.159 Y91.267 E1.80689
G1 X82.689 Y90.863 E1.82905
G1 X83.164 Y90.394 E1.85126
G1 X83.575 Y89.869 E1.87343
G1 X83.914 Y89.296 E1.89558
G1 X84.177 Y88.684 E1.91773
G1 X84.362 Y88.044 E1.93989
G1 X84.461 Y87.383 E1.96212
G1 X84.475 Y86.718 E1.98424
G1 X84.406 Y86.055 E2.00641
G1 X84.251 Y85.406 E2.02861
G1 X84.014 Y84.783 E2.05078
G1 X83.7 Y84.195 E2.07295
G1 X83.313 Y83.653 E2.0951
G1 X82.861 Y83.165 E2.11722
G1 X82.349 Y82.737 E2.13942
G1 X81.787 Y82.378 E2.1616
G1 X81.183 Y82.095 E2.18378
G1 X80.549 Y81.892 E2.20592
G1 X79.894 Y81.771 E2.22808
G1 X79.228 Y81.735 E2.25026
G1 X78.564 Y81.783 E2.2724
G1 X77.91 Y81.917 E2.29461
G1 X77.28 Y82.134 E2.31677
G1 X76.683 Y82.429 E2.33892
G1 X76.128 Y82.797 E2.36107
G1 X75.624 Y83.234 E2.38325
G1 X75.181 Y83.733 E2.40545
G1 X74.805 Y84.283 E2.42761
G1 X74.503 Y84.877 E2.44977
G1 X74.279 Y85.505 E2.47194
G1 X74.137 Y86.156 E2.49411
G1 X74.079 Y86.82 E2.51628
G1 X74.107 Y87.485 E2.53841
G1 X74.22 Y88.143 E2.56062
G1 X74.416 Y88.779 E2.58275
G1 X74.691 Y89.386 E2.60492
G1 X75.042 Y89.952 E2.62707
G1 X75.463 Y90.469 E2.64924
G1 X75.947 Y90.929 E2.67145
G1 X76.485 Y91.322 E2.69361
G1 X77.069 Y91.643 E2.71578
G1 X77.688 Y91.888 E2.73792
G1 X78.335 Y92.05 E2.7601
G1 X78.996 Y92.129 E2.78224
G1 X79.664 Y92.123 E2.80446
G1 X80.323 Y92.031 E2.82659
G1 X80.966 Y91.856 E2.84876
G0 F6000 X80.836 Y91.477
;TYPE:WALL-OUTER
G1 F300 X81.405 Y91.24 E2.86926
G1 X81.937 Y90.933 E2.88969
G1 X82.426 Y90.56 E2.91014
G1 X82.865 Y90.127 E2.93065
G1 X83.244 Y89.643 E2.9511
G1 X83.557 Y89.114 E2.97154
G1 X83.8 Y88.549 E2.992
G1 X83.97 Y87.958 E3.01245
G1 X84.062 Y87.349 E3.03294
G1 X84.075 Y86.735 E3.05336
G1 X84.011 Y86.123 E3.07383
G1 X83.868 Y85.524 E3.09431
G1 X83.649 Y84.949 E3.11478
G1 X83.359 Y84.406 E3.13525
G1 X83.002 Y83.906 E3.15569
G1 X82.585 Y83.455 E3.17612
G1 X82.112 Y83.06 E3.19661
G1 X81.594 Y82.729 E3.21706
G1 X81.037 Y82.468 E3.23752
G1 X80.451 Y82.281 E3.25798
G1 X79.847 Y82.169 E3.27841
G1 X79.232 Y82.136 E3.29889
G1 X78.619 Y82.18 E3.31933
G1 X78.016 Y82.304 E3.33981
G1 X77.434 Y82.504 E3.36028
G1 X76.883 Y82.776 E3.38071
G1 X76.371 Y83.116 E3.40116
G1 X75.906 Y83.519 E3.42162
G1 X75.497 Y83.98 E3.44212
G1 X75.15 Y84.487 E3.46255
G1 X74.871 Y85.036 E3.48304
G1 X74.664 Y85.615 E3.50349
G1 X74.533 Y86.216 E3.52395
G1 X74.48 Y86.829 E3.54441
G1 X74.506 Y87.443 E3.56485
G1 X74.61 Y88.05 E3.58533
G1 X74.791 Y88.637 E3.60577
G1 X75.045 Y89.197 E3.62622
G1 X75.369 Y89.72 E3.64668
G1 X75.757 Y90.197 E3.66713
G1 X76.204 Y90.621 E3.68762
G1 X76.7 Y90.984 E3.70807
G1 X77.239 Y91.28 E3.72852
G1 X77.811 Y91.506 E3.74897
G1 X78.408 Y91.656 E3.76945
G1 X79.018 Y91.729 E3.78988
G1 X79.634 Y91.723 E3.81037
G1 X80.243 Y91.638 E3.83082
G1 X80.836 Y91.477 E3.85126
G0 F6000 X80.978 Y91.893
G1 F2700 E-1.14874
G0 F6000 X80.557 Y90.657
G0 X86.907 Y104.192
G0 X86.082 Y102.97
G0 X84.924 Y103.766
;TYPE:WALL-INNER
G1 F2700 E3.85126
G1 F300 X84.261 Y103.982 E3.87445
G1 X83.571 Y104.137 E3.89797
G1 X82.869 Y104.228 E3.92152
G1 X82.152 Y104.254 E3.94538
G1 X81.454 Y104.214 E3.96863
G1 X80.758 Y104.108 E3.99205
G1 X80.072 Y103.936 E4.01557
G1 X79.397 Y103.701 E4.03934
G1 X78.763 Y103.409 E4.06256
G1 X78.137 Y103.048 E4.0866
G1 X61.186 Y92.212 E4.75574
G1 X60.648 Y91.829 E4.77771
G1 X60.144 Y91.386 E4.80002
G1 X59.707 Y90.916 E4.82137
G1 X59.302 Y90.384 E4.84361
G1 X58.96 Y89.83 E4.86526
G1 X58.676 Y89.243 E4.88695
G1 X58.441 Y88.603 E4.90963
G1 X58.279 Y87.972 E4.93129
G1 X58.18 Y87.328 E4.95297
G1 X58.147 Y86.649 E4.97558
G1 X58.18 Y85.98 E4.99785
G1 X58.278 Y85.339 E5.01942
G1 X58.442 Y84.703 E5.04127
G1 X58.674 Y84.07 E5.06369
G1 X58.963 Y83.474 E5.08572
G1 X59.312 Y82.908 E5.10784
G1 X59.638 Y82.481 E5.1257
G1 X59.707 Y82.393 E5.12942
G1 X60.157 Y81.911 E5.15136
G1 X60.657 Y81.475 E5.17342
G1 X61.207 Y81.083 E5.19588
G1 X78.147 Y70.255 E5.86458
G1 X78.747 Y69.908 E5.88763
G1 X78.856 Y69.856 E5.89165
G1 X79.381 Y69.616 E5.91085
G1 X79.492 Y69.574 E5.9148
G1 X80.056 Y69.378 E5.93465
G1 X80.136 Y69.355 E5.93742
G1 X80.714 Y69.212 E5.95723
G1 X80.806 Y69.194 E5.96034
G1 X81.464 Y69.096 E5.98247
G1 X82.164 Y69.056 E6.00579
G1 X82.88 Y69.083 E6.02962
G1 X83.581 Y69.174 E6.05313
G1 X84.268 Y69.329 E6.07656
G1 X84.927 Y69.544 E6.09961
G1 X85.593 Y69.833 E6.12376
G1 X86.202 Y70.166 E6.14685
G1 X86.796 Y70.568 E6.1707
G1 X87.331 Y71.008 E6.19374
G1 X87.849 Y71.522 E6.21801
G1 X88.287 Y72.047 E6.24075
G1 X88.692 Y72.631 E6.26439
G1 X89.043 Y73.261 E6.28838
G1 X89.325 Y73.894 E6.31143
G1 X89.552 Y74.569 E6.33511
G1 X89.717 Y75.263 E6.35884
G1 X89.811 Y75.939 E6.38154
G1 X89.845 Y76.713 E6.40731
G1 X89.845 Y96.633 E7.06985
G1 X89.81 Y97.377 E7.09462
G1 X89.715 Y98.056 E7.11742
G1 X89.546 Y98.762 E7.14157
G1 X89.325 Y99.417 E7.16456
G1 X89.031 Y100.076 E7.18856
G1 X88.692 Y100.68 E7.2116
G1 X88.285 Y101.268 E7.23538
G1 X87.831 Y101.806 E7.2588
G1 X87.335 Y102.297 E7.28201
G1 X86.777 Y102.754 E7.306
G1 X86.194 Y103.148 E7.3294
G1 X85.586 Y103.48 E7.35244
G1 X84.924 Y103.766 E7.37643
G0 F6000 X85.068 Y104.14
;TYPE:WALL-OUTER
G1 F300 X84.366 Y104.368 E7.40098
G1 X83.636 Y104.532 E7.42586
G1 X82.902 Y104.627 E7.45048
G1 X82.154 Y104.654 E7.47537
G1 X81.414 Y104.612 E7.50003
G1 X80.675 Y104.499 E7.52489
G1 X79.956 Y104.319 E7.54954
G1 X79.252 Y104.074 E7.57434
G1 X78.57 Y103.76 E7.59931
G1 X77.937 Y103.395 E7.62361
G1 X60.956 Y92.539 E8.29396
G1 X60.403 Y92.146 E8.31652
G1 X59.859 Y91.667 E8.34063
G1 X59.402 Y91.176 E8.36294
G1 X58.975 Y90.616 E8.38636
G1 X58.608 Y90.021 E8.40961
G1 X58.304 Y89.393 E8.43282
G1 X58.062 Y88.732 E8.45623
G1 X57.887 Y88.05 E8.47965
G1 X57.781 Y87.36 E8.50287
G1 X57.746 Y86.649 E8.52654
G1 X57.781 Y85.949 E8.54985
G1 X57.886 Y85.257 E8.57313
G1 X58.062 Y84.576 E8.59653
G1 X58.304 Y83.916 E8.61991
G1 X58.609 Y83.287 E8.64316
G1 X58.982 Y82.682 E8.6668
G1 X59.323 Y82.234 E8.68552
G1 X59.399 Y82.137 E8.68962
G1 X59.884 Y81.618 E8.71325
G1 X60.406 Y81.163 E8.73628
G1 X60.975 Y80.757 E8.75953
G1 X77.937 Y69.915 E9.42909
G1 X78.568 Y69.55 E9.45334
G1 X78.683 Y69.495 E9.45758
G1 X79.231 Y69.245 E9.47761
G1 X79.349 Y69.2 E9.48181
G1 X79.925 Y69 E9.50209
G1 X80.04 Y68.967 E9.50607
G1 X80.627 Y68.822 E9.52618
G1 X80.747 Y68.798 E9.53025
G1 X81.415 Y68.699 E9.55271
G1 X82.167 Y68.655 E9.57776
G1 X82.914 Y68.684 E9.60263
G1 X83.645 Y68.779 E9.62715
G1 X84.373 Y68.943 E9.65197
G1 X85.071 Y69.171 E9.67639
G1 X85.77 Y69.474 E9.70173
G1 X86.407 Y69.822 E9.72587
G1 X87.039 Y70.25 E9.75126
G1 X87.601 Y70.713 E9.77548
G1 X88.14 Y71.247 E9.80071
G1 X88.609 Y71.809 E9.82506
G1 X89.029 Y72.415 E9.84958
G1 X89.401 Y73.081 E9.87495
G1 X89.698 Y73.748 E9.89924
G1 X89.937 Y74.459 E9.92419
G1 X90.11 Y75.19 E9.94917
G1 X90.21 Y75.909 E9.97331
G1 X90.245 Y76.695 E9.99948
G1 X90.245 Y96.652 E10.66326
G1 X90.209 Y97.407 E10.6884
G1 X90.108 Y98.132 E10.71274
G1 X89.931 Y98.873 E10.73808
G1 X89.699 Y99.56 E10.7622
G1 X89.388 Y100.256 E10.78755
G1 X89.029 Y100.897 E10.81199
G1 X88.607 Y101.505 E10.83661
G1 X88.126 Y102.077 E10.86146
G1 X87.598 Y102.599 E10.88616
G1 X87.02 Y103.072 E10.911
G1 X86.399 Y103.492 E10.93593
G1 X85.763 Y103.839 E10.96003
G1 X85.068 Y104.14 E10.98522
G0 F6000 X84.913 Y103.729
G0 X84.79 Y103.399
;TYPE:SKIN
G1 F300 X84.151 Y103.607 E11.00757
G1 X83.499 Y103.753 E11.02979
G1 X82.848 Y103.838 E11.05163
G1 X82.16 Y103.864 E11.07453
G1 X81.493 Y103.825 E11.09675
G1 X80.828 Y103.723 E11.11913
G1 X80.182 Y103.561 E11.14128
G1 X79.554 Y103.343 E11.16339
G1 X78.927 Y103.054 E11.18635
G1 X78.348 Y102.719 E11.2086
G1 X61.404 Y91.888 E11.87746
G1 X60.887 Y91.521 E11.89855
G1 X60.412 Y91.103 E11.91959
G1 X60.008 Y90.668 E11.93934
G1 X59.627 Y90.168 E11.96025
G1 X59.302 Y89.641 E11.98084
G1 X59.033 Y89.085 E12.00138
G1 X58.816 Y88.491 E12.02242
G1 X58.662 Y87.896 E12.04286
G1 X58.57 Y87.289 E12.06328
G1 X58.537 Y86.648 E12.08463
G1 X58.568 Y86.019 E12.10557
G1 X58.661 Y85.418 E12.1258
G1 X58.818 Y84.81 E12.14668
G1 X59.031 Y84.228 E12.1673
G1 X59.305 Y83.663 E12.18818
G1 X59.64 Y83.12 E12.2094
G1 X60.001 Y82.65 E12.22911
G1 X60.428 Y82.191 E12.24997
G1 X60.897 Y81.783 E12.27064
G1 X61.425 Y81.407 E12.2922
G1 X78.357 Y70.584 E12.96058
G1 X78.92 Y70.258 E12.98222
G1 X79.531 Y69.977 E13.00459
G1 X79.625 Y69.94 E13.00795
G1 X80.175 Y69.749 E13.02731
G1 X80.23 Y69.733 E13.02922
G1 X80.798 Y69.593 E13.04867
G1 X80.871 Y69.579 E13.05115
G1 X81.499 Y69.486 E13.07226
G1 X82.171 Y69.446 E13.09465
G1 X82.857 Y69.473 E13.11749
G1 X83.51 Y69.558 E13.13939
G1 X84.158 Y69.704 E13.16148
G1 X84.798 Y69.913 E13.18387
G1 X85.415 Y70.18 E13.20623
G1 X85.999 Y70.499 E13.22837
G1 X86.563 Y70.881 E13.25102
G1 X87.067 Y71.296 E13.27274
G1 X87.559 Y71.784 E13.29579
G1 X87.987 Y72.297 E13.31801
G1 X88.354 Y72.827 E13.33945
G1 X88.694 Y73.435 E13.36262
G1 X88.96 Y74.034 E13.38442
G1 X89.177 Y74.677 E13.40699
G1 X89.336 Y75.348 E13.42992
G1 X89.421 Y75.964 E13.45061
G1 X89.455 Y76.713 E13.47554
G1 X89.455 Y96.615 E14.13749
G1 X89.42 Y97.348 E14.16189
G1 X89.335 Y97.965 E14.18261
G1 X89.17 Y98.656 E14.20624
G1 X88.959 Y99.282 E14.22821
G1 X88.684 Y99.897 E14.25062
G1 X88.359 Y100.478 E14.27276
G1 X87.981 Y101.024 E14.29485
G1 X87.545 Y101.54 E14.31731
G1 X87.072 Y102.008 E14.33945
G1 X86.54 Y102.444 E14.36232
G1 X86.001 Y102.808 E14.38396
G1 X85.406 Y103.134 E14.40652
G1 X84.79 Y103.399 E14.42882
G1 F2700 E9.42882
G0 F6000 X84.899 Y103.656
G0 X86.082 Y102.97
G0 X86.907 Y104.192
G0 X80.9 Y90.514
G0 X81.468 Y91.874
G0 X81.003 Y91.96
G1 F2700 E14.42882
G0 F6000 X81.093 Y92.226
G1 F300 X81.756 Y91.95 E14.45271
G1 X82.376 Y91.592 E14.47652
G1 X82.945 Y91.158 E14.50032
G1 X83.456 Y90.654 E14.5242
G1 X83.898 Y90.089 E14.54806
G1 X84.263 Y89.473 E14.57187
G1 X84.545 Y88.816 E14.59565
G1 X84.744 Y88.128 E14.61947
G1 X84.851 Y87.416 E14.64342
G1 X84.865 Y86.702 E14.66717
G1 X84.792 Y85.989 E14.69101
G1 X84.625 Y85.291 E14.71488
G1 X84.369 Y84.621 E14.73874
G1 X84.032 Y83.989 E14.76256
G1 X83.616 Y83.406 E14.78638
G1 X83.13 Y82.882 E14.81015
G1 X82.58 Y82.421 E14.83402
G1 X81.976 Y82.035 E14.85786
G1 X81.325 Y81.731 E14.88176
G1 X80.644 Y81.513 E14.90554
G1 X79.94 Y81.383 E14.92935
G1 X79.224 Y81.345 E14.9532
G1 X78.511 Y81.395 E14.97697
G1 X77.807 Y81.54 E15.00088
G1 X77.13 Y81.773 E15.02469
G1 X76.488 Y82.09 E15.0485
G1 X75.892 Y82.485 E15.07229
G1 X75.349 Y82.956 E15.09619
G1 X74.873 Y83.493 E15.12006
G1 X74.469 Y84.084 E15.14387
G1 X74.144 Y84.723 E15.16772
G1 X73.903 Y85.398 E15.19155
G1 X73.751 Y86.097 E15.21535
G1 X73.689 Y86.811 E15.23918
G1 X73.719 Y87.526 E15.26298
G1 X73.84 Y88.234 E15.28687
G1 X74.051 Y88.917 E15.31065
G1 X74.346 Y89.57 E15.33448
G1 X74.724 Y90.179 E15.35832
G1 X75.176 Y90.734 E15.38213
G1 X75.697 Y91.229 E15.40603
G1 X76.275 Y91.652 E15.42985
G1 X76.903 Y91.996 E15.45367
G1 X77.569 Y92.26 E15.4775
G1 X78.265 Y92.434 E15.50136
G1 X78.975 Y92.519 E15.52514
G1 X79.693 Y92.513 E15.54902
G1 X80.401 Y92.414 E15.5728
G1 X81.093 Y92.226 E15.59665
G1 F2700 E10.59665
G0 F6000 X81.003 Y91.96
G0 X79.005 Y91.968
G0 X78.365 Y91.892
G0 X77.738 Y91.735
G0 X77.137 Y91.497
G0 X76.571 Y91.186
G0 X76.051 Y90.805
G0 X75.581 Y90.36
G0 X75.174 Y89.859
G0 X74.833 Y89.309
G0 X74.567 Y88.722
G0 X74.377 Y88.106
G0 X74.096 Y85.452
G0 X72.646 Y83.114
G0 X71.178 Y83.907
G1 F2700 E15.59665
G0 F6000 X71.313 Y84.152
G1 F300 X76.92 Y80.676 E15.81607
G1 X77.305 Y80.38 E15.83222
G1 X77.644 Y79.995 E15.84929
G1 X77.716 Y79.883 E15.85371
G1 X77.929 Y79.512 E15.86794
G1 X78.095 Y79.033 E15.8848
G1 X78.12 Y78.9 E15.8893
G1 X78.171 Y78.497 E15.90282
G1 X78.17 Y78.345 E15.90787
G1 X78.147 Y77.966 E15.9205
G1 X78.108 Y77.802 E15.92611
G1 X78.015 Y77.448 E15.93828
G1 X77.946 Y77.292 E15.94395
G1 X77.784 Y76.96 E15.95624
G1 X77.687 Y76.822 E15.96185
G1 X77.46 Y76.523 E15.97434
G1 X77.337 Y76.408 E15.97994
