;FLAVOR:Marlin
;TIME:4987
;Filament used: 2.46087m
;Layer height: 0.2
;MINX:20.633
;MINY:252.09
;MINZ:0.2
;MAXX:53.622
;MAXY:288.665
;MAXZ:35
;Generated with Cura_SteamEngine 4.12.1
M140 S65
M105
M190 S65
M104 S215
M105
M109 S215
M82 ;absolute extrusion mode
M201 X500.00 Y500.00 Z100.00 E5000.00 ;Setup machine max acceleration
M203 X500.00 Y500.00 Z10.00 E50.00 ;Setup machine max feedrate
M204 P500.00 R1000.00 T500.00 ;Setup Print/Retract/Travel acceleration
M205 X8.00 Y8.00 Z0.40 E5.00 ;Setup Jerk
M220 S100 ;Reset Feedrate
M221 S100 ;Reset Flowrate

G28 ;Home

G92 E0 ;Reset Extruder
G1 Z2.0 F3000 ;Move Z Axis up
G1 X10.1 Y20 Z0.28 F5000.0 ;Move to start position
G1 X10.1 Y200.0 Z0.28 F1500.0 E15 ;Draw the first line
G1 X10.4 Y200.0 Z0.28 F5000.0 ;Move to side a little
G1 X10.4 Y20 Z0.28 F1500.0 E30 ;Draw the second line
G92 E0 ;Reset Extruder
G1 Z2.0 F3000 ;Move Z Axis up

G92 E0
G92 E0
G1 F2700 E-5
;LAYER_COUNT:175
;LAYER:0
M107
;MESH:electronics_platform.v7.stl
G0 F6000 X42.778 Y273.566 Z0.2
;TYPE:WALL-INNER
G1 F2700 E0
G1 F300 X42.808 Y273.458 E0.00373
G1 X42.995 Y272.701 E0.02966
G1 X43.016 Y272.593 E0.03332
G1 X43.138 Y271.816 E0.05948
G1 X43.148 Y271.705 E0.06319
G1 X43.2 Y270.931 E0.08899
G1 X43.202 Y270.819 E0.09272
G1 X43.185 Y270.031 E0.11893
G1 X43.175 Y269.922 E0.12257
G1 X43.089 Y269.144 E0.14861
G1 X43.07 Y269.034 E0.15232
G1 X42.915 Y268.262 E0.17851
G1 X42.664 Y267.404 E0.20824
G1 X42.341 Y266.578 E0.23774
G1 X42.293 Y266.476 E0.24149
G1 X41.943 Y265.781 E0.26737
G1 X41.889 Y265.684 E0.27106
G1 X41.476 Y265.016 E0.29718
G1 X41.413 Y264.926 E0.30084
G1 X40.945 Y264.3 E0.32683
G1 X40.874 Y264.215 E0.33052
G1 X40.35 Y263.629 E0.35666
G1 X40.271 Y263.552 E0.36033
G1 X39.701 Y263.017 E0.38633
G1 X39.615 Y262.945 E0.39006
G1 X39.002 Y262.468 E0.4159
G1 X38.912 Y262.403 E0.41959
G1 X38.251 Y261.974 E0.4458
G1 X38.153 Y261.92 E0.44952
G1 X37.461 Y261.553 E0.47557
G1 X37.36 Y261.508 E0.47925
G1 X36.642 Y261.206 E0.50516
G1 X36.537 Y261.168 E0.50887
G1 X35.793 Y260.931 E0.53484
G1 X35.686 Y260.902 E0.53853
G1 X34.921 Y260.732 E0.5646
G1 X34.813 Y260.713 E0.56824
G1 X34.039 Y260.609 E0.59422
G1 X33.928 Y260.6 E0.59792
G1 X33.146 Y260.566 E0.62396
G1 X33.035 Y260.566 E0.62765
G1 X32.248 Y260.6 E0.65385
G1 X32.137 Y260.612 E0.65756
G1 X31.365 Y260.717 E0.68347
G1 X31.256 Y260.737 E0.68716
G1 X30.488 Y260.909 E0.71334
G1 X30.381 Y260.941 E0.71705
G1 X29.633 Y261.179 E0.74316
G1 X28.813 Y261.522 E0.77272
G1 X28.714 Y261.571 E0.7764
G1 X28.021 Y261.936 E0.80245
G1 X27.926 Y261.995 E0.80617
G1 X27.268 Y262.421 E0.83224
G1 X27.179 Y262.487 E0.83592
G1 X26.565 Y262.967 E0.86184
G1 X26.482 Y263.041 E0.86554
G1 X25.912 Y263.575 E0.89152
G1 X25.834 Y263.655 E0.89524
G1 X25.313 Y264.239 E0.92127
G1 X25.244 Y264.325 E0.92493
G1 X24.775 Y264.952 E0.95098
G1 X24.713 Y265.045 E0.9547
G1 X24.304 Y265.71 E0.98066
G1 X24.251 Y265.807 E0.98434
G1 X23.901 Y266.506 E1.01034
G1 X23.856 Y266.607 E1.01402
G1 X23.567 Y267.34 E1.04022
G1 X23.533 Y267.445 E1.04389
G1 X23.313 Y268.192 E1.06979
G1 X23.286 Y268.3 E1.0735
G1 X23.132 Y269.07 E1.09961
G1 X23.116 Y269.18 E1.10331
G1 X23.03 Y269.954 E1.12921
G1 X23.023 Y270.066 E1.13295
G1 X23.005 Y270.852 E1.15909
G1 X23.01 Y270.964 E1.16282
G1 X23.062 Y271.744 E1.18882
G1 X23.076 Y271.854 E1.19251
G1 X23.196 Y272.626 E1.2185
G1 X23.219 Y272.734 E1.22217
G1 X23.408 Y273.494 E1.24822
G1 X23.441 Y273.6 E1.25191
G1 X23.697 Y274.346 E1.27814
G1 X24.057 Y275.156 E1.30762
G1 X24.109 Y275.255 E1.31134
G1 X24.489 Y275.938 E1.33734
G1 X24.549 Y276.032 E1.34105
G1 X24.989 Y276.678 E1.36704
G1 X25.056 Y276.766 E1.37072
G1 X25.552 Y277.372 E1.39677
G1 X25.627 Y277.454 E1.40047
G1 X26.176 Y278.015 E1.42657
G1 X26.259 Y278.09 E1.43029
G1 X26.854 Y278.599 E1.45634
G1 X26.943 Y278.665 E1.46002
G1 X27.577 Y279.118 E1.48594
G1 X27.671 Y279.178 E1.48965
G1 X28.348 Y279.575 E1.51575
G1 X28.447 Y279.625 E1.51944
G1 X29.15 Y279.959 E1.54533
G1 X29.255 Y280.002 E1.5491
G1 X29.987 Y280.271 E1.57504
G1 X30.092 Y280.304 E1.5787
G1 X30.853 Y280.512 E1.60494
G1 X31.73 Y280.671 E1.63458
G1 X31.839 Y280.684 E1.63823
G1 X32.619 Y280.753 E1.66428
G1 X32.729 Y280.757 E1.66794
G1 X33.52 Y280.758 E1.69425
G1 X34.408 Y280.682 E1.72389
G1 X35.284 Y280.528 E1.75347
G1 X35.393 Y280.501 E1.75721
G1 X36.145 Y280.296 E1.78313
G1 X36.25 Y280.262 E1.7868
G1 X36.986 Y279.99 E1.8129
G1 X37.089 Y279.945 E1.81664
G1 X37.794 Y279.61 E1.8426
G1 X37.892 Y279.557 E1.84631
G1 X38.565 Y279.161 E1.87228
G1 X38.658 Y279.099 E1.876
G1 X39.295 Y278.645 E1.90201
G1 X39.382 Y278.576 E1.90571
G1 X39.978 Y278.066 E1.9318
G1 X40.057 Y277.989 E1.93546
G1 X40.604 Y277.431 E1.96145
G1 X40.678 Y277.346 E1.9652
G1 X41.171 Y276.742 E1.99113
G1 X41.237 Y276.653 E1.99482
G1 X41.677 Y276.005 E2.02087
G1 X41.735 Y275.909 E2.0246
G1 X42.114 Y275.226 E2.05058
G1 X42.163 Y275.127 E2.05425
G1 X42.482 Y274.414 E2.08023
G1 X42.523 Y274.31 E2.08395
G1 X42.778 Y273.566 E2.11011
G0 F6000 X42.396 Y273.448
;TYPE:WALL-OUTER
G1 F300 X42.421 Y273.357 E2.11325
G1 X42.604 Y272.615 E2.13867
G1 X42.622 Y272.523 E2.14179
G1 X42.741 Y271.768 E2.16721
G1 X42.749 Y271.675 E2.17031
G1 X42.8 Y270.913 E2.19571
G1 X42.802 Y270.819 E2.19884
G1 X42.785 Y270.053 E2.22432
G1 X42.777 Y269.961 E2.2274
G1 X42.693 Y269.2 E2.25286
G1 X42.677 Y269.108 E2.25597
G1 X42.526 Y268.358 E2.28141
G1 X42.285 Y267.533 E2.31
G1 X41.973 Y266.736 E2.33847
G1 X41.933 Y266.651 E2.34159
G1 X41.59 Y265.969 E2.36698
G1 X41.544 Y265.887 E2.37011
G1 X41.142 Y265.236 E2.39556
G1 X41.089 Y265.16 E2.39864
G1 X40.631 Y264.548 E2.42406
G1 X40.571 Y264.476 E2.42718
G1 X40.06 Y263.905 E2.45266
G1 X39.994 Y263.84 E2.45575
G1 X39.436 Y263.317 E2.48118
G1 X39.364 Y263.257 E2.4843
G1 X38.762 Y262.788 E2.50968
G1 X38.686 Y262.733 E2.5128
G1 X38.044 Y262.317 E2.53825
G1 X37.962 Y262.271 E2.54137
G1 X37.286 Y261.913 E2.56682
G1 X37.201 Y261.875 E2.56991
G1 X36.497 Y261.579 E2.59531
G1 X36.408 Y261.547 E2.59846
G1 X35.681 Y261.315 E2.62384
G1 X35.591 Y261.291 E2.62694
G1 X34.843 Y261.124 E2.65243
G1 X34.752 Y261.108 E2.6555
G1 X33.995 Y261.007 E2.6809
G1 X33.902 Y260.999 E2.68401
G1 X33.137 Y260.966 E2.70948
G1 X33.044 Y260.966 E2.71257
G1 X32.278 Y260.999 E2.73807
G1 X32.185 Y261.009 E2.74118
G1 X31.428 Y261.112 E2.76659
G1 X31.336 Y261.129 E2.7697
G1 X30.589 Y261.296 E2.79516
G1 X30.499 Y261.323 E2.79829
G1 X29.771 Y261.555 E2.8237
G1 X28.979 Y261.886 E2.85225
G1 X28.896 Y261.927 E2.85533
G1 X28.219 Y262.284 E2.88078
G1 X28.139 Y262.333 E2.8839
G1 X27.497 Y262.749 E2.90935
G1 X27.422 Y262.805 E2.91246
G1 X26.821 Y263.275 E2.93784
G1 X26.751 Y263.337 E2.94095
G1 X26.193 Y263.859 E2.96636
G1 X26.128 Y263.927 E2.96949
G1 X25.618 Y264.498 E2.99495
G1 X25.56 Y264.57 E2.99803
G1 X25.102 Y265.183 E3.02348
G1 X25.05 Y265.261 E3.0266
G1 X24.65 Y265.911 E3.05198
G1 X24.605 Y265.993 E3.05509
G1 X24.263 Y266.677 E3.08053
G1 X24.225 Y266.762 E3.08363
G1 X23.944 Y267.475 E3.10912
G1 X23.915 Y267.564 E3.11223
G1 X23.699 Y268.296 E3.13761
G1 X23.677 Y268.387 E3.14073
G1 X23.526 Y269.137 E3.16617
G1 X23.513 Y269.23 E3.1693
G1 X23.429 Y269.989 E3.19469
G1 X23.423 Y270.083 E3.19783
G1 X23.405 Y270.848 E3.22328
G1 X23.409 Y270.942 E3.22641
G1 X23.46 Y271.705 E3.25184
G1 X23.472 Y271.797 E3.25493
G1 X23.589 Y272.552 E3.28034
G1 X23.609 Y272.643 E3.28344
G1 X23.793 Y273.386 E3.3089
G1 X23.821 Y273.475 E3.312
G1 X24.07 Y274.2 E3.3375
G1 X24.418 Y274.983 E3.36599
G1 X24.461 Y275.066 E3.3691
G1 X24.833 Y275.733 E3.39451
G1 X24.883 Y275.812 E3.39761
G1 X25.314 Y276.444 E3.42306
G1 X25.37 Y276.518 E3.42614
G1 X25.855 Y277.11 E3.4516
G1 X25.918 Y277.179 E3.45471
G1 X26.453 Y277.726 E3.48015
G1 X26.523 Y277.789 E3.48329
G1 X27.104 Y278.286 E3.50872
G1 X27.179 Y278.342 E3.51183
G1 X27.8 Y278.786 E3.53722
G1 X27.879 Y278.836 E3.54033
G1 X28.54 Y279.224 E3.56582
G1 X28.623 Y279.266 E3.56892
G1 X29.312 Y279.593 E3.59428
G1 X29.4 Y279.629 E3.59745
G1 X30.117 Y279.892 E3.62285
G1 X30.205 Y279.92 E3.62592
G1 X30.945 Y280.122 E3.65143
G1 X31.036 Y280.14 E3.65452
G1 X31.789 Y280.275 E3.67996
G1 X31.881 Y280.286 E3.68304
G1 X32.643 Y280.354 E3.70849
G1 X32.736 Y280.357 E3.71158
G1 X33.503 Y280.358 E3.73709
G1 X34.356 Y280.285 E3.76557
G1 X35.202 Y280.136 E3.79414
G1 X35.293 Y280.114 E3.79725
G1 X36.03 Y279.913 E3.82266
G1 X36.119 Y279.884 E3.82577
G1 X36.836 Y279.619 E3.8512
G1 X36.922 Y279.581 E3.85432
G1 X37.612 Y279.254 E3.87972
G1 X37.694 Y279.209 E3.88283
G1 X38.353 Y278.822 E3.90825
G1 X38.431 Y278.77 E3.91137
G1 X39.054 Y278.325 E3.93683
G1 X39.127 Y278.267 E3.93993
G1 X39.708 Y277.77 E3.96536
G1 X39.775 Y277.705 E3.96847
G1 X40.31 Y277.159 E3.99389
G1 X40.372 Y277.088 E3.99703
G1 X40.855 Y276.497 E4.02241
G1 X40.91 Y276.422 E4.02551
G1 X41.34 Y275.789 E4.05096
G1 X41.389 Y275.708 E4.05411
G1 X41.76 Y275.04 E4.07952
G1 X41.801 Y274.957 E4.0826
G1 X42.113 Y274.259 E4.10803
G1 X42.147 Y274.172 E4.11114
G1 X42.396 Y273.448 E4.1366
G0 F6000 X42.816 Y273.577
G1 F2700 E-0.8634
G0 F6000 X43.181 Y272.742
G0 X41.759 Y272.429
G0 X53.62 Y273.807
G0 X52.292 Y273.164
G0 X52.716 Y272.617
;TYPE:WALL-INNER
G1 F2700 E4.1366
G1 F300 X52.484 Y273.25 E4.15903
G1 X52.198 Y273.839 E4.1808
G1 X51.853 Y274.4 E4.20271
G1 X51.446 Y274.932 E4.22499
G1 X50.996 Y275.413 E4.24689
G1 X50.511 Y275.837 E4.26832
G1 X49.945 Y276.24 E4.29143
G1 X33.017 Y287.061 E4.95966
G1 X32.389 Y287.422 E4.98376
G1 X31.747 Y287.715 E5.00723
G1 X31.073 Y287.95 E5.03097
G1 X30.4 Y288.117 E5.05403
G1 X29.686 Y288.223 E5.07804
G1 X28.992 Y288.264 E5.10116
G1 X28.277 Y288.237 E5.12496
G1 X27.58 Y288.146 E5.14834
G1 X26.888 Y287.989 E5.17194
G1 X26.23 Y287.775 E5.19495
G1 X25.565 Y287.487 E5.21906
G1 X24.954 Y287.152 E5.24223
G1 X24.37 Y286.757 E5.26568
G1 X23.82 Y286.305 E5.28936
G1 X23.308 Y285.798 E5.31333
G1 X22.87 Y285.274 E5.33604
G1 X22.465 Y284.686 E5.35979
G1 X22.12 Y284.068 E5.38333
G1 X21.831 Y283.419 E5.40696
G1 X21.605 Y282.748 E5.43051
G1 X21.441 Y282.057 E5.45413
G1 X21.347 Y281.381 E5.47683
G1 X21.313 Y280.607 E5.5026
G1 X21.313 Y260.687 E6.16514
G1 X21.348 Y259.943 E6.18991
G1 X21.442 Y259.267 E6.21261
G1 X21.611 Y258.559 E6.23682
G1 X21.834 Y257.901 E6.25993
G1 X22.123 Y257.252 E6.28356
G1 X22.469 Y256.635 E6.30709
G1 X22.875 Y256.05 E6.33077
G1 X23.332 Y255.507 E6.35438
G1 X23.826 Y255.018 E6.37749
G1 X24.38 Y254.566 E6.40128
G1 X24.972 Y254.168 E6.425
G1 X25.579 Y253.836 E6.44801
G1 X26.24 Y253.552 E6.47194
G1 X26.918 Y253.333 E6.49564
G1 X27.597 Y253.18 E6.51879
G1 X28.286 Y253.092 E6.54189
G1 X29 Y253.066 E6.56565
G1 X29.697 Y253.106 E6.58887
G1 X30.404 Y253.213 E6.61266
G1 X31.054 Y253.373 E6.63492
G1 X31.765 Y253.621 E6.65997
G1 X32.41 Y253.918 E6.68358
G1 X33.011 Y254.265 E6.70667
G1 X49.98 Y265.114 E7.37655
G1 X50.505 Y265.488 E7.39799
G1 X51.012 Y265.932 E7.4204
G1 X51.452 Y266.406 E7.44191
G1 X51.859 Y266.94 E7.46425
G1 X52.203 Y267.5 E7.48611
G1 X52.488 Y268.09 E7.5079
G1 X52.716 Y268.716 E7.53006
G1 X52.879 Y269.355 E7.55199
G1 X52.98 Y270.021 E7.5744
G1 X53.012 Y270.669 E7.59597
G1 X52.977 Y271.322 E7.61772
G1 X52.877 Y271.99 E7.64019
G1 X52.716 Y272.617 E7.66172
G0 F6000 X53.096 Y272.744
;TYPE:WALL-OUTER
G1 F300 X52.854 Y273.404 E7.6851
G1 X52.549 Y274.033 E7.70835
G1 X52.185 Y274.625 E7.73147
G1 X51.755 Y275.187 E7.755
G1 X51.274 Y275.701 E7.77842
G1 X50.756 Y276.154 E7.8013
G1 X50.175 Y276.567 E7.82501
G1 X33.216 Y287.408 E8.49447
G1 X32.572 Y287.778 E8.51917
G1 X31.896 Y288.087 E8.54389
G1 X31.188 Y288.333 E8.56882
G1 X30.474 Y288.511 E8.5933
G1 X29.735 Y288.621 E8.61815
G1 X28.99 Y288.665 E8.64297
G1 X28.244 Y288.636 E8.6678
G1 X27.512 Y288.541 E8.69235
G1 X26.785 Y288.376 E8.71715
G1 X26.086 Y288.148 E8.7416
G1 X25.388 Y287.846 E8.7669
G1 X24.749 Y287.496 E8.79113
G1 X24.128 Y287.076 E8.81606
G1 X23.55 Y286.601 E8.84095
G1 X23.017 Y286.073 E8.8659
G1 X22.552 Y285.516 E8.89003
G1 X22.125 Y284.897 E8.91505
G1 X21.757 Y284.239 E8.94012
G1 X21.46 Y283.571 E8.96444
G1 X21.221 Y282.861 E8.98935
G1 X21.048 Y282.13 E9.01434
G1 X20.948 Y281.411 E9.03848
G1 X20.913 Y280.625 E9.06465
G1 X20.913 Y260.668 E9.72842
G1 X20.949 Y259.913 E9.75356
G1 X21.049 Y259.194 E9.77771
G1 X21.227 Y258.445 E9.80331
G1 X21.46 Y257.758 E9.82744
G1 X21.768 Y257.067 E9.8526
G1 X22.129 Y256.423 E9.87716
G1 X22.552 Y255.813 E9.90185
G1 X23.042 Y255.23 E9.92718
G1 X23.558 Y254.721 E9.95128
G1 X24.14 Y254.246 E9.97627
G1 X24.765 Y253.825 E10.00133
G1 X25.399 Y253.479 E10.02536
G1 X26.107 Y253.174 E10.051
G1 X26.806 Y252.948 E10.07543
G1 X27.531 Y252.785 E10.10015
G1 X28.255 Y252.693 E10.12442
G1 X28.998 Y252.666 E10.14915
G1 X29.748 Y252.709 E10.17413
G1 X30.47 Y252.818 E10.19842
G1 X31.174 Y252.991 E10.22253
G1 X31.865 Y253.231 E10.24686
G1 X31.918 Y253.251 E10.24875
G1 X32.595 Y253.563 E10.27354
G1 X33.221 Y253.925 E10.29759
G1 X50.212 Y264.788 E10.96834
G1 X50.756 Y265.175 E10.99055
G1 X51.287 Y265.641 E11.01404
G1 X51.761 Y266.151 E11.0372
G1 X52.188 Y266.711 E11.06062
G1 X52.554 Y267.307 E11.08389
G1 X52.858 Y267.937 E11.10715
G1 X53.1 Y268.6 E11.13063
G1 X53.272 Y269.276 E11.15383
G1 X53.377 Y269.971 E11.1772
G1 X53.412 Y270.67 E11.20048
G1 X53.375 Y271.371 E11.22383
G1 X53.271 Y272.063 E11.2471
G1 X53.096 Y272.744 E11.27049
G0 F6000 X52.676 Y272.614
G0 X52.341 Y272.506
;TYPE:SKIN
G1 F300 X52.127 Y273.092 E11.29124
G1 X51.856 Y273.65 E11.31187
G1 X51.531 Y274.179 E11.33252
G1 X51.15 Y274.677 E11.35338
G1 X50.724 Y275.132 E11.37411
G1 X50.266 Y275.533 E11.39435
G1 X49.727 Y275.916 E11.41635
G1 X32.814 Y286.727 E12.08398
G1 X32.21 Y287.075 E12.10716
G1 X31.599 Y287.353 E12.12949
G1 X30.957 Y287.577 E12.15211
G1 X30.331 Y287.733 E12.17356
G1 X29.651 Y287.833 E12.19642
G1 X28.984 Y287.874 E12.21865
G1 X28.3 Y287.847 E12.24142
G1 X27.651 Y287.762 E12.26319
G1 X26.998 Y287.614 E12.28546
G1 X26.367 Y287.409 E12.30752
G1 X25.734 Y287.135 E12.33047
G1 X25.161 Y286.822 E12.35218
G1 X24.608 Y286.447 E12.37441
G1 X24.078 Y286.011 E12.39723
G1 X23.59 Y285.528 E12.42007
G1 X23.186 Y285.044 E12.44104
G1 X22.796 Y284.478 E12.4639
G1 X22.469 Y283.894 E12.48616
G1 X22.196 Y283.279 E12.50854
G1 X21.98 Y282.64 E12.53097
G1 X21.822 Y281.972 E12.55381
G1 X21.737 Y281.352 E12.57462
G1 X21.703 Y280.607 E12.59942
G1 X21.703 Y260.705 E13.26137
G1 X21.738 Y259.968 E13.28591
G1 X21.823 Y259.352 E13.30659
G1 X21.989 Y258.657 E13.33036
G1 X22.193 Y258.054 E13.35153
G1 X22.474 Y257.423 E13.3745
G1 X22.804 Y256.834 E13.39696
G1 X23.183 Y256.288 E13.41906
G1 X23.613 Y255.778 E13.44125
G1 X24.094 Y255.302 E13.46376
G1 X24.604 Y254.886 E13.48565
G1 X25.184 Y254.496 E13.5089
G1 X25.742 Y254.191 E13.53005
G1 X26.387 Y253.914 E13.55339
G1 X27.021 Y253.709 E13.57556
G1 X27.67 Y253.563 E13.59768
G1 X28.305 Y253.482 E13.61897
G1 X28.992 Y253.456 E13.64184
G1 X29.658 Y253.495 E13.66403
G1 X30.34 Y253.598 E13.68697
G1 X30.936 Y253.745 E13.70739
G1 X31.612 Y253.981 E13.7312
G1 X32.247 Y254.273 E13.75445
G1 X32.801 Y254.594 E13.77574
G1 X49.762 Y265.438 E14.44531
G1 X50.266 Y265.797 E14.46589
G1 X50.739 Y266.211 E14.4868
G1 X51.156 Y266.66 E14.50718
G1 X51.537 Y267.16 E14.52809
G1 X51.859 Y267.684 E14.54854
G1 X52.127 Y268.239 E14.56904
G1 X52.345 Y268.838 E14.59024
G1 X52.495 Y269.429 E14.61052
G1 X52.59 Y270.059 E14.63171
G1 X52.621 Y270.667 E14.65196
G1 X52.587 Y271.285 E14.67255
G1 X52.495 Y271.908 E14.69349
G1 X52.341 Y272.506 E14.71403
G1 F2700 E9.71403
G0 F6000 X52.604 Y272.603
G0 X52.292 Y273.164
G0 X53.62 Y273.807
G0 X41.882 Y271.663
G0 X43.328 Y271.84
G1 F2700 E14.71403
G0 F6000 X43.526 Y271.864
G1 F300 X43.59 Y270.947 E14.74461
G1 X43.592 Y270.819 E14.74886
G1 X43.575 Y270.009 E14.77581
G1 X43.563 Y269.883 E14.78002
G1 X43.475 Y269.09 E14.80656
G1 X43.454 Y268.962 E14.81087
G1 X43.294 Y268.168 E14.83781
G1 X43.033 Y267.278 E14.86866
G1 X42.7 Y266.424 E14.89915
G1 X42.644 Y266.305 E14.90352
G1 X42.288 Y265.598 E14.92985
G1 X42.226 Y265.487 E14.93408
G1 X41.802 Y264.801 E14.9609
G1 X41.729 Y264.698 E14.9651
G1 X41.251 Y264.058 E14.99167
G1 X41.169 Y263.96 E14.99592
G1 X40.632 Y263.36 E15.0227
G1 X40.54 Y263.27 E15.02698
G1 X39.96 Y262.725 E15.05345
G1 X39.86 Y262.641 E15.05779
G1 X39.236 Y262.156 E15.08408
