;FLAVOR:Marlin
;TIME:5189
;Filament used: 2.55137m
;Layer height: 0.2
;MINX:71.664
;MINY:40.809
;MINZ:0.2
;MAXX:104.391
;MAXY:76.82
;MAXZ:35
;Generated with Cura_SteamEngine main
M140 S65
M105
M190 S65
M104 S215
M105
M109 S215
M82 ;absolute extrusion mode
M201 X500.00 Y500.00 Z100.00 E5000.00 ;Setup machine max acceleration
M203 X500.00 Y500.00 Z10.00 E50.00 ;Setup machine max feedrate
M204 P500.00 R1000.00 T500.00 ;Setup Print/Retract/Travel acceleration
M205 X8.00 Y8.00 Z0.40 E5.00 ;Setup Jerk
M220 S100 ;Reset Feedrate
M221 S100 ;Reset Flowrate

G28 ;Home
G29 ;BL-touch
G92 E0 ;Reset Extruder
G1 Z2.0 F3000 ;Move Z Axis up
G1 X10.1 Y20 Z0.28 F5000.0 ;Move to start position
G1 X10.1 Y200.0 Z0.28 F1500.0 E15 ;Draw the first line
G1 X10.4 Y200.0 Z0.28 F5000.0 ;Move to side a little
G1 X10.4 Y20 Z0.28 F1500.0 E30 ;Draw the second line
G92 E0 ;Reset Extruder
G1 Z2.0 F3000 ;Move Z Axis up
G92 E0
G92 E0
G1 F2700 E-5
;LAYER_COUNT:175
;LAYER:0
M107
;MESH:electronics_platform.v16.tp4056_stabiliser.3mf
G0 F6000 X84.624 Y56.169 Z0.2
;TYPE:WALL-INNER
G1 F2700 E0
G1 F300 X84.141 Y56.285 E0.01652
G1 X83.679 Y56.3 E0.0319
G1 X83.16 Y56.209 E0.04942
G1 X82.695 Y56.017 E0.06615
G1 X82.286 Y55.732 E0.08273
G1 X81.952 Y55.377 E0.09895
G1 X81.708 Y54.972 E0.11467
G1 X81.535 Y54.5 E0.13139
G1 X81.481 Y54.072 E0.14574
G1 X81.478 Y53.946 E0.14993
G1 X81.513 Y53.522 E0.16408
G1 X81.652 Y53.057 E0.18022
G1 X81.886 Y52.624 E0.19659
G1 X82.213 Y52.245 E0.21324
G1 X82.594 Y51.95 E0.22927
G1 X88.111 Y48.53 E0.44516
G1 X88.549 Y48.315 E0.46139
G1 X89.018 Y48.197 E0.47748
G1 X89.511 Y48.18 E0.49388
G1 X89.998 Y48.263 E0.51032
G1 X90.447 Y48.445 E0.52643
G1 X90.851 Y48.713 E0.54255
G1 X91.19 Y49.058 E0.55864
G1 X91.46 Y49.491 E0.57561
G1 X91.63 Y49.937 E0.59149
G1 X91.698 Y50.414 E0.60751
G1 X91.664 Y50.962 E0.62578
G1 X91.521 Y51.435 E0.64221
G1 X91.295 Y51.847 E0.65784
G1 X90.981 Y52.225 E0.67418
G1 X90.584 Y52.532 E0.69088
G1 X85.011 Y55.982 E0.90888
G1 X84.624 Y56.169 E0.92317
G0 F6000 X84.477 Y55.793
;TYPE:WALL-OUTER
G1 F300 X84.087 Y55.888 E0.93652
G1 X83.699 Y55.9 E0.94944
G1 X83.273 Y55.825 E0.96382
G1 X82.887 Y55.663 E0.97775
G1 X82.536 Y55.414 E0.99206
G1 X82.278 Y55.141 E1.00455
G1 X82.071 Y54.804 E1.01771
G1 X81.924 Y54.384 E1.03251
G1 X81.878 Y54.022 E1.04464
G1 X81.907 Y53.617 E1.05815
G1 X82.019 Y53.227 E1.07164
G1 X82.229 Y52.839 E1.08632
G1 X82.483 Y52.54 E1.09937
G1 X82.805 Y52.29 E1.11293
G1 X88.34 Y48.86 E1.3295
G1 X88.669 Y48.701 E1.34166
G1 X89.056 Y48.6 E1.35496
G1 X89.503 Y48.584 E1.36984
G1 X89.864 Y48.646 E1.38202
G1 X90.239 Y48.792 E1.3954
G1 X90.608 Y49.037 E1.41013
G1 X90.888 Y49.327 E1.42354
G1 X91.096 Y49.658 E1.43654
G1 X91.241 Y50.046 E1.45032
G1 X91.299 Y50.449 E1.46386
G1 X91.268 Y50.881 E1.47827
G1 X91.154 Y51.268 E1.49169
G1 X90.961 Y51.627 E1.50524
G1 X90.681 Y51.953 E1.51954
G1 X90.373 Y52.192 E1.5325
G1 X84.837 Y55.622 E1.74911
G1 X84.477 Y55.793 E1.76236
G1 F2700 E-3.23764
G0 F6000 X84.547 Y56.084
G0 X85.507 Y55.891
G0 X88.039 Y57.559
G0 X94.243 Y64.185
;TYPE:WALL-INNER
G1 F2700 E1.76236
G1 F300 X93.618 Y64.273 E1.78336
G1 X92.876 Y64.28 E1.80804
G1 X92.213 Y64.196 E1.83027
G1 X91.641 Y64.051 E1.84989
G1 X91.011 Y63.809 E1.87234
G1 X90.436 Y63.496 E1.89411
G1 X89.834 Y63.055 E1.91893
G1 X89.355 Y62.593 E1.94107
G1 X88.941 Y62.077 E1.96307
G1 X88.628 Y61.574 E1.98278
G1 X88.322 Y60.899 E2.00743
G1 X88.137 Y60.297 E2.02837
G1 X88.027 Y59.65 E2.0502
G1 X87.998 Y59.016 E2.07131
G1 X88.062 Y58.275 E2.09605
G1 X88.209 Y57.621 E2.11834
G1 X88.437 Y56.999 E2.14038
G1 X88.745 Y56.406 E2.1626
G1 X89.121 Y55.859 E2.18468
G1 X89.513 Y55.419 E2.20428
G1 X90.014 Y54.977 E2.2265
G1 X90.587 Y54.591 E2.24948
G1 X91.167 Y54.304 E2.271
G1 X91.827 Y54.073 E2.29426
G1 X92.52 Y53.935 E2.31776
G1 X93.186 Y53.891 E2.33996
G1 X93.847 Y53.932 E2.36199
G1 X94.474 Y54.049 E2.3832
G1 X95.09 Y54.247 E2.40472
G1 X95.668 Y54.516 E2.42593
G1 X96.269 Y54.892 E2.4495
G1 X96.804 Y55.345 E2.47282
G1 X97.255 Y55.838 E2.49504
G1 X97.597 Y56.32 E2.5147
G1 X97.955 Y56.988 E2.53991
G1 X98.179 Y57.595 E2.56143
G1 X98.315 Y58.172 E2.58115
G1 X98.39 Y58.834 E2.6033
G1 X98.374 Y59.577 E2.62802
G1 X98.283 Y60.175 E2.64814
G1 X98.081 Y60.873 E2.67231
G1 X97.813 Y61.484 E2.6945
G1 X97.469 Y62.053 E2.71661
G1 X97.055 Y62.575 E2.73877
G1 X96.578 Y63.04 E2.76093
G1 X96.107 Y63.399 E2.78063
G1 X95.517 Y63.745 E2.80338
G1 X94.913 Y63.999 E2.82517
G1 X94.243 Y64.185 E2.8483
G0 F6000 X94.166 Y63.793
;TYPE:WALL-OUTER
G1 F300 X93.563 Y63.877 E2.86855
G1 X92.924 Y63.883 E2.8898
G1 X92.337 Y63.813 E2.90946
G1 X91.716 Y63.656 E2.93077
G1 X91.146 Y63.431 E2.95115
G1 X90.608 Y63.132 E2.97162
G1 X90.13 Y62.782 E2.99132
G1 X89.665 Y62.341 E3.01264
G1 X89.295 Y61.886 E3.03215
G1 X88.955 Y61.339 E3.05357
G1 X88.704 Y60.78 E3.07395
G1 X88.523 Y60.191 E3.09444
G1 X88.423 Y59.592 E3.11464
G1 X88.398 Y58.999 E3.13438
G1 X88.449 Y58.384 E3.15491
G1 X88.585 Y57.756 E3.17628
G1 X88.793 Y57.181 E3.19662
G1 X89.076 Y56.63 E3.21722
G1 X89.42 Y56.125 E3.23754
G1 X89.812 Y55.685 E3.25714
G1 X90.298 Y55.263 E3.27855
G1 X90.798 Y54.931 E3.29851
G1 X91.365 Y54.654 E3.3195
G1 X91.931 Y54.459 E3.33941
G1 X92.525 Y54.337 E3.35958
G1 X93.138 Y54.291 E3.38003
G1 X93.763 Y54.324 E3.40084
G1 X94.384 Y54.439 E3.42185
G1 X94.967 Y54.629 E3.44224
G1 X95.498 Y54.878 E3.46175
G1 X96.043 Y55.224 E3.48322
G1 X96.511 Y55.617 E3.50355
G1 X96.912 Y56.049 E3.52315
G1 X97.284 Y56.573 E3.54452
G1 X97.581 Y57.13 E3.56552
G1 X97.782 Y57.662 E3.58443
G1 X97.925 Y58.264 E3.60501
G1 X97.992 Y58.876 E3.62549
G1 X97.978 Y59.517 E3.64682
G1 X97.889 Y60.106 E3.66663
G1 X97.722 Y60.692 E3.68689
G1 X97.469 Y61.28 E3.70818
G1 X97.154 Y61.807 E3.72861
G1 X96.774 Y62.291 E3.74907
G1 X96.336 Y62.722 E3.76951
G1 X95.865 Y63.081 E3.78921
G1 X95.327 Y63.393 E3.80989
G1 X94.762 Y63.629 E3.83026
G1 X94.166 Y63.793 E3.85082
G1 F2700 E-1.14918
G0 F6000 X94.295 Y64.271
G0 X96.751 Y76.184
G0 X97.489 Y76.292
;TYPE:WALL-INNER
G1 F2700 E3.85082
G1 F300 X98.168 Y76.138 E3.87398
G1 X98.846 Y75.92 E3.89766
G1 X99.493 Y75.641 E3.9211
G1 X100.111 Y75.302 E3.94454
G1 X100.696 Y74.906 E3.96804
G1 X101.249 Y74.455 E3.99177
G1 X101.749 Y73.96 E4.01517
G1 X102.205 Y73.419 E4.03871
G1 X102.606 Y72.839 E4.06216
G1 X102.952 Y72.223 E4.08566
G1 X103.241 Y71.579 E4.10913
G1 X103.468 Y70.896 E4.13307
G1 X103.629 Y70.219 E4.15622
G1 X103.727 Y69.521 E4.17966
G1 X103.763 Y68.8 E4.20367
G1 X103.763 Y48.826 E4.86801
G1 X103.728 Y48.104 E4.89205
G1 X103.631 Y47.411 E4.91533
G1 X103.471 Y46.736 E4.9384
G1 X103.244 Y46.052 E4.96237
G1 X102.955 Y45.402 E4.98603
G1 X102.61 Y44.789 E5.00942
G1 X102.21 Y44.208 E5.03289
G1 X101.756 Y43.668 E5.05635
G1 X101.253 Y43.169 E5.07992
G1 X100.707 Y42.719 E5.10345
G1 X100.125 Y42.326 E5.12681
G1 X99.503 Y41.985 E5.1504
G1 X98.856 Y41.703 E5.17387
G1 X98.172 Y41.481 E5.19779
G1 X97.495 Y41.329 E5.22087
G1 X96.795 Y41.238 E5.24435
G1 X96.09 Y41.211 E5.26781
G1 X95.383 Y41.252 E5.29137
G1 X94.684 Y41.355 E5.31487
G1 X93.952 Y41.541 E5.33999
G1 X93.301 Y41.772 E5.36296
G1 X92.669 Y42.063 E5.3861
G1 X92.057 Y42.416 E5.4096
G1 X75.121 Y53.242 E6.07815
G1 X74.571 Y53.633 E6.10059
G1 X74.08 Y54.064 E6.12232
G1 X73.629 Y54.546 E6.14428
G1 X73.229 Y55.067 E6.16612
G1 X72.879 Y55.636 E6.18834
G1 X72.589 Y56.232 E6.21039
G1 X72.359 Y56.864 E6.23276
G1 X72.197 Y57.494 E6.25439
G1 X72.098 Y58.147 E6.27636
G1 X72.064 Y58.807 E6.29834
G1 X72.078 Y59.087 E6.30766
G1 X72.097 Y59.462 E6.32015
G1 X72.195 Y60.115 E6.34212
G1 X72.358 Y60.751 E6.36395
G1 X72.585 Y61.378 E6.38613
G1 X72.875 Y61.975 E6.40821
G1 X73.218 Y62.536 E6.43008
G1 X73.615 Y63.056 E6.45184
G1 X74.065 Y63.544 E6.47391
G1 X74.553 Y63.973 E6.49553
G1 X75.119 Y64.376 E6.51863
G1 X92.057 Y75.205 E7.18729
G1 X92.68 Y75.564 E7.21121
G1 X93.318 Y75.855 E7.23453
G1 X93.984 Y76.088 E7.258
G1 X94.669 Y76.26 E7.28149
G1 X95.398 Y76.37 E7.30601
G1 X96.064 Y76.408 E7.32819
G1 X96.767 Y76.384 E7.35159
G1 X97.489 Y76.292 E7.3758
G0 F6000 X97.559 Y76.686
;TYPE:WALL-OUTER
G1 F300 X98.274 Y76.524 E7.40018
G1 X98.987 Y76.295 E7.42509
G1 X99.669 Y76.001 E7.44979
G1 X100.319 Y75.644 E7.47446
G1 X100.935 Y75.228 E7.49918
G1 X101.517 Y74.753 E7.52416
G1 X102.043 Y74.232 E7.54879
G1 X102.523 Y73.662 E7.57357
G1 X102.946 Y73.051 E7.59829
G1 X103.31 Y72.403 E7.62301
G1 X103.614 Y71.724 E7.64775
G1 X103.853 Y71.006 E7.67292
G1 X104.023 Y70.293 E7.6973
G1 X104.126 Y69.559 E7.72196
G1 X104.163 Y68.81 E7.7469
G1 X104.163 Y48.816 E8.4119
G1 X104.127 Y48.067 E8.43684
G1 X104.025 Y47.337 E8.46136
G1 X103.856 Y46.626 E8.48566
G1 X103.618 Y45.908 E8.51082
G1 X103.313 Y45.222 E8.53579
G1 X102.95 Y44.577 E8.56041
G1 X102.528 Y43.966 E8.58511
G1 X102.051 Y43.397 E8.6098
G1 X101.521 Y42.872 E8.63461
G1 X100.947 Y42.398 E8.65937
G1 X100.333 Y41.984 E8.684
G1 X99.679 Y41.625 E8.70882
G1 X98.998 Y41.329 E8.73352
G1 X98.278 Y41.095 E8.7587
G1 X97.565 Y40.935 E8.783
G1 X96.829 Y40.839 E8.80769
G1 X96.086 Y40.811 E8.83242
G1 X95.343 Y40.854 E8.85717
G1 X94.606 Y40.962 E8.88194
G1 X93.836 Y41.158 E8.90837
G1 X93.15 Y41.401 E8.93258
G1 X92.485 Y41.707 E8.95692
G1 X91.849 Y42.074 E8.98135
G1 X74.897 Y52.91 E9.65052
G1 X74.323 Y53.319 E9.67396
G1 X73.802 Y53.776 E9.69701
G1 X73.323 Y54.287 E9.72031
G1 X72.899 Y54.84 E9.74348
G1 X72.528 Y55.443 E9.76703
G1 X72.22 Y56.076 E9.79045
G1 X71.977 Y56.746 E9.81415
G1 X71.805 Y57.414 E9.83709
G1 X71.7 Y58.107 E9.86041
G1 X71.664 Y58.807 E9.88372
G1 X71.678 Y59.107 E9.89371
G1 X71.699 Y59.502 E9.90686
G1 X71.803 Y60.195 E9.93017
G1 X71.975 Y60.869 E9.95331
G1 X72.216 Y61.534 E9.97683
G1 X72.523 Y62.167 E10.00023
G1 X72.888 Y62.762 E10.02345
G1 X73.308 Y63.314 E10.04652
G1 X73.785 Y63.83 E10.06989
G1 X74.304 Y64.287 E10.09289
G1 X74.895 Y64.708 E10.11702
G1 X91.849 Y75.547 E10.78631
G1 X92.496 Y75.92 E10.81115
G1 X93.168 Y76.227 E10.83572
G1 X93.869 Y76.472 E10.86042
G1 X94.59 Y76.653 E10.88514
G1 X95.357 Y76.768 E10.91094
G1 X96.06 Y76.808 E10.93436
G1 X96.799 Y76.783 E10.95895
G1 X97.559 Y76.686 E10.98443
G0 F6000 X97.426 Y75.936
;TYPE:SKIN
G1 F300 X98.06 Y75.792 E11.00606
G1 X98.719 Y75.583 E11.02905
G1 X99.336 Y75.317 E11.0514
G1 X99.921 Y74.995 E11.07361
G1 X100.48 Y74.617 E11.09605
G1 X101.009 Y74.185 E11.11877
G1 X101.483 Y73.715 E11.14097
G1 X101.919 Y73.199 E11.16344
G1 X102.301 Y72.647 E11.18577
G1 X102.63 Y72.061 E11.20812
G1 X102.905 Y71.446 E11.23053
G1 X103.119 Y70.797 E11.25325
G1 X103.274 Y70.149 E11.27542
G1 X103.368 Y69.485 E11.29772
G1 X103.403 Y68.791 E11.32083
G1 X103.403 Y48.834 E11.9846
G1 X103.369 Y48.138 E12.00778
G1 X103.276 Y47.48 E12.02988
G1 X103.125 Y46.834 E12.05195
G1 X102.909 Y46.182 E12.07479
G1 X102.633 Y45.564 E12.09731
G1 X102.305 Y44.981 E12.11955
G1 X101.924 Y44.43 E12.14184
G1 X101.491 Y43.914 E12.16424
G1 X101.009 Y43.436 E12.18682
G1 X100.494 Y43.01 E12.20905
G1 X99.938 Y42.635 E12.23135
G1 X99.344 Y42.308 E12.25391
G1 X98.727 Y42.04 E12.27628
G1 X98.064 Y41.824 E12.29947
G1 X97.432 Y41.685 E12.32099
G1 X96.767 Y41.598 E12.3433
G1 X96.094 Y41.573 E12.3657
G1 X95.423 Y41.611 E12.38805
G1 X94.756 Y41.709 E12.41048
G1 X94.059 Y41.886 E12.43439
G1 X93.439 Y42.106 E12.45627
G1 X92.835 Y42.383 E12.47838
G1 X92.244 Y42.724 E12.50107
G1 X75.322 Y53.541 E13.16906
G1 X74.795 Y53.916 E13.19057
G1 X74.333 Y54.323 E13.21105
G1 X73.902 Y54.782 E13.232
G1 X73.527 Y55.274 E13.25257
G1 X73.197 Y55.809 E13.27348
G1 X72.921 Y56.374 E13.29439
G1 X72.699 Y56.984 E13.31598
G1 X72.551 Y57.568 E13.33602
G1 X72.457 Y58.186 E13.35681
G1 X72.426 Y58.808 E13.37752
G1 X72.457 Y59.424 E13.39804
G1 X72.55 Y60.042 E13.41883
G1 X72.7 Y60.631 E13.43904
G1 X72.918 Y61.237 E13.46046
G1 X73.192 Y61.802 E13.48135
G1 X73.517 Y62.33 E13.50197
G1 X73.887 Y62.818 E13.52234
G1 X74.317 Y63.285 E13.54345
G1 X74.775 Y63.689 E13.56376
G1 X75.32 Y64.077 E13.58601
G1 X92.244 Y74.896 E14.2541
G1 X92.847 Y75.244 E14.27725
G1 X93.453 Y75.521 E14.29942
G1 X94.102 Y75.749 E14.32229
G1 X94.741 Y75.906 E14.34418
G1 X95.437 Y76.011 E14.36759
G1 X96.07 Y76.047 E14.38868
G1 X96.736 Y76.024 E14.41084
G1 X97.426 Y75.936 E14.43398
G1 F2700 E9.43398
G0 F6000 X97.457 Y76.196
G0 X96.751 Y76.184
G0 X94.328 Y64.35
G0 X94.99 Y64.356
G1 F2700 E14.43398
G1 F300 X94.27 Y64.547 E14.45875
G1 X93.62 Y64.636 E14.48058
G1 X92.877 Y64.644 E14.50529
G1 X92.146 Y64.551 E14.5298
G1 X91.531 Y64.393 E14.55092
G1 X90.873 Y64.143 E14.57433
G1 X90.211 Y63.782 E14.59941
G1 X89.58 Y63.312 E14.62558
G1 X89.087 Y62.835 E14.64839
G1 X88.634 Y62.265 E14.67261
G1 X88.26 Y61.651 E14.69652
G1 X87.99 Y61.048 E14.7185
G1 X87.785 Y60.379 E14.74177
G1 X87.666 Y59.66 E14.76601
G1 X87.638 Y58.969 E14.78901
G1 X87.701 Y58.241 E14.81331
G1 X87.85 Y57.547 E14.83692
G1 X88.084 Y56.9 E14.85981
G1 X88.436 Y56.22 E14.88527
G1 X88.787 Y55.701 E14.90611
G1 X89.241 Y55.184 E14.929
G1 X89.772 Y54.708 E14.95271
G1 X90.415 Y54.27 E14.97859
G1 X91.13 Y53.928 E15.00495
G1 X91.749 Y53.717 E15.0267
G1 X92.448 Y53.579 E15.0504
G1 X93.184 Y53.531 E15.07493
G1 X93.842 Y53.568 E15.09685
G1 X94.567 Y53.699 E15.12136
G1 X95.254 Y53.924 E15.1454
G1 X95.818 Y54.187 E15.1661
G1 X96.484 Y54.603 E15.19222
G1 X97.069 Y55.1 E15.21775
G1 X97.469 Y55.529 E15.23726
G1 X97.948 Y56.203 E15.26476
G1 X98.249 Y56.764 E15.28593
G1 X98.508 Y57.424 E15.30951
G1 X98.669 Y58.1 E15.33263
G1 X98.753 Y58.902 E15.35945
G1 X98.737 Y59.587 E15.38224
G1 X98.638 Y60.241 E15.40424
G1 X98.447 Y60.922 E15.42776
G1 X98.15 Y61.624 E15.45311
G1 X97.801 Y62.213 E15.47588
G1 X97.309 Y62.834 E15.50224
G1 X96.797 Y63.328 E15.5259
G1 X96.243 Y63.741 E15.54888
G1 X95.671 Y64.071 E15.57085
G1 X94.99 Y64.356 E15.5954
G1 F2700 E10.5954
G0 F6000 X94.824 Y64.13
G0 X92.923 Y64.123
G0 X92.282 Y64.047
G0 X91.655 Y63.89
G0 X91.055 Y63.653
G0 X90.489 Y63.341
G0 X89.967 Y62.96
G0 X89.499 Y62.515
G0 X89.092 Y62.015
G0 X88.75 Y61.465
G0 X88.484 Y60.877
G0 X88.294 Y60.26
G0 X88.01 Y57.658
G0 X85.507 Y55.891
G0 X84.763 Y56.501
G1 F2700 E15.5954
G1 F300 X84.203 Y56.644 E15.61462
G1 X83.632 Y56.661 E15.63362
G1 X83.051 Y56.555 E15.65327
G1 X82.491 Y56.313 E15.67356
G1 X82.061 Y56.014 E15.69098
G1 X81.661 Y55.587 E15.71044
G1 X81.393 Y55.147 E15.72757
G1 X81.179 Y54.578 E15.74779
G1 X81.114 Y54.03 E15.76614
G1 X81.156 Y53.47 E15.78482
G1 X81.314 Y52.929 E15.80357
G1 X81.597 Y52.407 E15.82332
G1 X81.955 Y51.984 E15.84175
G1 X82.396 Y51.649 E15.86017
G1 X87.938 Y48.214 E16.07703
G1 X88.458 Y47.964 E16.09622
G1 X88.949 Y47.843 E16.11304
G1 X89.552 Y47.821 E16.13311
G1 X90.068 Y47.909 E16.15052
G1 X90.628 Y48.132 E16.17057
G1 X91.091 Y48.444 E16.18914
G1 X91.471 Y48.838 E16.20734
G1 X91.775 Y49.307 E16.22593
G1 X91.982 Y49.878 E16.24613
G1 X92.062 Y50.4 E16.2637
G1 X92.021 Y51.022 E16.28443
G1 X91.843 Y51.6 E16.30455
G1 X91.581 Y52.073 E16.32253
G1 X91.204 Y52.512 E16.34178
G1 X90.787 Y52.829 E16.3592
G1 X85.203 Y56.289 E16.57769
G1 X84.763 Y56.501 E16.59393
G1 F2700 E11.59393
G0 F6000 X84.507 Y56.301
G0 X83.207 Y56.057
G0 X82.749 Y55.827
G0 X72.549 Y60.692
G0 X73.161 Y61.282
G1 F2700 E16.59393
G1 F300 X76.426 Y64.547 E16.74751
G0 F6000 X76.179 Y64.934
G0 X77.744 Y65.935
G0 X77.994 Y65.549
G1 F300 X72.846 Y60.401 E16.98965
G0 F6000 X72.697 Y59.686
G1 F300 X79.562 Y66.552 E17.31259
G0 F6000 X79.312 Y66.938
G0 X80.881 Y67.94
G0 X81.131 Y67.554
G1 F300 X72.637 Y59.061 E17.71209
G0 F6000 X72.64 Y58.498
G1 F300 X82.698 Y68.556 E18.18519
G0 F6000 X82.451 Y68.943
G0 X84.019 Y69.946
G0 X84.267 Y69.559
G1 F300 X72.689 Y57.981 E18.72979
G0 F6000 X72.772 Y57.499
G1 F300 X85.835 Y70.562 E19.34423
G0 F6000 X85.587 Y70.949
G0 X87.154 Y71.95
G0 X87.403 Y71.564
G1 F300 X72.887 Y57.047 E20.02704
G0 F6000 X73.037 Y56.632
G1 F300 X88.971 Y72.566 E20.77653
G0 F6000 X88.724 Y72.954
G0 X90.292 Y73.957
G0 X90.54 Y73.569
G1 F300 X73.208 Y56.237 E21.59177
G0 F6000 X73.398 Y55.862
G1 F300 X92.107 Y74.571 E22.47178
G0 F6000 X91.859 Y74.958
G0 X93.167 Y75.675
G0 X93.36 Y75.258
G1 F300 X73.614 Y55.512 E23.40058
G0 F6000 X73.848 Y55.18
G1 F300 X94.246 Y75.578 E24.36004
G0 F6000 X94.972 Y75.738
G1 F300 X74.097 Y54.864 E25.34191
G0 F6000 X74.371 Y54.572
G1 F300 X95.62 Y75.821 E26.3414
G0 F6000 X96.206 Y75.842
