;FLAVOR:Marlin
;TIME:4944
;Filament used: 2.47694m
;Layer height: 0.2
;MINX:45.079
;MINY:243.593
;MINZ:0.2
;MAXX:78.442
;MAXY:280.233
;MAXZ:35
;Generated with Cura_SteamEngine 4.12.1
M140 S65
M105
M190 S65
M104 S215
M105
M109 S215
M82 ;absolute extrusion mode
M201 X500.00 Y500.00 Z100.00 E5000.00 ;Setup machine max acceleration
M203 X500.00 Y500.00 Z10.00 E50.00 ;Setup machine max feedrate
M204 P500.00 R1000.00 T500.00 ;Setup Print/Retract/Travel acceleration
M205 X8.00 Y8.00 Z0.40 E5.00 ;Setup Jerk
M220 S100 ;Reset Feedrate
M221 S100 ;Reset Flowrate

G28 ;Home

G92 E0 ;Reset Extruder
G1 Z2.0 F3000 ;Move Z Axis up
G1 X10.1 Y20 Z0.28 F5000.0 ;Move to start position
G1 X10.1 Y200.0 Z0.28 F1500.0 E15 ;Draw the first line
G1 X10.4 Y200.0 Z0.28 F5000.0 ;Move to side a little
G1 X10.4 Y20 Z0.28 F1500.0 E30 ;Draw the second line
G92 E0 ;Reset Extruder
G1 Z2.0 F3000 ;Move Z Axis up

G92 E0
G92 E0
G1 F2700 E-5
;LAYER_COUNT:175
;LAYER:0
M107
;MESH:electronics_platform.v2.stl
G0 F6000 X67.512 Y265.664 Z0.2
;TYPE:WALL-INNER
G1 F2700 E0
G1 F300 X67.553 Y265.56 E0.00372
G1 X67.808 Y264.817 E0.02985
G1 X67.838 Y264.709 E0.03357
G1 X68.025 Y263.952 E0.05951
G1 X68.046 Y263.844 E0.06317
G1 X68.168 Y263.067 E0.08933
G1 X68.178 Y262.956 E0.09303
G1 X68.23 Y262.182 E0.11884
G1 X68.232 Y262.07 E0.12256
G1 X68.215 Y261.282 E0.14878
G1 X68.205 Y261.173 E0.15242
G1 X68.119 Y260.389 E0.17865
G1 X67.946 Y259.518 E0.20818
G1 X67.917 Y259.411 E0.21187
G1 X67.694 Y258.654 E0.23812
G1 X67.371 Y257.829 E0.26759
G1 X67.323 Y257.727 E0.27134
G1 X66.973 Y257.032 E0.29722
G1 X66.919 Y256.935 E0.30091
G1 X66.506 Y256.265 E0.32709
G1 X66.441 Y256.174 E0.33081
G1 X65.975 Y255.55 E0.35671
G1 X65.904 Y255.464 E0.36042
G1 X65.38 Y254.88 E0.38652
G1 X65.301 Y254.803 E0.39019
G1 X64.732 Y254.269 E0.41614
G1 X64.647 Y254.198 E0.41982
G1 X64.029 Y253.714 E0.44593
G1 X63.937 Y253.651 E0.44964
G1 X63.28 Y253.225 E0.47568
G1 X63.183 Y253.171 E0.47938
G1 X62.492 Y252.804 E0.5054
G1 X62.39 Y252.759 E0.50911
G1 X61.672 Y252.457 E0.53501
G1 X61.566 Y252.419 E0.53876
G1 X60.822 Y252.182 E0.56473
G1 X60.716 Y252.153 E0.56839
G1 X59.952 Y251.982 E0.59443
G1 X59.842 Y251.963 E0.59814
G1 X59.066 Y251.86 E0.62417
G1 X58.957 Y251.851 E0.62781
G1 X58.176 Y251.817 E0.65381
G1 X58.065 Y251.817 E0.6575
G1 X57.278 Y251.851 E0.68371
G1 X57.167 Y251.863 E0.68742
G1 X56.395 Y251.967 E0.71333
G1 X56.286 Y251.987 E0.71701
G1 X55.518 Y252.16 E0.7432
G1 X55.411 Y252.192 E0.74691
G1 X54.663 Y252.43 E0.77302
G1 X53.843 Y252.773 E0.80258
G1 X53.744 Y252.822 E0.80626
G1 X53.051 Y253.187 E0.83231
G1 X52.956 Y253.246 E0.83603
G1 X52.299 Y253.67 E0.86203
G1 X52.21 Y253.737 E0.86574
G1 X51.595 Y254.218 E0.89171
G1 X51.512 Y254.292 E0.89541
G1 X50.941 Y254.825 E0.92139
G1 X50.863 Y254.907 E0.92515
G1 X50.342 Y255.49 E0.95115
G1 X50.273 Y255.577 E0.95485
G1 X49.805 Y256.203 E0.98084
G1 X49.743 Y256.296 E0.98456
G1 X49.332 Y256.963 E1.01062
G1 X49.28 Y257.061 E1.01431
G1 X48.931 Y257.757 E1.04021
G1 X48.886 Y257.858 E1.04388
G1 X48.597 Y258.591 E1.07009
G1 X48.563 Y258.696 E1.07376
G1 X48.343 Y259.443 E1.09966
G1 X48.316 Y259.551 E1.10336
G1 X48.162 Y260.32 E1.12945
G1 X48.146 Y260.43 E1.13315
G1 X48.06 Y261.205 E1.15908
G1 X48.053 Y261.315 E1.16275
G1 X48.035 Y262.109 E1.18916
G1 X48.092 Y262.993 E1.21862
G1 X48.106 Y263.104 E1.22235
G1 X48.226 Y263.877 E1.24836
G1 X48.249 Y263.985 E1.25204
G1 X48.438 Y264.745 E1.27808
G1 X48.471 Y264.851 E1.28178
G1 X48.727 Y265.597 E1.30801
G1 X49.087 Y266.406 E1.33746
G1 X49.139 Y266.505 E1.34118
G1 X49.519 Y267.188 E1.36718
G1 X49.579 Y267.282 E1.37088
G1 X50.019 Y267.928 E1.39688
G1 X50.086 Y268.015 E1.40053
G1 X50.582 Y268.623 E1.42663
G1 X50.657 Y268.705 E1.43033
G1 X51.206 Y269.265 E1.45641
G1 X51.289 Y269.339 E1.46011
G1 X51.883 Y269.849 E1.48615
G1 X51.972 Y269.916 E1.48985
G1 X52.607 Y270.369 E1.5158
G1 X52.701 Y270.429 E1.51951
G1 X53.377 Y270.826 E1.54558
G1 X53.476 Y270.876 E1.54927
G1 X54.181 Y271.209 E1.5752
G1 X54.284 Y271.252 E1.57891
G1 X55.017 Y271.522 E1.6049
G1 X55.123 Y271.555 E1.60859
G1 X55.884 Y271.762 E1.63482
G1 X56.756 Y271.92 E1.66429
G1 X56.867 Y271.935 E1.66802
G1 X57.649 Y272.003 E1.69413
G1 X57.759 Y272.007 E1.69779
G1 X58.55 Y272.008 E1.7241
G1 X59.438 Y271.932 E1.75374
G1 X60.32 Y271.777 E1.78352
G1 X61.176 Y271.548 E1.813
G1 X61.282 Y271.512 E1.81672
G1 X62.017 Y271.24 E1.84279
G1 X62.118 Y271.195 E1.84646
G1 X62.824 Y270.861 E1.87244
G1 X62.922 Y270.808 E1.87615
G1 X63.595 Y270.412 E1.90212
G1 X63.688 Y270.35 E1.90584
G1 X64.325 Y269.896 E1.93185
G1 X64.412 Y269.827 E1.93555
G1 X65.008 Y269.316 E1.96166
G1 X65.087 Y269.238 E1.96535
G1 X65.63 Y268.682 E1.9912
G1 X65.704 Y268.6 E1.99487
G1 X66.202 Y267.991 E2.02104
G1 X66.267 Y267.901 E2.02473
G1 X66.708 Y267.254 E2.05077
G1 X66.765 Y267.157 E2.05451
G1 X67.145 Y266.476 E2.08045
G1 X67.193 Y266.376 E2.08414
G1 X67.512 Y265.664 E2.11009
G0 F6000 X67.143 Y265.509
;TYPE:WALL-OUTER
G1 F300 X67.177 Y265.422 E2.1132
G1 X67.426 Y264.699 E2.13863
G1 X67.451 Y264.608 E2.14177
G1 X67.634 Y263.866 E2.16719
G1 X67.652 Y263.774 E2.17031
G1 X67.771 Y263.019 E2.19573
G1 X67.779 Y262.926 E2.19883
G1 X67.83 Y262.164 E2.22423
G1 X67.832 Y262.07 E2.22736
G1 X67.815 Y261.304 E2.25284
G1 X67.807 Y261.212 E2.25592
G1 X67.723 Y260.45 E2.28141
G1 X67.556 Y259.609 E2.30993
G1 X67.532 Y259.519 E2.31303
G1 X67.315 Y258.784 E2.33852
G1 X67.003 Y257.987 E2.36699
G1 X66.963 Y257.902 E2.37011
G1 X66.62 Y257.22 E2.3955
G1 X66.574 Y257.138 E2.39863
G1 X66.172 Y256.486 E2.4241
G1 X66.118 Y256.41 E2.42721
G1 X65.661 Y255.798 E2.45261
G1 X65.601 Y255.726 E2.45573
G1 X65.09 Y255.156 E2.48119
G1 X65.024 Y255.091 E2.48427
G1 X64.466 Y254.568 E2.50971
G1 X64.395 Y254.508 E2.5128
G1 X63.792 Y254.037 E2.53825
G1 X63.715 Y253.984 E2.54136
G1 X63.073 Y253.568 E2.5668
G1 X62.991 Y253.522 E2.56993
G1 X62.316 Y253.164 E2.59534
G1 X62.231 Y253.126 E2.59844
G1 X61.527 Y252.83 E2.62384
G1 X61.438 Y252.798 E2.62698
G1 X60.71 Y252.566 E2.6524
G1 X60.62 Y252.542 E2.65549
G1 X59.874 Y252.374 E2.68093
G1 X59.782 Y252.358 E2.68403
G1 X59.023 Y252.258 E2.7095
G1 X58.931 Y252.25 E2.71257
G1 X58.167 Y252.217 E2.738
G1 X58.074 Y252.217 E2.74109
G1 X57.308 Y252.25 E2.7666
G1 X57.215 Y252.26 E2.76971
G1 X56.458 Y252.362 E2.79511
G1 X56.366 Y252.379 E2.79822
G1 X55.619 Y252.547 E2.82369
G1 X55.529 Y252.574 E2.82681
G1 X54.801 Y252.806 E2.85223
G1 X54.009 Y253.137 E2.88078
G1 X53.926 Y253.178 E2.88386
G1 X53.249 Y253.535 E2.90931
G1 X53.169 Y253.584 E2.91243
G1 X52.528 Y253.999 E2.93783
G1 X52.453 Y254.055 E2.94094
G1 X51.851 Y254.526 E2.96637
G1 X51.781 Y254.588 E2.96948
G1 X51.222 Y255.11 E2.99492
G1 X51.157 Y255.178 E2.99804
G1 X50.648 Y255.748 E3.02346
G1 X50.59 Y255.821 E3.02656
G1 X50.132 Y256.434 E3.05201
G1 X50.08 Y256.512 E3.05513
G1 X49.679 Y257.163 E3.08056
G1 X49.635 Y257.245 E3.08366
G1 X49.293 Y257.928 E3.10906
G1 X49.255 Y258.013 E3.11216
G1 X48.974 Y258.726 E3.13765
G1 X48.945 Y258.815 E3.14076
G1 X48.729 Y259.547 E3.16615
G1 X48.707 Y259.638 E3.16926
G1 X48.556 Y260.387 E3.19467
G1 X48.543 Y260.48 E3.1978
G1 X48.459 Y261.24 E3.22323
G1 X48.453 Y261.333 E3.22633
G1 X48.435 Y262.101 E3.25188
G1 X48.49 Y262.955 E3.28034
G1 X48.502 Y263.048 E3.28346
G1 X48.619 Y263.803 E3.30887
G1 X48.639 Y263.894 E3.31197
G1 X48.823 Y264.637 E3.33743
G1 X48.851 Y264.726 E3.34053
G1 X49.1 Y265.45 E3.366
G1 X49.448 Y266.233 E3.3945
G1 X49.491 Y266.316 E3.3976
G1 X49.863 Y266.983 E3.42301
G1 X49.913 Y267.062 E3.42612
G1 X50.344 Y267.694 E3.45156
G1 X50.4 Y267.768 E3.45465
G1 X50.885 Y268.361 E3.48013
G1 X50.948 Y268.43 E3.48323
G1 X51.483 Y268.976 E3.50866
G1 X51.553 Y269.039 E3.51179
G1 X52.133 Y269.537 E3.53722
G1 X52.208 Y269.593 E3.54033
G1 X52.83 Y270.037 E3.56575
G1 X52.909 Y270.087 E3.56886
G1 X53.569 Y270.475 E3.59432
G1 X53.652 Y270.517 E3.59741
G1 X54.343 Y270.843 E3.62283
G1 X54.43 Y270.879 E3.62596
G1 X55.146 Y271.143 E3.65134
G1 X55.235 Y271.171 E3.65444
G1 X55.975 Y271.372 E3.67995
G1 X56.066 Y271.39 E3.68303
G1 X56.817 Y271.525 E3.70841
G1 X56.91 Y271.537 E3.71153
G1 X57.673 Y271.604 E3.73701
G1 X57.766 Y271.607 E3.7401
G1 X58.533 Y271.608 E3.76561
G1 X59.386 Y271.535 E3.79409
G1 X60.234 Y271.386 E3.82272
G1 X61.06 Y271.165 E3.85116
G1 X61.149 Y271.135 E3.85429
G1 X61.866 Y270.869 E3.87972
G1 X61.952 Y270.831 E3.88285
G1 X62.642 Y270.505 E3.90823
G1 X62.724 Y270.46 E3.91134
G1 X63.383 Y270.073 E3.93676
G1 X63.461 Y270.021 E3.93988
G1 X64.084 Y269.576 E3.96534
G1 X64.157 Y269.518 E3.96844
G1 X64.738 Y269.02 E3.99389
G1 X64.805 Y268.955 E3.997
G1 X65.338 Y268.409 E4.02238
G1 X65.4 Y268.34 E4.02546
G1 X65.885 Y267.747 E4.05094
G1 X65.94 Y267.671 E4.05406
G1 X66.37 Y267.039 E4.07949
G1 X66.418 Y266.958 E4.08262
G1 X66.79 Y266.291 E4.10802
G1 X66.831 Y266.207 E4.11113
G1 X67.143 Y265.509 E4.13656
G0 F6000 X67.548 Y265.678
G1 F2700 E-0.86344
G0 F6000 X67.99 Y264.874
G0 X66.6 Y264.442
G0 X77.399 Y267.047
G0 X76.322 Y266.041
G0 X77.228 Y265.09
;TYPE:WALL-INNER
G1 F2700 E4.13656
G1 F300 X76.88 Y265.655 E4.15863
G1 X76.48 Y266.179 E4.18055
G1 X76.03 Y266.661 E4.20249
G1 X75.537 Y267.092 E4.22427
G1 X74.99 Y267.48 E4.24657
G1 X58.047 Y278.312 E4.91542
G1 X57.417 Y278.673 E4.93957
G1 X56.78 Y278.964 E4.96286
G1 X56.099 Y279.202 E4.98686
G1 X55.43 Y279.368 E5.00978
G1 X54.716 Y279.475 E5.0338
G1 X54.023 Y279.515 E5.05688
G1 X53.307 Y279.488 E5.08072
G1 X52.607 Y279.397 E5.10419
G1 X51.92 Y279.241 E5.12762
G1 X51.25 Y279.023 E5.15106
G1 X50.602 Y278.741 E5.17456
G1 X49.984 Y278.403 E5.19799
G1 X49.4 Y278.007 E5.22146
G1 X48.85 Y277.556 E5.24512
G1 X48.343 Y277.053 E5.26887
G1 X47.896 Y276.519 E5.29203
G1 X47.495 Y275.937 E5.31554
G1 X47.15 Y275.319 E5.33908
G1 X46.861 Y274.67 E5.36271
G1 X46.635 Y273.999 E5.38626
G1 X46.472 Y273.308 E5.40987
G1 X46.377 Y272.631 E5.43261
G1 X46.342 Y271.858 E5.45835
G1 X46.342 Y251.94 E6.12082
G1 X46.379 Y251.194 E6.14567
G1 X46.473 Y250.515 E6.16846
G1 X46.642 Y249.808 E6.19264
G1 X46.863 Y249.153 E6.21563
G1 X47.157 Y248.495 E6.2396
G1 X47.496 Y247.891 E6.26264
G1 X47.903 Y247.304 E6.2864
G1 X48.347 Y246.773 E6.30942
G1 X48.859 Y246.268 E6.33334
G1 X49.402 Y245.823 E6.35669
G1 X49.993 Y245.424 E6.38041
G1 X50.62 Y245.081 E6.40418
G1 X51.267 Y244.803 E6.4276
G1 X51.937 Y244.585 E6.45103
G1 X52.633 Y244.432 E6.47474
G1 X53.325 Y244.343 E6.49794
G1 X54.041 Y244.316 E6.52177
G1 X54.711 Y244.354 E6.54409
G1 X55.426 Y244.462 E6.56814
G1 X56.132 Y244.638 E6.59234
G1 X56.793 Y244.871 E6.61565
G1 X57.435 Y245.166 E6.63915
G1 X58.041 Y245.516 E6.66243
G1 X75.009 Y256.363 E7.33225
G1 X75.54 Y256.743 E7.35397
G1 X76.042 Y257.183 E7.37617
G1 X76.482 Y257.657 E7.39768
G1 X76.883 Y258.182 E7.41965
G1 X77.238 Y258.761 E7.44224
G1 X77.518 Y259.341 E7.46366
G1 X77.746 Y259.967 E7.48582
G1 X77.909 Y260.606 E7.50775
G1 X78.008 Y261.262 E7.52982
G1 X78.04 Y261.921 E7.55176
G1 X78.007 Y262.591 E7.57408
G1 X77.909 Y263.232 E7.59564
G1 X77.746 Y263.868 E7.61748
G1 X77.514 Y264.501 E7.6399
G1 X77.228 Y265.09 E7.66168
G0 F6000 X77.579 Y265.284
;TYPE:WALL-OUTER
G1 F300 X77.212 Y265.88 E7.68496
G1 X76.789 Y266.434 E7.70814
G1 X76.308 Y266.948 E7.73156
G1 X75.786 Y267.405 E7.75463
G1 X75.205 Y267.817 E7.77832
G1 X58.246 Y278.659 E8.4478
G1 X57.599 Y279.03 E8.47261
G1 X56.926 Y279.337 E8.49721
G1 X56.218 Y279.584 E8.52215
G1 X55.504 Y279.762 E8.54662
G1 X54.765 Y279.873 E8.57148
G1 X54.02 Y279.915 E8.5963
G1 X53.274 Y279.887 E8.62113
G1 X52.542 Y279.792 E8.64568
G1 X51.814 Y279.627 E8.6705
G1 X51.106 Y279.396 E8.69527
G1 X50.425 Y279.1 E8.71997
G1 X49.779 Y278.747 E8.74446
G1 X49.158 Y278.326 E8.76941
G1 X48.58 Y277.852 E8.79427
G1 X48.047 Y277.323 E8.81925
G1 X47.582 Y276.767 E8.84336
G1 X47.155 Y276.148 E8.86837
G1 X46.787 Y275.49 E8.89344
G1 X46.49 Y274.822 E8.91776
G1 X46.251 Y274.112 E8.94267
G1 X46.078 Y273.381 E8.96766
G1 X45.978 Y272.661 E8.99184
G1 X45.942 Y271.876 E9.01797
G1 X45.942 Y251.92 E9.68171
G1 X45.979 Y251.164 E9.70689
G1 X46.08 Y250.439 E9.73123
G1 X46.257 Y249.697 E9.7566
G1 X46.489 Y249.01 E9.78072
G1 X46.8 Y248.315 E9.80605
G1 X47.159 Y247.674 E9.83048
G1 X47.585 Y247.06 E9.85534
G1 X48.051 Y246.503 E9.87949
G1 X48.589 Y245.972 E9.90463
G1 X49.167 Y245.498 E9.9295
G1 X49.781 Y245.084 E9.95413
G1 X50.44 Y244.724 E9.9791
G1 X51.127 Y244.428 E10.00398
G1 X51.838 Y244.197 E10.02885
G1 X52.563 Y244.037 E10.05354
G1 X53.292 Y243.944 E10.07798
G1 X54.038 Y243.916 E10.10281
G1 X54.761 Y243.957 E10.1269
G1 X55.498 Y244.068 E10.15169
G1 X56.245 Y244.254 E10.17729
G1 X56.941 Y244.499 E10.20183
G1 X57.62 Y244.811 E10.22669
G1 X58.251 Y245.176 E10.25093
G1 X75.235 Y256.033 E10.92138
G1 X75.793 Y256.432 E10.94419
G1 X76.317 Y256.892 E10.96739
G1 X76.791 Y257.402 E10.99054
G1 X77.212 Y257.953 E11.01361
G1 X77.589 Y258.568 E11.0376
G1 X77.888 Y259.188 E11.06049
G1 X78.13 Y259.851 E11.08397
G1 X78.302 Y260.527 E11.10717
G1 X78.407 Y261.222 E11.13055
G1 X78.441 Y261.922 E11.15386
G1 X78.406 Y262.622 E11.17717
G1 X78.301 Y263.314 E11.20045
G1 X78.126 Y263.995 E11.22383
G1 X77.884 Y264.655 E11.24721
G1 X77.579 Y265.284 E11.27046
G0 F6000 X77.194 Y265.073
G0 X76.886 Y264.901
;TYPE:SKIN
G1 F300 X76.555 Y265.439 E11.29147
G1 X76.184 Y265.925 E11.31181
G1 X75.763 Y266.376 E11.33233
G1 X75.292 Y266.788 E11.35314
G1 X74.772 Y267.156 E11.37433
G1 X57.844 Y277.978 E12.04258
G1 X57.235 Y278.328 E12.06594
G1 X56.632 Y278.602 E12.08797
G1 X55.983 Y278.829 E12.11084
G1 X55.362 Y278.984 E12.13213
G1 X54.679 Y279.085 E12.15509
G1 X54.015 Y279.125 E12.17722
G1 X53.33 Y279.098 E12.20002
G1 X52.678 Y279.013 E12.22189
G1 X52.031 Y278.867 E12.24395
G1 X51.383 Y278.655 E12.26662
G1 X50.776 Y278.392 E12.28863
G1 X50.191 Y278.073 E12.31079
G1 X49.633 Y277.693 E12.33324
G1 X49.113 Y277.267 E12.3556
G1 X48.625 Y276.783 E12.37846
G1 X48.212 Y276.289 E12.39988
G1 X47.826 Y275.729 E12.4225
G1 X47.499 Y275.145 E12.44476
G1 X47.223 Y274.524 E12.46736
G1 X47.012 Y273.894 E12.48946
G1 X46.852 Y273.218 E12.51256
G1 X46.767 Y272.602 E12.53325
G1 X46.732 Y271.858 E12.55802
G1 X46.732 Y251.959 E13.21986
G1 X46.769 Y251.213 E13.24471
G1 X46.854 Y250.6 E13.26529
G1 X47.017 Y249.917 E13.28864
G1 X47.226 Y249.299 E13.31034
G1 X47.51 Y248.662 E13.33354
G1 X47.831 Y248.09 E13.35536
G1 X48.21 Y247.545 E13.37743
G1 X48.64 Y247.03 E13.39975
G1 X49.111 Y246.566 E13.42174
G1 X49.639 Y246.133 E13.44445
G1 X50.196 Y245.757 E13.4668
G1 X50.783 Y245.436 E13.48905
G1 X51.409 Y245.167 E13.51172
G1 X52.04 Y244.962 E13.53378
G1 X52.708 Y244.815 E13.55653
G1 X53.345 Y244.733 E13.57789
G1 X54.034 Y244.706 E13.60083
G1 X54.674 Y244.743 E13.62215
G1 X55.358 Y244.846 E13.64516
G1 X56.015 Y245.011 E13.66769
G1 X56.639 Y245.231 E13.68969
G1 X57.272 Y245.521 E13.71285
G1 X57.831 Y245.845 E13.73434
G1 X74.791 Y256.687 E14.40385
G1 X75.301 Y257.051 E14.42469
G1 X75.769 Y257.462 E14.4454
G1 X76.186 Y257.911 E14.46578
G1 X76.555 Y258.394 E14.486
G1 X76.899 Y258.955 E14.50789
G1 X77.157 Y259.49 E14.52764
G1 X77.375 Y260.089 E14.54884
G1 X77.525 Y260.68 E14.56912
G1 X77.618 Y261.297 E14.58988
G1 X77.65 Y261.922 E14.61069
G1 X77.619 Y262.552 E14.63167
G1 X77.526 Y263.156 E14.652
G1 X77.371 Y263.757 E14.67264
G1 X77.157 Y264.343 E14.69339
G1 X76.886 Y264.901 E14.71402
G1 F2700 E9.71402
G0 F6000 X77.13 Y265.038
G0 X76.322 Y266.041
G0 X77.399 Y267.047
G0 X66.789 Y263.68
G0 X68.201 Y264.034
G1 F2700 E14.71402
G0 F6000 X68.43 Y263.912
G1 F300 X68.556 Y263.115 E14.74086
G1 X68.62 Y262.198 E14.77143
G1 X68.622 Y262.07 E14.77569
G1 X68.605 Y261.26 E14.80264
G1 X68.593 Y261.134 E14.80685
G1 X68.505 Y260.33 E14.83375
G1 X68.326 Y259.428 E14.86433
G1 X68.292 Y259.305 E14.86858
G1 X68.063 Y258.527 E14.89555
G1 X67.73 Y257.675 E14.92598
G1 X67.674 Y257.556 E14.93035
G1 X67.318 Y256.849 E14.95668
G1 X67.256 Y256.738 E14.96091
G1 X66.831 Y256.049 E14.98783
G1 X66.756 Y255.944 E14.99212
G1 X66.282 Y255.309 E15.01848
G1 X66.2 Y255.209 E15.02278
G1 X65.661 Y254.609 E15.04961
G1 X65.57 Y254.521 E15.05382
G1 X64.991 Y253.977 E15.08024
G1 X64.892 Y253.894 E15.08454
G1 X64.259 Y253.4 E15.11124
G1 X64.153 Y253.327 E15.11553
G1 X63.482 Y252.892 E15.14212
G1 X63.37 Y252.828 E15.14641
