;FLAVOR:Marlin
;TIME:4936
;Filament used: 2.3005m
;Layer height: 0.2
;MINX:23.962
;MINY:239.486
;MINZ:0.2
;MAXX:58.193
;MAXY:276.9
;MAXZ:35
;Generated with Cura_SteamEngine 4.12.1
M140 S65
M105
M190 S65
M104 S215
M105
M109 S215
M82 ;absolute extrusion mode
M201 X500.00 Y500.00 Z100.00 E5000.00 ;Setup machine max acceleration
M203 X500.00 Y500.00 Z10.00 E50.00 ;Setup machine max feedrate
M204 P500.00 R1000.00 T500.00 ;Setup Print/Retract/Travel acceleration
M205 X8.00 Y8.00 Z0.40 E5.00 ;Setup Jerk
M220 S100 ;Reset Feedrate
M221 S100 ;Reset Flowrate

G28 ;Home

G92 E0 ;Reset Extruder
G1 Z2.0 F3000 ;Move Z Axis up
G1 X10.1 Y20 Z0.28 F5000.0 ;Move to start position
G1 X10.1 Y200.0 Z0.28 F1500.0 E15 ;Draw the first line
G1 X10.4 Y200.0 Z0.28 F5000.0 ;Move to side a little
G1 X10.4 Y20 Z0.28 F1500.0 E30 ;Draw the second line
G92 E0 ;Reset Extruder
G1 Z2.0 F3000 ;Move Z Axis up

G92 E0
G92 E0
G1 F2700 E-5
;LAYER_COUNT:175
;LAYER:0
M107
;MESH:electronics_platform.v10.stl
G0 F6000 X50.997 Y260.992 Z0.2
;TYPE:WALL-INNER
G1 F2700 E0
G1 F300 X51.26 Y260.379 E0.02219
G1 X51.445 Y259.74 E0.04431
G1 X51.544 Y259.079 E0.06654
G1 X51.558 Y258.414 E0.08866
G1 X51.489 Y257.75 E0.11087
G1 X51.334 Y257.102 E0.13303
G1 X51.097 Y256.479 E0.1552
G1 X50.783 Y255.891 E0.17737
G1 X50.397 Y255.349 E0.1995
G1 X49.944 Y254.859 E0.2217
G1 X49.432 Y254.433 E0.24385
G1 X48.87 Y254.074 E0.26603
G1 X48.266 Y253.791 E0.28821
G1 X47.632 Y253.587 E0.31037
G1 X46.977 Y253.466 E0.33252
G1 X46.311 Y253.43 E0.3547
G1 X45.646 Y253.48 E0.37688
G1 X44.994 Y253.613 E0.39902
G1 X44.363 Y253.829 E0.4212
G1 X43.766 Y254.124 E0.44335
G1 X43.211 Y254.494 E0.46553
G1 X42.708 Y254.93 E0.48767
G1 X42.264 Y255.428 E0.50986
G1 X41.888 Y255.979 E0.53205
G1 X41.586 Y256.572 E0.55418
G1 X41.362 Y257.2 E0.57636
G1 X41.22 Y257.851 E0.59852
G1 X41.162 Y258.516 E0.62072
G1 X41.19 Y259.181 E0.64286
G1 X41.303 Y259.838 E0.66503
G1 X41.499 Y260.475 E0.6872
G1 X41.774 Y261.082 E0.70936
G1 X42.125 Y261.648 E0.73152
G1 X42.546 Y262.165 E0.75369
G1 X43.03 Y262.625 E0.7759
G1 X43.567 Y263.018 E0.79803
G1 X44.152 Y263.339 E0.82023
G1 X44.771 Y263.584 E0.84237
G1 X45.419 Y263.746 E0.86458
G1 X46.079 Y263.824 E0.88669
G1 X46.747 Y263.818 E0.90891
G1 X47.406 Y263.726 E0.93104
G1 X48.049 Y263.551 E0.9532
G1 X48.665 Y263.295 E0.97539
G1 X49.242 Y262.962 E0.99755
G1 X49.772 Y262.558 E1.01971
G1 X50.246 Y262.09 E1.04187
G1 X50.656 Y261.565 E1.06402
G1 X50.997 Y260.992 E1.0862
G0 F6000 X50.64 Y260.81
;TYPE:WALL-OUTER
G1 F300 X50.883 Y260.244 E1.10669
G1 X51.053 Y259.654 E1.12711
G1 X51.145 Y259.045 E1.14759
G1 X51.158 Y258.431 E1.16802
G1 X51.094 Y257.818 E1.18852
G1 X50.951 Y257.22 E1.20897
G1 X50.732 Y256.645 E1.22944
G1 X50.442 Y256.102 E1.24991
G1 X50.086 Y255.602 E1.27032
G1 X49.668 Y255.15 E1.2908
G1 X49.195 Y254.756 E1.31128
G1 X48.677 Y254.425 E1.33172
G1 X48.119 Y254.164 E1.35221
G1 X47.534 Y253.976 E1.37265
G1 X46.93 Y253.864 E1.39308
G1 X46.315 Y253.831 E1.41356
G1 X45.701 Y253.877 E1.43404
G1 X45.099 Y254 E1.45448
G1 X44.517 Y254.199 E1.47494
G1 X43.966 Y254.471 E1.49538
G1 X43.454 Y254.813 E1.51585
G1 X42.989 Y255.215 E1.5363
G1 X42.58 Y255.675 E1.55677
G1 X42.233 Y256.183 E1.57723
G1 X41.954 Y256.731 E1.59769
G1 X41.747 Y257.31 E1.61814
G1 X41.616 Y257.911 E1.6386
G1 X41.563 Y258.525 E1.65909
G1 X41.589 Y259.139 E1.67953
G1 X41.693 Y259.745 E1.69998
G1 X41.874 Y260.333 E1.72045
G1 X42.128 Y260.893 E1.7409
G1 X42.452 Y261.416 E1.76136
G1 X42.84 Y261.893 E1.78181
G1 X43.287 Y262.317 E1.8023
G1 X43.782 Y262.68 E1.82272
G1 X44.322 Y262.976 E1.8432
G1 X44.894 Y263.202 E1.86366
G1 X45.491 Y263.352 E1.88413
G1 X46.101 Y263.424 E1.90456
G1 X46.717 Y263.418 E1.92505
G1 X47.326 Y263.333 E1.9455
G1 X47.919 Y263.172 E1.96594
G1 X48.487 Y262.936 E1.9864
G1 X49.02 Y262.628 E2.00687
G1 X49.509 Y262.255 E2.02733
G1 X49.947 Y261.823 E2.04779
G1 X50.325 Y261.339 E2.06821
G1 X50.64 Y260.81 E2.08869
G0 F6000 X51.032 Y261.009
G1 F2700 E-2.91131
G0 F6000 X50.814 Y261.673
G0 X49.611 Y260.85
G0 X58.193 Y268.318
G0 X56.718 Y268.318
G0 X56.629 Y270.457
;TYPE:WALL-INNER
G1 F2700 E2.08869
G1 F300 X56.408 Y271.113 E2.11171
G1 X56.114 Y271.771 E2.13569
G1 X55.775 Y272.375 E2.15872
G1 X55.367 Y272.964 E2.18255
G1 X54.919 Y273.496 E2.20569
G1 X54.411 Y273.998 E2.22944
G1 X53.87 Y274.443 E2.25274
G1 X53.271 Y274.847 E2.27677
G1 X52.663 Y275.179 E2.29981
G1 X52.001 Y275.464 E2.32378
G1 X51.339 Y275.679 E2.34693
G1 X50.652 Y275.833 E2.37035
G1 X49.955 Y275.924 E2.39373
G1 X49.239 Y275.95 E2.41756
G1 X48.547 Y275.908 E2.44062
G1 X47.845 Y275.805 E2.46422
G1 X47.179 Y275.64 E2.48704
G1 X46.506 Y275.407 E2.51072
G1 X45.868 Y275.117 E2.53403
G1 X45.23 Y274.75 E2.55851
G1 X28.254 Y263.898 E3.22865
G1 X27.738 Y263.529 E3.24974
G1 X27.228 Y263.083 E3.27228
G1 X26.789 Y262.61 E3.29374
G1 X26.382 Y262.076 E3.31607
G1 X26.038 Y261.516 E3.33793
G1 X25.751 Y260.923 E3.35984
G1 X25.524 Y260.298 E3.38196
G1 X25.361 Y259.664 E3.40373
G1 X25.263 Y259.007 E3.42583
G1 X25.23 Y258.344 E3.44791
G1 X25.263 Y257.675 E3.47018
G1 X25.361 Y257.034 E3.49175
G1 X25.525 Y256.399 E3.51356
G1 X25.757 Y255.765 E3.53602
G1 X26.046 Y255.169 E3.55805
G1 X26.391 Y254.611 E3.57987
G1 X26.785 Y254.094 E3.60149
G1 X27.242 Y253.607 E3.6237
G1 X27.744 Y253.167 E3.6459
G1 X28.29 Y252.779 E3.66818
G1 X45.22 Y241.957 E4.33649
G1 X45.845 Y241.597 E4.36048
G1 X45.932 Y241.555 E4.36369
G1 X46.464 Y241.312 E4.38314
G1 X46.575 Y241.27 E4.38709
G1 X47.14 Y241.073 E4.40699
G1 X47.225 Y241.048 E4.40994
G1 X47.792 Y240.909 E4.42936
G1 X47.891 Y240.89 E4.43271
G1 X48.551 Y240.79 E4.45491
G1 X49.247 Y240.751 E4.4781
G1 X49.962 Y240.778 E4.50189
G1 X50.664 Y240.869 E4.52544
G1 X51.35 Y241.025 E4.54884
G1 X52.02 Y241.243 E4.57227
G1 X52.669 Y241.525 E4.59581
G1 X53.285 Y241.862 E4.61916
G1 X53.879 Y242.264 E4.64302
G1 X54.414 Y242.704 E4.66606
G1 X54.927 Y243.213 E4.69009
G1 X55.374 Y243.747 E4.71325
G1 X55.776 Y244.33 E4.73681
G1 X56.122 Y244.947 E4.76034
G1 X56.411 Y245.599 E4.78406
G1 X56.635 Y246.265 E4.80743
G1 X56.8 Y246.959 E4.83115
G1 X56.894 Y247.635 E4.85385
G1 X56.928 Y248.408 E4.87959
G1 X56.928 Y268.328 E5.54213
G1 X56.893 Y269.072 E5.5669
G1 X56.798 Y269.751 E5.58971
G1 X56.629 Y270.457 E5.61385
G0 F6000 X57.014 Y270.568
;TYPE:WALL-OUTER
G1 F300 X56.782 Y271.256 E5.638
G1 X56.471 Y271.951 E5.66333
G1 X56.112 Y272.592 E5.68776
G1 X55.69 Y273.201 E5.7124
G1 X55.209 Y273.773 E5.73726
G1 X54.681 Y274.294 E5.76193
G1 X54.105 Y274.767 E5.78672
G1 X53.483 Y275.187 E5.81168
G1 X52.84 Y275.538 E5.83605
G1 X52.145 Y275.838 E5.86123
G1 X51.446 Y276.065 E5.88567
G1 X50.714 Y276.229 E5.91062
G1 X49.988 Y276.323 E5.93497
G1 X49.24 Y276.35 E5.95986
G1 X48.498 Y276.306 E5.98459
G1 X47.775 Y276.199 E6.0089
G1 X47.065 Y276.024 E6.03322
G1 X47.017 Y276.009 E6.03489
G1 X46.369 Y275.783 E6.05772
G1 X46.317 Y275.762 E6.05958
G1 X45.702 Y275.481 E6.08207
G1 X45.655 Y275.457 E6.08383
G1 X45.02 Y275.09 E6.10822
G1 X28.028 Y264.228 E6.77898
G1 X27.485 Y263.84 E6.80118
G1 X26.953 Y263.374 E6.8247
G1 X26.48 Y262.865 E6.84781
G1 X26.053 Y262.305 E6.87123
G1 X25.687 Y261.709 E6.89449
G1 X25.381 Y261.076 E6.91788
G1 X25.143 Y260.421 E6.94106
G1 X24.967 Y259.737 E6.96455
G1 X24.864 Y259.045 E6.98782
G1 X24.829 Y258.344 E7.01116
G1 X24.864 Y257.644 E7.03447
G1 X24.969 Y256.952 E7.05775
G1 X25.145 Y256.272 E7.08112
G1 X25.387 Y255.611 E7.10453
G1 X25.692 Y254.982 E7.12778
G1 X26.065 Y254.378 E7.15139
G1 X26.406 Y253.929 E7.17014
G1 X26.482 Y253.832 E7.17424
G1 X26.963 Y253.319 E7.19763
G1 X27.494 Y252.854 E7.22111
G1 X28.058 Y252.453 E7.24412
G1 X45.02 Y241.61 E7.9137
G1 X45.65 Y241.247 E7.93788
G1 X45.766 Y241.191 E7.94217
G1 X46.314 Y240.941 E7.9622
G1 X46.432 Y240.896 E7.9664
G1 X47.008 Y240.695 E7.98669
G1 X47.123 Y240.662 E7.99067
G1 X47.71 Y240.518 E8.01078
G1 X47.831 Y240.494 E8.01488
G1 X48.5 Y240.393 E8.03738
G1 X49.251 Y240.351 E8.0624
G1 X49.997 Y240.379 E8.08723
G1 X50.728 Y240.474 E8.11175
G1 X51.456 Y240.639 E8.13657
G1 X52.164 Y240.87 E8.16134
G1 X52.846 Y241.166 E8.18607
G1 X53.49 Y241.518 E8.21048
G1 X54.122 Y241.946 E8.23587
G1 X54.684 Y242.409 E8.26009
G1 X55.223 Y242.943 E8.28532
G1 X55.688 Y243.499 E8.30943
G1 X56.116 Y244.119 E8.33449
G1 X56.484 Y244.776 E8.35953
G1 X56.781 Y245.444 E8.38385
G1 X57.02 Y246.155 E8.4088
G1 X57.193 Y246.886 E8.43378
G1 X57.293 Y247.605 E8.45793
G1 X57.328 Y248.39 E8.48406
G1 X57.328 Y268.347 E9.14783
G1 X57.292 Y269.102 E9.17297
G1 X57.191 Y269.827 E9.19732
G1 X57.014 Y270.568 E9.22266
G0 F6000 X56.592 Y270.447
G0 X56.253 Y270.352
;TYPE:SKIN
G1 F300 X56.043 Y270.974 E9.24449
G1 X55.765 Y271.596 E9.26715
G1 X55.442 Y272.173 E9.28915
G1 X55.059 Y272.726 E9.31152
G1 X54.638 Y273.225 E9.33324
G1 X54.147 Y273.71 E9.35619
G1 X53.643 Y274.125 E9.3779
G1 X53.069 Y274.512 E9.40093
G1 X52.492 Y274.828 E9.42281
G1 X51.86 Y275.1 E9.44569
G1 X51.228 Y275.305 E9.46779
G1 X50.584 Y275.449 E9.48974
G1 X49.932 Y275.534 E9.51161
G1 X49.249 Y275.56 E9.53434
G1 X48.579 Y275.518 E9.55667
G1 X47.915 Y275.421 E9.57899
G1 X47.298 Y275.268 E9.60013
G1 X46.651 Y275.044 E9.62291
G1 X46.046 Y274.77 E9.645
G1 X45.433 Y274.416 E9.66854
G1 X28.472 Y263.574 E10.33807
G1 X27.983 Y263.225 E10.35806
G1 X27.496 Y262.799 E10.37958
G1 X27.085 Y262.356 E10.39967
G1 X26.704 Y261.856 E10.42058
G1 X26.382 Y261.332 E10.44104
G1 X26.112 Y260.774 E10.46166
G1 X25.896 Y260.178 E10.48274
G1 X25.744 Y259.587 E10.50304
G1 X25.653 Y258.97 E10.52378
G1 X25.62 Y258.343 E10.54466
G1 X25.651 Y257.714 E10.56561
G1 X25.744 Y257.113 E10.58584
G1 X25.901 Y256.506 E10.60669
G1 X26.114 Y255.923 E10.62733
G1 X26.388 Y255.358 E10.64822
G1 X26.718 Y254.824 E10.6691
G1 X27.081 Y254.347 E10.68903
G1 X27.513 Y253.887 E10.71002
G1 X27.983 Y253.476 E10.73079
G1 X28.508 Y253.103 E10.75221
G1 X45.43 Y242.286 E11.4202
G1 X46.018 Y241.946 E11.44279
G1 X46.614 Y241.673 E11.4646
G1 X46.708 Y241.637 E11.46794
G1 X47.269 Y241.441 E11.48771
G1 X47.326 Y241.425 E11.48968
G1 X47.883 Y241.289 E11.50875
G1 X47.953 Y241.275 E11.51112
G1 X48.59 Y241.179 E11.53255
G1 X49.254 Y241.141 E11.55467
G1 X49.941 Y241.168 E11.57754
G1 X50.592 Y241.253 E11.59937
G1 X51.239 Y241.399 E11.62143
G1 X51.888 Y241.611 E11.64414
G1 X52.495 Y241.874 E11.66614
G1 X53.082 Y242.195 E11.6884
G1 X53.646 Y242.577 E11.71105
G1 X54.15 Y242.992 E11.73277
G1 X54.645 Y243.483 E11.75596
G1 X55.063 Y243.983 E11.77763
G1 X55.445 Y244.537 E11.80001
G1 X55.771 Y245.118 E11.82217
G1 X56.046 Y245.739 E11.84476
G1 X56.26 Y246.373 E11.86702
G1 X56.419 Y247.044 E11.88995
G1 X56.504 Y247.66 E11.91064
G1 X56.538 Y248.408 E11.93554
G1 X56.538 Y268.31 E12.59748
G1 X56.503 Y269.043 E12.62189
G1 X56.418 Y269.66 E12.64261
G1 X56.253 Y270.352 E12.66627
G1 F2700 E7.66627
G0 F6000 X56.517 Y270.441
G0 X56.683 Y269.055
G0 X58.158 Y269.123
G0 X49.132 Y261.412
G0 X50.17 Y262.46
G0 X49.845 Y262.641
G1 F2700 E12.66627
G0 F6000 X50.028 Y262.853
G1 F300 X50.538 Y262.35 E12.69009
G1 X50.978 Y261.786 E12.71388
G1 X51.346 Y261.169 E12.73778
G1 X51.628 Y260.51 E12.76162
G1 X51.827 Y259.824 E12.78538
G1 X51.934 Y259.112 E12.80932
G1 X51.948 Y258.398 E12.83308
G1 X51.875 Y257.684 E12.85695
G1 X51.708 Y256.987 E12.88079
G1 X51.452 Y256.317 E12.90464
G1 X51.115 Y255.685 E12.92846
G1 X50.701 Y255.103 E12.95222
G1 X50.213 Y254.576 E12.97611
G1 X49.662 Y254.117 E12.99996
G1 X49.059 Y253.731 E13.02377
G1 X48.409 Y253.428 E13.04763
G1 X47.728 Y253.208 E13.07143
G1 X47.023 Y253.078 E13.09527
G1 X46.307 Y253.04 E13.11912
G1 X45.592 Y253.093 E13.14297
G1 X44.891 Y253.236 E13.16676
G1 X44.213 Y253.468 E13.1906
G1 X43.571 Y253.785 E13.21441
G1 X42.975 Y254.184 E13.23826
G1 X42.433 Y254.651 E13.26206
G1 X41.956 Y255.188 E13.28595
G1 X41.552 Y255.78 E13.30979
G1 X41.227 Y256.418 E13.3336
G1 X40.986 Y257.093 E13.35744
G1 X40.834 Y257.792 E13.38123
G1 X40.772 Y258.507 E13.4051
G1 X40.802 Y259.222 E13.42891
G1 X40.923 Y259.929 E13.45276
G1 X41.134 Y260.613 E13.47657
G1 X41.429 Y261.266 E13.5004
G1 X41.807 Y261.875 E13.52424
G1 X42.259 Y262.43 E13.54805
G1 X42.78 Y262.925 E13.57195
G1 X43.357 Y263.348 E13.59575
G1 X43.986 Y263.692 E13.61959
G1 X44.652 Y263.956 E13.64342
G1 X45.349 Y264.13 E13.66731
G1 X46.058 Y264.214 E13.69106
G1 X46.776 Y264.208 E13.71494
G1 X47.484 Y264.109 E13.73872
G1 X48.176 Y263.921 E13.76257
G1 X48.838 Y263.646 E13.78641
G1 X49.459 Y263.287 E13.81027
G1 X50.028 Y262.853 E13.83407
G1 F2700 E8.83407
G0 F6000 X49.845 Y262.641
G0 X50.854 Y260.919
G0 X51.109 Y260.324
G0 X51.288 Y259.705
G0 X51.384 Y259.065
G0 X51.397 Y258.422
G0 X50.946 Y255.79
G0 X49.707 Y256.56
G0 X57.612 Y245.204
G0 X56.215 Y245.675
G0 X55.939 Y244.847
G1 F2700 E13.83407
G0 F6000 X55.555 Y245.06
G1 F300 X52.617 Y242.122 E13.97227
G0 F6000 X52.828 Y241.739
G0 X51.758 Y241.274
G0 X51.622 Y241.692
G1 F300 X55.984 Y246.054 E14.17744
G0 F6000 X56.206 Y246.842
G1 F300 X50.836 Y241.472 E14.43003
G0 F6000 X50.155 Y241.356
G1 F300 X56.324 Y247.526 E14.72022
G0 F6000 X56.365 Y248.132
G1 F300 X49.544 Y241.312 E15.04104
G0 F6000 X48.983 Y241.316
G1 F300 X56.377 Y248.71 E15.38883
G0 F6000 X56.377 Y249.276
G1 F300 X48.461 Y241.36 E15.76117
G0 F6000 X47.97 Y241.434
G1 F300 X56.377 Y249.842 E16.15664
G0 F6000 X56.377 Y250.407
G1 F300 X47.513 Y241.543 E16.57357
G0 F6000 X47.08 Y241.676
G1 F300 X56.377 Y250.973 E17.01088
G0 F6000 X56.377 Y251.539
G1 F300 X46.664 Y241.825 E17.46777
G0 F6000 X46.276 Y242.003
G1 F300 X56.377 Y252.104 E17.94289
G0 F6000 X56.377 Y252.67
G1 F300 X45.903 Y242.196 E18.43555
G0 F6000 X45.545 Y242.403
G1 F300 X56.377 Y253.236 E18.94508
G0 F6000 X56.377 Y253.801
G1 F300 X45.199 Y242.623 E19.47086
G0 F6000 X44.854 Y242.844
G1 F300 X56.377 Y254.367 E20.01287
G0 F6000 X56.377 Y254.933
G1 F300 X44.509 Y243.065 E20.5711
G0 F6000 X44.164 Y243.285
G1 F300 X56.377 Y255.498 E21.14556
G0 F6000 X56.377 Y256.064
G1 F300 X43.818 Y243.505 E21.7363
G0 F6000 X43.473 Y243.726
G1 F300 X56.377 Y256.63 E22.34326
G0 F6000 X56.377 Y257.195
G1 F300 X43.128 Y243.946 E22.96646
G0 F6000 X42.783 Y244.167
G1 F300 X56.377 Y257.761 E23.60588
G0 F6000 X56.377 Y258.327
G1 F300 X42.438 Y244.388 E24.26152
G0 F6000 X42.093 Y244.608
G1 F300 X56.377 Y258.893 E24.93342
G0 F6000 X56.377 Y259.458
G1 F300 X41.748 Y244.829 E25.62153
G0 F6000 X41.403 Y245.049
G1 F300 X56.377 Y260.024 E26.32588
G0 F6000 X56.377 Y260.59
G1 F300 X50.914 Y255.126 E26.58287
G0 F6000 X50.555 Y255.381
G0 X49.586 Y254.416
G0 X49.867 Y254.079
G1 F300 X41.058 Y245.27 E26.99722
G0 F6000 X40.713 Y245.491
G1 F300 X48.525 Y253.304 E27.36469
G0 F6000 X47.693 Y253.037
G1 F300 X40.368 Y245.711 E27.70926
G0 F6000 X40.022 Y245.932
G1 F300 X47.006 Y252.915 E28.03774
G0 F6000 X46.408 Y252.884
G1 F300 X39.677 Y246.153 E28.35435
G0 F6000 X39.332 Y246.373
G1 F300 X45.869 Y252.91 E28.66183
G0 F6000 X45.367 Y252.973
G1 F300 X38.987 Y246.594 E28.9619
G0 F6000 X38.642 Y246.814
G1 F300 X44.897 Y253.069 E29.25612
G0 F6000 X44.471 Y253.209
G1 F300 X38.297 Y247.035 E29.54652
G0 F6000 X37.952 Y247.256
G1 F300 X44.06 Y253.364 E29.83383
G0 F6000 X43.681 Y253.55
G1 F300 X37.607 Y247.476 E30.11953
G0 F6000 X37.262 Y247.697
G1 F300 X43.322 Y253.757 E30.40457
G0 F6000 X42.983 Y253.984
G1 F300 X36.917 Y247.918 E30.6899
G0 F6000 X36.572 Y248.138
G1 F300 X42.668 Y254.235 E30.97666
G0 F6000 X42.364 Y254.496
G1 F300 X36.227 Y248.359 E31.26532
G0 F6000 X35.882 Y248.579
G1 F300 X42.094 Y254.791 E31.55752
G0 F6000 X41.828 Y255.091
G1 F300 X35.537 Y248.8 E31.85343
G0 F6000 X35.191 Y249.021
G1 F300 X41.599 Y255.428 E32.15482
G0 F6000 X41.377 Y255.771
G1 F300 X34.846 Y249.241 E32.46199
G0 F6000 X34.501 Y249.462
G1 F300 X41.186 Y256.147 E32.77643
G0 F6000 X41.014 Y256.54
G1 F300 X34.156 Y249.682 E33.09901
G0 F6000 X33.811 Y249.903
G1 F300 X40.865 Y256.956 E33.43079
G0 F6000 X40.753 Y257.41
G1 F300 X33.466 Y250.124 E33.77352
G0 F6000 X33.121 Y250.344
G1 F300 X40.665 Y257.888 E34.12837
G0 F6000 X40.62 Y258.409
G1 F300 X32.776 Y250.565 E34.49733
G0 F6000 X32.431 Y250.786
G1 F300 X40.632 Y258.987 E34.88308
G0 F6000 X40.709 Y259.629
G1 F300 X32.086 Y251.006 E35.28868
G0 F6000 X31.741 Y251.227
G1 F300 X40.895 Y260.381 E35.71925
G0 F6000 X41.315 Y260.253
G0 X41.676 Y261.134
G0 X41.286 Y261.338
