;FLAVOR:Marlin
;TIME:5025
;Filament used: 2.48277m
;Layer height: 0.2
;MINX:252.745
;MINY:250.853
;MINZ:0.2
;MAXX:286.11
;MAXY:286.853
;MAXZ:35
;Generated with Cura_SteamEngine 4.12.1
M140 S65
M105
M190 S65
M104 S215
M105
M109 S215
M82 ;absolute extrusion mode
M201 X500.00 Y500.00 Z100.00 E5000.00 ;Setup machine max acceleration
M203 X500.00 Y500.00 Z10.00 E50.00 ;Setup machine max feedrate
M204 P500.00 R1000.00 T500.00 ;Setup Print/Retract/Travel acceleration
M205 X8.00 Y8.00 Z0.40 E5.00 ;Setup Jerk
M220 S100 ;Reset Feedrate
M221 S100 ;Reset Flowrate

G28 ;Home

G92 E0 ;Reset Extruder
G1 Z2.0 F3000 ;Move Z Axis up
G1 X10.1 Y20 Z0.28 F5000.0 ;Move to start position
G1 X10.1 Y200.0 Z0.28 F1500.0 E15 ;Draw the first line
G1 X10.4 Y200.0 Z0.28 F5000.0 ;Move to side a little
G1 X10.4 Y20 Z0.28 F1500.0 E30 ;Draw the second line
G92 E0 ;Reset Extruder
G1 Z2.0 F3000 ;Move Z Axis up

G92 E0
G92 E0
G1 F2700 E-5
;LAYER_COUNT:175
;LAYER:0
M107
;MESH:electronics_platform.v5.stl
G0 F6000 X256.395 Y272.534 Z0.2
;TYPE:WALL-INNER
G1 F2700 E0
G1 F300 X256.755 Y273.344 E0.02948
G1 X256.807 Y273.443 E0.0332
G1 X257.187 Y274.126 E0.0592
G1 X257.247 Y274.22 E0.06291
G1 X257.687 Y274.866 E0.0889
G1 X257.754 Y274.954 E0.09258
G1 X258.25 Y275.56 E0.11863
G1 X258.325 Y275.642 E0.12232
G1 X258.874 Y276.203 E0.14843
G1 X258.957 Y276.278 E0.15215
G1 X259.547 Y276.783 E0.17798
G1 X259.637 Y276.852 E0.18175
G1 X260.272 Y277.304 E0.20768
G1 X260.364 Y277.364 E0.21133
G1 X261.045 Y277.763 E0.23758
G1 X261.144 Y277.813 E0.24127
G1 X261.849 Y278.147 E0.26722
G1 X261.952 Y278.19 E0.27093
G1 X262.687 Y278.46 E0.29697
G1 X262.792 Y278.492 E0.30062
G1 X263.551 Y278.7 E0.3268
G1 X264.427 Y278.859 E0.35641
G1 X264.536 Y278.872 E0.36006
G1 X265.316 Y278.941 E0.38611
G1 X265.426 Y278.945 E0.38977
G1 X266.218 Y278.946 E0.41611
G1 X267.106 Y278.87 E0.44575
G1 X267.989 Y278.715 E0.47557
G1 X268.841 Y278.484 E0.50493
G1 X268.947 Y278.45 E0.50863
G1 X269.683 Y278.177 E0.53474
G1 X269.784 Y278.133 E0.53841
G1 X270.492 Y277.798 E0.56446
G1 X270.589 Y277.745 E0.56813
G1 X271.266 Y277.348 E0.59424
G1 X271.358 Y277.285 E0.59795
G1 X271.994 Y276.834 E0.62388
G1 X272.081 Y276.763 E0.62761
G1 X272.676 Y276.254 E0.65366
G1 X272.755 Y276.176 E0.65735
G1 X273.301 Y275.619 E0.68329
G1 X273.375 Y275.534 E0.68704
G1 X273.868 Y274.93 E0.71297
G1 X273.934 Y274.841 E0.71666
G1 X274.374 Y274.193 E0.74271
G1 X274.432 Y274.097 E0.74644
G1 X274.813 Y273.414 E0.77245
G1 X274.861 Y273.314 E0.77614
G1 X275.18 Y272.602 E0.80209
G1 X275.221 Y272.498 E0.80581
G1 X275.475 Y271.753 E0.83199
G1 X275.505 Y271.647 E0.83565
G1 X275.693 Y270.891 E0.86156
G1 X275.714 Y270.782 E0.86525
G1 X275.836 Y270.004 E0.89145
G1 X275.846 Y269.893 E0.89515
G1 X275.897 Y269.119 E0.92095
G1 X275.899 Y269.008 E0.92464
G1 X275.883 Y268.221 E0.95083
G1 X275.873 Y268.11 E0.95453
G1 X275.787 Y267.332 E0.98057
G1 X275.768 Y267.222 E0.98428
G1 X275.613 Y266.45 E1.01047
G1 X275.363 Y265.6 E1.03994
G1 X275.325 Y265.494 E1.04368
G1 X275.038 Y264.766 E1.06971
G1 X274.991 Y264.665 E1.07341
G1 X274.641 Y263.969 E1.09933
G1 X274.587 Y263.872 E1.10302
G1 X274.173 Y263.204 E1.12916
G1 X274.11 Y263.114 E1.13281
G1 X273.643 Y262.488 E1.15879
G1 X273.572 Y262.402 E1.1625
G1 X273.049 Y261.819 E1.18855
G1 X272.97 Y261.74 E1.19226
G1 X272.399 Y261.206 E1.21826
G1 X272.314 Y261.134 E1.22197
G1 X271.696 Y260.652 E1.24804
G1 X271.604 Y260.59 E1.25173
G1 X270.948 Y260.163 E1.27776
G1 X270.85 Y260.108 E1.2815
G1 X270.158 Y259.741 E1.30755
G1 X270.057 Y259.696 E1.31123
G1 X269.34 Y259.394 E1.3371
G1 X269.234 Y259.356 E1.34085
G1 X268.49 Y259.119 E1.36682
G1 X268.383 Y259.09 E1.37051
G1 X267.619 Y258.92 E1.39654
G1 X267.509 Y258.901 E1.40025
G1 X266.735 Y258.798 E1.42622
G1 X266.625 Y258.789 E1.42989
G1 X265.845 Y258.754 E1.45586
G1 X265.732 Y258.754 E1.45962
G1 X264.946 Y258.789 E1.48579
G1 X264.835 Y258.801 E1.4895
G1 X264.063 Y258.905 E1.51541
G1 X263.954 Y258.925 E1.5191
G1 X263.186 Y259.097 E1.54527
G1 X263.079 Y259.129 E1.54899
G1 X262.331 Y259.367 E1.5751
G1 X261.511 Y259.71 E1.60466
G1 X261.412 Y259.759 E1.60833
G1 X260.719 Y260.124 E1.63438
G1 X260.624 Y260.183 E1.6381
G1 X259.967 Y260.609 E1.66415
G1 X259.878 Y260.675 E1.66783
G1 X259.262 Y261.155 E1.69381
G1 X259.179 Y261.229 E1.69751
G1 X258.608 Y261.764 E1.72353
G1 X258.531 Y261.845 E1.72725
G1 X258.011 Y262.427 E1.75321
G1 X257.942 Y262.513 E1.75687
G1 X257.473 Y263.14 E1.78292
G1 X257.411 Y263.233 E1.78663
G1 X257 Y263.9 E1.81269
G1 X256.948 Y263.998 E1.81638
G1 X256.599 Y264.695 E1.84231
G1 X256.554 Y264.796 E1.84599
G1 X256.265 Y265.527 E1.87213
G1 X256.231 Y265.633 E1.87583
G1 X256.011 Y266.38 E1.90173
G1 X255.984 Y266.488 E1.90544
G1 X255.83 Y267.255 E1.93145
G1 X255.813 Y267.365 E1.93516
G1 X255.728 Y268.143 E1.96119
G1 X255.721 Y268.254 E1.96489
G1 X255.703 Y269.047 E1.99127
G1 X255.76 Y269.931 E2.02073
G1 X255.774 Y270.041 E2.02442
G1 X255.893 Y270.813 E2.0504
G1 X255.916 Y270.923 E2.05414
G1 X256.106 Y271.683 E2.08019
G1 X256.139 Y271.788 E2.08385
G1 X256.395 Y272.534 E2.11009
G0 F6000 X256.768 Y272.388
;TYPE:WALL-OUTER
G1 F300 X257.116 Y273.171 E2.13859
G1 X257.159 Y273.254 E2.14169
G1 X257.531 Y273.921 E2.1671
G1 X257.581 Y274 E2.17021
G1 X258.012 Y274.632 E2.19565
G1 X258.068 Y274.706 E2.19873
G1 X258.553 Y275.298 E2.22419
G1 X258.616 Y275.367 E2.2273
G1 X259.151 Y275.914 E2.25275
G1 X259.221 Y275.977 E2.25588
G1 X259.8 Y276.473 E2.28124
G1 X259.875 Y276.531 E2.28439
G1 X260.497 Y276.973 E2.30977
G1 X260.575 Y277.024 E2.31287
G1 X261.237 Y277.412 E2.33839
G1 X261.32 Y277.454 E2.34148
G1 X262.011 Y277.781 E2.36691
G1 X262.098 Y277.817 E2.37004
G1 X262.814 Y278.081 E2.39542
G1 X262.903 Y278.108 E2.39852
G1 X263.643 Y278.31 E2.42403
G1 X263.734 Y278.328 E2.42711
G1 X264.486 Y278.463 E2.45253
G1 X264.578 Y278.474 E2.45561
G1 X265.34 Y278.542 E2.48105
G1 X265.433 Y278.545 E2.48415
G1 X266.201 Y278.546 E2.50969
G1 X267.054 Y278.473 E2.53816
G1 X267.902 Y278.324 E2.5668
G1 X268.727 Y278.101 E2.59523
G1 X268.816 Y278.072 E2.59834
G1 X269.534 Y277.806 E2.62381
G1 X269.619 Y277.769 E2.62689
G1 X270.31 Y277.442 E2.65232
G1 X270.392 Y277.397 E2.65543
G1 X271.052 Y277.01 E2.68087
G1 X271.13 Y276.957 E2.68401
G1 X271.752 Y276.515 E2.70939
G1 X271.825 Y276.456 E2.71251
G1 X272.406 Y275.958 E2.73796
G1 X272.473 Y275.893 E2.74107
G1 X273.007 Y275.347 E2.76647
G1 X273.069 Y275.276 E2.7696
G1 X273.552 Y274.685 E2.79499
G1 X273.607 Y274.61 E2.79808
G1 X274.037 Y273.977 E2.82354
G1 X274.086 Y273.896 E2.82668
G1 X274.458 Y273.229 E2.85209
G1 X274.499 Y273.145 E2.8552
G1 X274.811 Y272.447 E2.88062
G1 X274.845 Y272.36 E2.88373
G1 X275.093 Y271.635 E2.90922
G1 X275.118 Y271.545 E2.91232
G1 X275.302 Y270.804 E2.93772
G1 X275.32 Y270.712 E2.94084
G1 X275.439 Y269.956 E2.96629
G1 X275.447 Y269.863 E2.96939
G1 X275.497 Y269.102 E2.99476
G1 X275.499 Y269.008 E2.99789
G1 X275.483 Y268.242 E3.02337
G1 X275.475 Y268.149 E3.02647
G1 X275.391 Y267.388 E3.05194
G1 X275.375 Y267.296 E3.05504
G1 X275.224 Y266.546 E3.08049
G1 X274.983 Y265.724 E3.10898
G1 X274.951 Y265.635 E3.11213
G1 X274.671 Y264.925 E3.13751
G1 X274.631 Y264.84 E3.14064
G1 X274.288 Y264.157 E3.16606
G1 X274.242 Y264.075 E3.16918
G1 X273.839 Y263.424 E3.19465
G1 X273.786 Y263.348 E3.19773
G1 X273.329 Y262.736 E3.22313
G1 X273.269 Y262.664 E3.22625
G1 X272.758 Y262.094 E3.25171
G1 X272.692 Y262.028 E3.25482
G1 X272.133 Y261.505 E3.28028
G1 X272.062 Y261.445 E3.28337
G1 X271.459 Y260.975 E3.3088
G1 X271.382 Y260.922 E3.31191
G1 X270.741 Y260.505 E3.33734
G1 X270.659 Y260.459 E3.34047
G1 X269.983 Y260.101 E3.36591
G1 X269.898 Y260.063 E3.36901
G1 X269.195 Y259.767 E3.39438
G1 X269.106 Y259.735 E3.39752
G1 X268.378 Y259.503 E3.42294
G1 X268.288 Y259.479 E3.42604
G1 X267.541 Y259.312 E3.45149
G1 X267.449 Y259.296 E3.4546
G1 X266.691 Y259.196 E3.48003
G1 X266.599 Y259.188 E3.4831
G1 X265.836 Y259.154 E3.5085
G1 X265.741 Y259.154 E3.51166
G1 X264.976 Y259.188 E3.53713
G1 X264.883 Y259.198 E3.54024
G1 X264.126 Y259.3 E3.56565
G1 X264.034 Y259.317 E3.56876
G1 X263.287 Y259.484 E3.59422
G1 X263.197 Y259.511 E3.59734
G1 X262.469 Y259.743 E3.62276
G1 X261.677 Y260.074 E3.65131
G1 X261.594 Y260.115 E3.65439
G1 X260.917 Y260.472 E3.67984
G1 X260.837 Y260.521 E3.68296
G1 X260.196 Y260.937 E3.70838
G1 X260.121 Y260.993 E3.71149
G1 X259.518 Y261.463 E3.73692
G1 X259.448 Y261.525 E3.74003
G1 X258.89 Y262.048 E3.76547
G1 X258.825 Y262.116 E3.7686
G1 X258.316 Y262.686 E3.79401
G1 X258.258 Y262.758 E3.79709
G1 X257.8 Y263.371 E3.82254
G1 X257.748 Y263.449 E3.82566
G1 X257.347 Y264.1 E3.85109
G1 X257.303 Y264.182 E3.85418
G1 X256.961 Y264.866 E3.87962
G1 X256.923 Y264.951 E3.88271
G1 X256.642 Y265.663 E3.90817
G1 X256.613 Y265.752 E3.91129
G1 X256.397 Y266.484 E3.93667
G1 X256.375 Y266.575 E3.93978
G1 X256.224 Y267.324 E3.9652
G1 X256.21 Y267.417 E3.96833
G1 X256.127 Y268.177 E3.99375
G1 X256.121 Y268.271 E3.99689
G1 X256.103 Y269.039 E4.02244
G1 X256.158 Y269.892 E4.05087
G1 X256.17 Y269.985 E4.05399
G1 X256.286 Y270.74 E4.07939
G1 X256.306 Y270.832 E4.08252
G1 X256.491 Y271.574 E4.10796
G1 X256.519 Y271.663 E4.11106
G1 X256.768 Y272.388 E4.13656
G0 F6000 X256.359 Y272.548
G1 F2700 E-0.86344
G0 F6000 X257.024 Y274.224
G0 X258.309 Y273.534
G0 X252.745 Y278.795
G0 X254.22 Y278.795
G0 X254.14 Y280.245
;TYPE:WALL-INNER
G1 F2700 E4.13656
G1 F300 X254.045 Y279.569 E4.15926
G1 X254.01 Y278.795 E4.18503
G1 X254.01 Y258.878 E4.84747
G1 X254.045 Y258.135 E4.87221
G1 X254.142 Y257.449 E4.89526
G1 X254.308 Y256.747 E4.91925
G1 X254.53 Y256.091 E4.94228
G1 X254.822 Y255.438 E4.96608
G1 X255.164 Y254.831 E4.98925
G1 X255.568 Y254.245 E5.01292
G1 X256.031 Y253.694 E5.03686
G1 X256.534 Y253.199 E5.06033
G1 X257.074 Y252.758 E5.08352
G1 X257.665 Y252.359 E5.10724
G1 X258.287 Y252.019 E5.13081
G1 X258.929 Y251.743 E5.15406
G1 X259.594 Y251.526 E5.17732
G1 X260.28 Y251.371 E5.20071
G1 X260.977 Y251.281 E5.22409
G1 X261.692 Y251.255 E5.24789
G1 X262.385 Y251.294 E5.27097
G1 X263.101 Y251.401 E5.29505
G1 X263.762 Y251.565 E5.3177
G1 X264.447 Y251.804 E5.34183
G1 X265.086 Y252.095 E5.36518
G1 X265.719 Y252.46 E5.38949
G1 X282.685 Y263.307 E6.05925
G1 X283.201 Y263.676 E6.08035
G1 X283.706 Y264.118 E6.10267
G1 X284.154 Y264.599 E6.12453
G1 X284.555 Y265.124 E6.14651
G1 X284.901 Y265.691 E6.1686
G1 X285.187 Y266.281 E6.19041
G1 X285.414 Y266.906 E6.21252
G1 X285.577 Y267.54 E6.23429
G1 X285.676 Y268.198 E6.25643
G1 X285.708 Y268.858 E6.2784
G1 X285.675 Y269.529 E6.30075
G1 X285.577 Y270.17 E6.32232
G1 X285.413 Y270.805 E6.34413
G1 X285.181 Y271.439 E6.36658
G1 X284.895 Y272.028 E6.38836
G1 X284.547 Y272.593 E6.41043
G1 X284.147 Y273.117 E6.43236
G1 X283.694 Y273.601 E6.45441
G1 X283.208 Y274.026 E6.47588
G1 X282.643 Y274.428 E6.49894
G1 X265.715 Y285.249 E7.16717
G1 X265.088 Y285.61 E7.19124
G1 X264.447 Y285.902 E7.21467
G1 X263.765 Y286.14 E7.23869
G1 X263.101 Y286.305 E7.26145
G1 X262.384 Y286.411 E7.28555
G1 X261.688 Y286.452 E7.30874
G1 X260.976 Y286.426 E7.33244
G1 X260.274 Y286.335 E7.35598
G1 X259.588 Y286.179 E7.37938
G1 X258.918 Y285.961 E7.40282
G1 X258.269 Y285.679 E7.42635
G1 X257.656 Y285.344 E7.44959
G1 X257.064 Y284.942 E7.47339
G1 X256.518 Y284.493 E7.4969
G1 X256.011 Y283.991 E7.52063
G1 X255.564 Y283.457 E7.54379
G1 X255.157 Y282.866 E7.56766
G1 X254.817 Y282.259 E7.5908
G1 X254.53 Y281.614 E7.61428
G1 X254.304 Y280.94 E7.63792
G1 X254.14 Y280.245 E7.66167
G0 F6000 X253.746 Y280.318
;TYPE:WALL-OUTER
G1 F300 X253.646 Y279.599 E7.68582
G1 X253.61 Y278.813 E7.71199
G1 X253.61 Y258.859 E8.37566
G1 X253.646 Y258.103 E8.40083
G1 X253.748 Y257.377 E8.42522
G1 X253.924 Y256.634 E8.45061
G1 X254.156 Y255.948 E8.4747
G1 X254.465 Y255.256 E8.49991
G1 X254.828 Y254.613 E8.52447
G1 X255.247 Y254.004 E8.54905
G1 X255.737 Y253.422 E8.57436
G1 X256.266 Y252.901 E8.59905
G1 X256.838 Y252.434 E8.62361
G1 X257.453 Y252.019 E8.64829
G1 X258.107 Y251.662 E8.67307
G1 X258.789 Y251.368 E8.69777
G1 X259.489 Y251.14 E8.72226
G1 X260.215 Y250.976 E8.74701
G1 X260.944 Y250.882 E8.77146
G1 X261.688 Y250.855 E8.79622
G1 X262.434 Y250.896 E8.82107
G1 X263.172 Y251.007 E8.84589
G1 X263.883 Y251.183 E8.87026
G1 X264.593 Y251.431 E8.89527
G1 X265.273 Y251.741 E8.92013
G1 X265.919 Y252.113 E8.94492
G1 X282.911 Y262.977 E9.61571
G1 X283.454 Y263.365 E9.63791
G1 X283.986 Y263.831 E9.66143
G1 X284.459 Y264.339 E9.68452
G1 X284.884 Y264.896 E9.70782
G1 X285.252 Y265.498 E9.73129
G1 X285.557 Y266.128 E9.75457
G1 X285.795 Y266.783 E9.77775
G1 X285.971 Y267.467 E9.80124
G1 X286.075 Y268.159 E9.82452
G1 X286.109 Y268.859 E9.84783
G1 X286.074 Y269.56 E9.87117
G1 X285.969 Y270.252 E9.89445
G1 X285.793 Y270.932 E9.91781
G1 X285.551 Y271.593 E9.94122
G1 X285.246 Y272.222 E9.96447
G1 X284.879 Y272.818 E9.98775
G1 X284.456 Y273.372 E10.01094
G1 X283.972 Y273.889 E10.03449
G1 X283.453 Y274.343 E10.05743
G1 X282.873 Y274.755 E10.08109
G1 X265.914 Y285.596 E10.75055
G1 X265.271 Y285.966 E10.77522
G1 X264.593 Y286.275 E10.8
G1 X263.886 Y286.522 E10.82491
G1 X263.172 Y286.699 E10.84938
G1 X262.433 Y286.809 E10.87423
G1 X261.686 Y286.853 E10.89912
G1 X260.941 Y286.825 E10.92391
G1 X260.21 Y286.73 E10.94843
G1 X259.482 Y286.565 E10.97326
G1 X258.774 Y286.334 E10.99803
G1 X258.092 Y286.038 E11.02276
G1 X257.446 Y285.685 E11.04724
G1 X256.826 Y285.264 E11.07217
G1 X256.248 Y284.789 E11.09705
G1 X255.715 Y284.261 E11.122
G1 X255.25 Y283.705 E11.14611
G1 X254.817 Y283.077 E11.17148
G1 X254.46 Y282.439 E11.1958
G1 X254.157 Y281.76 E11.22053
G1 X253.919 Y281.05 E11.24543
G1 X253.746 Y280.318 E11.27045
G0 F6000 X254.178 Y280.238
G0 X254.52 Y280.155
;TYPE:SKIN
G1 F300 X254.435 Y279.54 E11.2911
G1 X254.4 Y278.795 E11.31591
G1 X254.4 Y258.896 E11.97775
G1 X254.435 Y258.16 E12.00226
G1 X254.522 Y257.539 E12.02311
G1 X254.686 Y256.844 E12.04686
G1 X254.891 Y256.24 E12.06808
G1 X255.171 Y255.613 E12.09092
G1 X255.495 Y255.038 E12.11287
G1 X255.883 Y254.476 E12.13558
G1 X256.317 Y253.959 E12.15804
G1 X256.791 Y253.493 E12.18014
G1 X257.311 Y253.068 E12.20248
G1 X257.868 Y252.692 E12.22483
G1 X258.45 Y252.374 E12.24689
G1 X259.072 Y252.107 E12.2694
G1 X259.704 Y251.901 E12.29151
G1 X260.352 Y251.755 E12.31361
G1 X260.998 Y251.671 E12.33527
G1 X261.684 Y251.645 E12.35811
G1 X262.348 Y251.683 E12.38023
G1 X263.033 Y251.785 E12.40326
G1 X263.646 Y251.938 E12.42427
G1 X264.299 Y252.166 E12.44728
G1 X264.907 Y252.442 E12.46949
G1 X265.516 Y252.794 E12.49288
G1 X282.466 Y263.631 E13.16202
G1 X282.968 Y263.99 E13.18254
G1 X283.439 Y264.401 E13.20334
G1 X283.848 Y264.842 E13.22334
G1 X284.234 Y265.346 E13.24446
G1 X284.558 Y265.878 E13.26517
G1 X284.826 Y266.43 E13.28558
G1 X285.042 Y267.026 E13.30667
G1 X285.194 Y267.617 E13.32696
G1 X285.286 Y268.235 E13.34774
G1 X285.318 Y268.858 E13.36849
G1 X285.287 Y269.49 E13.38954
G1 X285.194 Y270.091 E13.40977
G1 X285.038 Y270.696 E13.43055
G1 X284.824 Y271.281 E13.45126
G1 X284.553 Y271.839 E13.4719
G1 X284.222 Y272.377 E13.49291
G1 X283.855 Y272.858 E13.51303
G1 X283.422 Y273.32 E13.53409
G1 X282.963 Y273.722 E13.55438
G1 X282.425 Y274.104 E13.57633
G1 X265.512 Y284.915 E14.24396
G1 X264.909 Y285.263 E14.26712
G1 X264.299 Y285.54 E14.2894
G1 X263.649 Y285.767 E14.3123
G1 X263.032 Y285.921 E14.33345
G1 X262.349 Y286.021 E14.35641
G1 X261.679 Y286.062 E14.37874
G1 X260.997 Y286.036 E14.40144
G1 X260.346 Y285.951 E14.42327
G1 X259.699 Y285.805 E14.44533
G1 X259.05 Y285.593 E14.46804
G1 X258.452 Y285.334 E14.48971
G1 X257.85 Y285.005 E14.51253
G1 X257.303 Y284.633 E14.53453
G1 X256.782 Y284.205 E14.55696
G1 X256.293 Y283.72 E14.57987
G1 X255.872 Y283.218 E14.60166
G1 X255.49 Y282.662 E14.6241
G1 X255.168 Y282.088 E14.64599
G1 X254.892 Y281.468 E14.66856
G1 X254.681 Y280.836 E14.69072
G1 X254.52 Y280.155 E14.71399
G1 F2700 E9.71399
G0 F6000 X254.243 Y280.191
G0 X254.255 Y279.551
G0 X252.781 Y279.617
G0 X259.236 Y274.765
G0 X258.186 Y275.773
G1 F2700 E14.71399
G0 F6000 X258.042 Y275.91
G1 F300 X258.603 Y276.484 E14.74069
G1 X258.7 Y276.571 E14.74502
G1 X259.301 Y277.085 E14.77132
G1 X259.405 Y277.166 E14.77571
G1 X260.052 Y277.626 E14.80211
G1 X260.159 Y277.696 E14.80637
