;FLAVOR:Marlin
;TIME:5652
;Filament used: 2.47905m
;Layer height: 0.2
;MINX:63.214
;MINY:39.619
;MINZ:0.2
;MAXX:96.578
;MAXY:75.935
;MAXZ:35
;Generated with Cura_SteamEngine 4.12.1
M140 S65
M105
M190 S65
M104 S215
M105
M109 S215
M82 ;absolute extrusion mode
M201 X500.00 Y500.00 Z100.00 E5000.00 ;Setup machine max acceleration
M203 X500.00 Y500.00 Z10.00 E50.00 ;Setup machine max feedrate
M204 P500.00 R1000.00 T500.00 ;Setup Print/Retract/Travel acceleration
M205 X8.00 Y8.00 Z0.40 E5.00 ;Setup Jerk
M220 S100 ;Reset Feedrate
M221 S100 ;Reset Flowrate

G28 ;Home
G29 ;BL-touch
G92 E0 ;Reset Extruder
G1 Z2.0 F3000 ;Move Z Axis up
G1 X10.1 Y20 Z0.28 F5000.0 ;Move to start position
G1 X10.1 Y200.0 Z0.28 F1500.0 E15 ;Draw the first line
G1 X10.4 Y200.0 Z0.28 F5000.0 ;Move to side a little
G1 X10.4 Y20 Z0.28 F1500.0 E30 ;Draw the second line
G92 E0 ;Reset Extruder
G1 Z2.0 F3000 ;Move Z Axis up
G92 E0
G92 E0
G1 F2700 E-5
;LAYER_COUNT:175
;LAYER:0
M107
;MESH:electronics_platform.v14.tp4056_2.stl
G0 F6000 X75.705 Y55.41 Z0.2
;TYPE:WALL-INNER
G1 F2700 E0
G1 F300 X76.178 Y55.292 E0.01621
G1 X76.59 Y55.092 E0.03145
G1 X82.167 Y51.632 E0.24974
G1 X82.511 Y51.366 E0.2642
G1 X82.579 Y51.297 E0.26742
G1 X82.843 Y50.983 E0.28107
G1 X83.063 Y50.577 E0.29643
G1 X83.099 Y50.486 E0.29968
G1 X83.206 Y50.116 E0.31249
G1 X83.223 Y50.02 E0.31573
G1 X83.25 Y49.633 E0.32864
G1 X83.249 Y49.526 E0.3322
G1 X83.202 Y49.173 E0.34404
G1 X83.171 Y49.043 E0.34848
G1 X83.055 Y48.713 E0.36012
G1 X82.999 Y48.589 E0.36464
G1 X82.815 Y48.291 E0.37629
G1 X82.737 Y48.181 E0.38078
G1 X82.494 Y47.93 E0.3924
G1 X82.398 Y47.838 E0.39682
G1 X82.105 Y47.638 E0.40862
G1 X81.989 Y47.567 E0.41314
G1 X81.544 Y47.389 E0.42908
G1 X81.065 Y47.306 E0.44525
G1 X80.7 Y47.315 E0.4574
G1 X80.564 Y47.326 E0.46193
G1 X80.103 Y47.44 E0.47773
G1 X79.691 Y47.638 E0.49293
G1 X74.113 Y51.098 E0.71125
G1 X73.752 Y51.379 E0.72647
G1 X73.436 Y51.752 E0.74273
G1 X73.204 Y52.178 E0.75886
G1 X73.065 Y52.652 E0.77529
G1 X73.026 Y53.138 E0.79151
G1 X73.088 Y53.617 E0.80757
G1 X73.13 Y53.745 E0.81205
G1 X73.248 Y54.077 E0.82377
G1 X73.315 Y54.195 E0.82828
G1 X73.5 Y54.495 E0.84001
G1 X73.589 Y54.597 E0.84451
G1 X73.836 Y54.853 E0.85634
G1 X73.941 Y54.933 E0.86073
G1 X74.233 Y55.133 E0.8725
G1 X74.356 Y55.191 E0.87703
G1 X74.693 Y55.328 E0.88912
G1 X74.774 Y55.35 E0.89192
G1 X75.217 Y55.426 E0.90687
G1 X75.705 Y55.41 E0.92311
G0 F6000 X75.649 Y55.012
;TYPE:WALL-OUTER
G1 F300 X76.041 Y54.914 E0.93654
G1 X76.397 Y54.741 E0.94971
G1 X81.939 Y51.303 E1.16662
G1 X82.244 Y51.067 E1.17945
G1 X82.282 Y51.028 E1.18126
G1 X82.511 Y50.756 E1.19309
G1 X82.7 Y50.408 E1.20626
G1 X82.72 Y50.357 E1.20808
G1 X82.816 Y50.024 E1.21961
G1 X82.826 Y49.97 E1.22143
G1 X82.85 Y49.622 E1.23304
G1 X82.849 Y49.555 E1.23527
G1 X82.808 Y49.245 E1.24567
G1 X82.787 Y49.156 E1.24871
G1 X82.683 Y48.862 E1.25908
G1 X82.645 Y48.777 E1.26218
G1 X82.481 Y48.512 E1.27254
G1 X82.428 Y48.437 E1.2756
G1 X82.211 Y48.213 E1.28597
G1 X82.145 Y48.149 E1.28903
G1 X81.887 Y47.974 E1.2994
G1 X81.808 Y47.925 E1.30249
G1 X81.435 Y47.776 E1.31585
G1 X81.036 Y47.707 E1.32931
G1 X80.72 Y47.715 E1.33983
G1 X80.628 Y47.722 E1.3429
G1 X80.239 Y47.818 E1.35622
G1 X79.884 Y47.989 E1.36933
G1 X74.342 Y51.427 E1.58624
G1 X74.03 Y51.669 E1.59938
G1 X73.768 Y51.979 E1.61288
G1 X73.576 Y52.332 E1.62624
G1 X73.46 Y52.725 E1.63987
G1 X73.428 Y53.128 E1.65332
G1 X73.48 Y53.528 E1.66673
G1 X73.509 Y53.616 E1.66981
G1 X73.613 Y53.91 E1.68019
G1 X73.659 Y53.991 E1.68329
G1 X73.823 Y54.257 E1.69368
G1 X73.884 Y54.327 E1.69677
G1 X74.102 Y54.553 E1.70721
G1 X74.175 Y54.608 E1.71025
G1 X74.433 Y54.785 E1.72066
G1 X74.517 Y54.825 E1.72375
G1 X74.821 Y54.948 E1.73466
G1 X74.861 Y54.959 E1.73604
G1 X75.245 Y55.025 E1.749
G1 X75.649 Y55.012 E1.76244
G0 F6000 X75.709 Y55.447
G1 F2700 E-3.23756
G0 F6000 X80.208 Y53.094
G0 X80.959 Y54.378
G0 X80.12 Y56.222
G0 X79.902 Y56.829
G0 X79.765 Y57.461
G0 X79.71 Y58.105
G0 X79.737 Y58.748
G0 X79.846 Y59.386
G0 X80.036 Y60.002
G0 X80.302 Y60.589
G0 X80.643 Y61.139
G0 X81.05 Y61.64
G0 X81.52 Y62.085
G0 X82.04 Y62.466
G0 X82.607 Y62.777
G0 X83.208 Y63.015
G0 X83.834 Y63.172
G0 X84.475 Y63.247
G0 X86.436 Y63.136
;TYPE:WALL-INNER
G1 F2700 E1.76244
G1 F300 X87.052 Y62.879 E1.78464
G1 X87.628 Y62.547 E1.80675
G1 X88.158 Y62.143 E1.82892
G1 X88.633 Y61.674 E1.85112
G1 X89.044 Y61.149 E1.8733
G1 X89.383 Y60.576 E1.89544
G1 X89.647 Y59.964 E1.91761
G1 X89.831 Y59.323 E1.93979
G1 X89.93 Y58.663 E1.96199
G1 X89.944 Y57.998 E1.98411
G1 X89.875 Y57.335 E2.00628
G1 X89.72 Y56.686 E2.02847
G1 X89.483 Y56.063 E2.05064
G1 X89.169 Y55.475 E2.07281
G1 X88.782 Y54.933 E2.09496
G1 X88.33 Y54.445 E2.11709
G1 X87.818 Y54.017 E2.13928
G1 X87.256 Y53.658 E2.16146
G1 X86.653 Y53.376 E2.18361
G1 X86.018 Y53.171 E2.2058
G1 X85.363 Y53.05 E2.22795
G1 X84.697 Y53.014 E2.25014
G1 X84.032 Y53.064 E2.27232
G1 X83.38 Y53.197 E2.29445
G1 X82.749 Y53.414 E2.31664
G1 X82.152 Y53.708 E2.33878
G1 X81.597 Y54.078 E2.36096
G1 X81.093 Y54.514 E2.38313
G1 X80.65 Y55.013 E2.40532
G1 X80.274 Y55.563 E2.42748
G1 X79.972 Y56.157 E2.44964
G1 X79.748 Y56.785 E2.47182
G1 X79.606 Y57.436 E2.49398
G1 X79.548 Y58.1 E2.51615
G1 X79.576 Y58.765 E2.53829
G1 X79.689 Y59.423 E2.56049
G1 X79.885 Y60.059 E2.58263
G1 X80.16 Y60.666 E2.60479
G1 X80.511 Y61.232 E2.62694
G1 X80.932 Y61.749 E2.64912
G1 X81.416 Y62.209 E2.67133
G1 X81.954 Y62.602 E2.69349
G1 X82.538 Y62.923 E2.71565
G1 X83.158 Y63.168 E2.73782
G1 X83.804 Y63.33 E2.75998
G1 X84.466 Y63.408 E2.78215
G1 X85.132 Y63.403 E2.8043
G1 X85.792 Y63.311 E2.82646
G1 X86.436 Y63.136 E2.84866
G0 F6000 X86.306 Y62.757
;TYPE:WALL-OUTER
G1 F300 X86.874 Y62.52 E2.86913
G1 X87.406 Y62.213 E2.88956
G1 X87.895 Y61.84 E2.91001
G1 X88.334 Y61.407 E2.93052
G1 X88.713 Y60.923 E2.95097
G1 X89.026 Y60.394 E2.97141
G1 X89.27 Y59.829 E2.99188
G1 X89.439 Y59.238 E3.01233
G1 X89.531 Y58.629 E3.03281
G1 X89.544 Y58.015 E3.05324
G1 X89.48 Y57.403 E3.0737
G1 X89.337 Y56.804 E3.09419
G1 X89.118 Y56.229 E3.11465
G1 X88.828 Y55.686 E3.13513
G1 X88.471 Y55.186 E3.15556
G1 X88.054 Y54.735 E3.17599
G1 X87.581 Y54.34 E3.19649
G1 X87.063 Y54.009 E3.21693
G1 X86.506 Y53.749 E3.23738
G1 X85.92 Y53.56 E3.25786
G1 X85.316 Y53.448 E3.27829
G1 X84.701 Y53.415 E3.29877
G1 X84.087 Y53.461 E3.31925
G1 X83.485 Y53.584 E3.33969
G1 X82.903 Y53.784 E3.36016
G1 X82.352 Y54.055 E3.38058
G1 X81.84 Y54.397 E3.40106
G1 X81.375 Y54.799 E3.4215
G1 X80.966 Y55.26 E3.442
G1 X80.619 Y55.767 E3.46243
G1 X80.34 Y56.316 E3.48292
G1 X80.133 Y56.895 E3.50337
G1 X80.002 Y57.496 E3.52383
G1 X79.949 Y58.109 E3.54429
G1 X79.975 Y58.723 E3.56473
G1 X80.079 Y59.33 E3.58521
G1 X80.26 Y59.917 E3.60564
G1 X80.514 Y60.477 E3.6261
G1 X80.838 Y61 E3.64656
G1 X81.226 Y61.477 E3.66701
G1 X81.673 Y61.901 E3.6875
G1 X82.169 Y62.264 E3.70794
G1 X82.708 Y62.56 E3.7284
G1 X83.281 Y62.786 E3.74888
G1 X83.877 Y62.936 E3.76932
G1 X84.488 Y63.008 E3.78979
G1 X85.103 Y63.003 E3.81024
G1 X85.712 Y62.918 E3.83069
G1 X86.306 Y62.757 E3.85116
G0 F6000 X86.448 Y63.173
G1 F2700 E-1.14884
G0 F6000 X86.023 Y61.939
G0 X91.667 Y75.866
G0 X90.958 Y74.574
G0 X89.733 Y75.262
;TYPE:WALL-INNER
G1 F2700 E3.85116
G1 F300 X89.047 Y75.416 E3.87455
G1 X88.347 Y75.507 E3.89803
G1 X87.63 Y75.535 E3.92189
G1 X86.928 Y75.495 E3.94528
G1 X86.232 Y75.389 E3.96869
G1 X85.554 Y75.221 E3.99193
G1 X84.877 Y74.984 E4.01578
G1 X84.234 Y74.69 E4.0393
G1 X83.606 Y74.328 E4.06341
G1 X66.651 Y63.489 E4.73272
G1 X66.1 Y63.095 E4.75525
G1 X65.62 Y62.673 E4.77651
G1 X65.166 Y62.184 E4.7987
G1 X64.771 Y61.666 E4.82037
G1 X64.424 Y61.1 E4.84245
G1 X64.139 Y60.51 E4.86424
G1 X63.911 Y59.884 E4.8864
G1 X63.748 Y59.245 E4.90833
G1 X63.649 Y58.589 E4.9304
G1 X63.616 Y57.92 E4.95268
G1 X63.65 Y57.277 E4.97409
G1 X63.75 Y56.609 E4.99656
G1 X63.911 Y55.983 E5.01806
G1 X64.145 Y55.346 E5.04063
G1 X64.43 Y54.757 E5.06239
G1 X64.781 Y54.188 E5.08463
G1 X65.107 Y53.761 E5.1025
G1 X65.176 Y53.673 E5.10621
G1 X65.626 Y53.191 E5.12815
G1 X66.126 Y52.755 E5.15021
G1 X66.676 Y52.363 E5.17268
G1 X83.616 Y41.535 E5.84137
G1 X84.216 Y41.188 E5.86442
G1 X84.325 Y41.136 E5.86844
G1 X84.85 Y40.896 E5.88764
G1 X84.961 Y40.854 E5.89159
G1 X85.517 Y40.66 E5.91117
G1 X85.611 Y40.634 E5.91442
G1 X86.183 Y40.492 E5.93402
G1 X86.276 Y40.474 E5.93717
G1 X86.928 Y40.376 E5.9591
G1 X87.631 Y40.335 E5.98252
G1 X88.345 Y40.362 E6.00628
G1 X89.045 Y40.453 E6.02976
G1 X89.732 Y40.607 E6.05318
G1 X90.397 Y40.824 E6.07644
G1 X91.057 Y41.11 E6.10037
G1 X91.668 Y41.444 E6.12353
G1 X92.263 Y41.846 E6.14741
G1 X92.805 Y42.292 E6.17076
G1 X93.312 Y42.793 E6.19446
G1 X93.754 Y43.323 E6.21742
G1 X94.163 Y43.916 E6.24138
G1 X94.508 Y44.531 E6.26483
G1 X94.793 Y45.171 E6.28813
G1 X95.02 Y45.847 E6.31185
G1 X95.185 Y46.541 E6.33558
G1 X95.28 Y47.221 E6.35841
G1 X95.314 Y47.955 E6.38285
G1 X95.314 Y67.911 E7.04659
G1 X95.279 Y68.651 E7.07123
G1 X95.184 Y69.333 E7.09413
G1 X95.018 Y70.034 E7.11809
G1 X94.798 Y70.687 E7.14101
G1 X94.502 Y71.353 E7.16525
G1 X94.164 Y71.956 E7.18824
G1 X93.754 Y72.547 E7.21217
G1 X93.301 Y73.087 E7.23561
G1 X92.803 Y73.579 E7.2589
G1 X92.245 Y74.035 E7.28286
G1 X91.663 Y74.427 E7.3062
G1 X91.048 Y74.764 E7.32953
G1 X90.395 Y75.045 E7.35317
G1 X89.733 Y75.262 E7.37634
G0 F6000 X89.838 Y75.648
;TYPE:WALL-OUTER
G1 F300 X89.112 Y75.811 E7.40109
G1 X88.38 Y75.906 E7.42564
G1 X87.633 Y75.935 E7.4505
G1 X86.888 Y75.893 E7.47532
G1 X86.149 Y75.781 E7.50018
G1 X85.435 Y75.603 E7.52466
G1 X84.726 Y75.356 E7.54963
G1 X84.05 Y75.046 E7.57436
G1 X83.406 Y74.675 E7.59908
G1 X66.421 Y63.816 E8.26959
G1 X65.855 Y63.412 E8.29272
G1 X65.34 Y62.959 E8.31554
G1 X64.861 Y62.443 E8.33895
G1 X64.439 Y61.889 E8.36212
G1 X64.073 Y61.293 E8.38538
G1 X63.769 Y60.663 E8.40864
G1 X63.527 Y60 E8.43212
G1 X63.355 Y59.324 E8.45532
G1 X63.25 Y58.629 E8.4787
G1 X63.215 Y57.929 E8.50201
G1 X63.252 Y57.228 E8.52536
G1 X63.356 Y56.536 E8.54863
G1 X63.531 Y55.856 E8.57198
G1 X63.773 Y55.196 E8.59536
G1 X64.078 Y54.566 E8.61864
G1 X64.451 Y53.962 E8.64226
G1 X64.792 Y53.514 E8.66098
G1 X64.868 Y53.417 E8.66508
G1 X65.353 Y52.898 E8.68871
G1 X65.875 Y52.443 E8.71174
G1 X66.444 Y52.037 E8.73499
G1 X83.406 Y41.195 E9.40455
G1 X84.037 Y40.83 E9.42879
G1 X84.152 Y40.775 E9.43303
G1 X84.7 Y40.525 E9.45307
G1 X84.818 Y40.48 E9.45727
G1 X85.385 Y40.282 E9.47724
G1 X85.515 Y40.246 E9.48173
G1 X86.096 Y40.102 E9.50164
G1 X86.217 Y40.078 E9.50574
G1 X86.879 Y39.979 E9.528
G1 X87.633 Y39.935 E9.55312
G1 X88.378 Y39.963 E9.57792
G1 X89.11 Y40.058 E9.60247
G1 X89.837 Y40.221 E9.62725
G1 X90.541 Y40.451 E9.65188
G1 X91.234 Y40.751 E9.677
G1 X91.873 Y41.1 E9.70122
G1 X92.505 Y41.527 E9.72659
G1 X93.069 Y41.991 E9.75088
G1 X93.608 Y42.524 E9.77609
G1 X94.073 Y43.081 E9.80022
G1 X94.506 Y43.709 E9.82559
G1 X94.863 Y44.346 E9.84988
G1 X95.166 Y45.025 E9.87461
G1 X95.405 Y45.737 E9.89959
G1 X95.578 Y46.468 E9.92458
G1 X95.679 Y47.191 E9.94886
G1 X95.714 Y47.936 E9.97366
G1 X95.714 Y67.93 E10.63866
G1 X95.678 Y68.681 E10.66367
G1 X95.578 Y69.406 E10.68801
G1 X95.402 Y70.147 E10.71335
G1 X95.17 Y70.835 E10.73749
G1 X94.862 Y71.528 E10.76272
G1 X94.501 Y72.173 E10.7873
G1 X94.077 Y72.784 E10.81204
G1 X93.596 Y73.357 E10.83692
G1 X93.066 Y73.881 E10.86171
G1 X92.486 Y74.355 E10.88662
G1 X91.87 Y74.77 E10.91133
G1 X91.228 Y75.121 E10.93566
G1 X90.535 Y75.42 E10.96077
G1 X89.838 Y75.648 E10.98516
G0 F6000 X89.722 Y75.224
G0 X89.623 Y74.887
;TYPE:SKIN
G1 F300 X88.976 Y75.032 E11.00721
G1 X88.325 Y75.117 E11.02905
G1 X87.636 Y75.145 E11.05198
G1 X86.967 Y75.106 E11.07427
G1 X86.298 Y75.004 E11.09678
G1 X85.67 Y74.848 E11.1183
G1 X85.025 Y74.623 E11.14102
G1 X84.413 Y74.343 E11.16341
G1 X83.809 Y73.994 E11.18661
G1 X66.869 Y63.165 E11.85532
G1 X66.344 Y62.791 E11.87676
G1 X65.889 Y62.39 E11.89693
G1 X65.462 Y61.93 E11.9178
G1 X65.098 Y61.453 E11.93776
G1 X64.763 Y60.906 E11.9591
G1 X64.5 Y60.361 E11.97922
G1 X64.282 Y59.762 E12.00042
G1 X64.132 Y59.171 E12.0207
G1 X64.039 Y58.552 E12.04152
G1 X64.007 Y57.922 E12.0625
G1 X64.04 Y57.314 E12.08276
G1 X64.132 Y56.689 E12.10377
G1 X64.287 Y56.09 E12.12435
G1 X64.502 Y55.504 E12.14511
G1 X64.772 Y54.946 E12.16572
G1 X65.111 Y54.397 E12.18719
G1 X65.47 Y53.93 E12.20678
G1 X65.897 Y53.471 E12.22763
G1 X66.366 Y53.063 E12.2483
G1 X66.894 Y52.687 E12.26986
G1 X83.826 Y41.864 E12.93824
G1 X84.389 Y41.538 E12.95988
G1 X85 Y41.257 E12.98225
G1 X85.094 Y41.221 E12.9856
G1 X85.631 Y41.033 E13.00452
G1 X85.715 Y41.01 E13.00742
G1 X86.266 Y40.873 E13.0263
G1 X86.341 Y40.859 E13.02884
G1 X86.965 Y40.766 E13.04982
G1 X87.639 Y40.725 E13.07228
G1 X88.322 Y40.752 E13.09502
G1 X88.977 Y40.837 E13.11698
G1 X89.62 Y40.981 E13.1389
G1 X90.255 Y41.188 E13.16111
G1 X90.89 Y41.463 E13.18413
G1 X91.465 Y41.777 E13.20592
G1 X92.03 Y42.159 E13.2286
G1 X92.541 Y42.58 E13.25062
G1 X93.022 Y43.056 E13.27313
G1 X93.446 Y43.564 E13.29514
G1 X93.832 Y44.123 E13.31773
G1 X94.157 Y44.702 E13.33982
G1 X94.431 Y45.317 E13.36221
G1 X94.643 Y45.948 E13.38435
G1 X94.804 Y46.626 E13.40753
G1 X94.89 Y47.246 E13.42835
G1 X94.924 Y47.955 E13.45196
G1 X94.924 Y67.893 E14.1151
G1 X94.889 Y68.622 E14.13937
G1 X94.803 Y69.248 E14.16039
G1 X94.643 Y69.926 E14.18356
G1 X94.433 Y70.547 E14.20536
G1 X94.151 Y71.182 E14.22847
G1 X93.831 Y71.754 E14.25027
G1 X93.452 Y72.3 E14.27238
G1 X93.014 Y72.822 E14.29504
G1 X92.54 Y73.29 E14.3172
G1 X92.015 Y73.719 E14.33975
G1 X91.453 Y74.098 E14.36229
G1 X90.885 Y74.409 E14.38383
G1 X90.252 Y74.681 E14.40674
G1 X89.623 Y74.887 E14.42876
G1 F2700 E9.42876
G0 F6000 X89.682 Y75.161
G0 X90.958 Y74.574
G0 X91.667 Y75.866
G0 X86.023 Y61.939
G0 X86.498 Y63.317
G1 F2700 E14.42876
G0 F6000 X86.563 Y63.506
G1 F300 X87.225 Y63.23 E14.45261
G1 X87.845 Y62.872 E14.47643
G1 X88.414 Y62.438 E14.50023
G1 X88.925 Y61.934 E14.5241
G1 X89.367 Y61.369 E14.54796
G1 X89.732 Y60.753 E14.57177
G1 X90.015 Y60.095 E14.5956
G1 X90.213 Y59.407 E14.61941
G1 X90.32 Y58.696 E14.64332
G1 X90.334 Y57.982 E14.66707
G1 X90.261 Y57.269 E14.69091
G1 X90.094 Y56.571 E14.71478
G1 X89.838 Y55.901 E14.73864
G1 X89.501 Y55.269 E14.76246
G1 X89.085 Y54.686 E14.78628
G1 X88.599 Y54.162 E14.81005
G1 X88.049 Y53.701 E14.83392
G1 X87.445 Y53.315 E14.85776
G1 X86.796 Y53.013 E14.88157
G1 X86.114 Y52.792 E14.90542
G1 X85.409 Y52.662 E14.92926
G1 X84.693 Y52.624 E14.95311
G1 X83.978 Y52.677 E14.97695
G1 X83.277 Y52.82 E15.00075
G1 X82.599 Y53.053 E15.02459
G1 X81.957 Y53.369 E15.04839
G1 X81.361 Y53.768 E15.07225
G1 X80.818 Y54.235 E15.09607
G1 X80.342 Y54.773 E15.11996
G1 X79.938 Y55.364 E15.14377
G1 X79.613 Y56.003 E15.16762
G1 X79.372 Y56.678 E15.19146
G1 X79.22 Y57.377 E15.21525
G1 X79.158 Y58.091 E15.23908
G1 X79.188 Y58.806 E15.26289
G1 X79.309 Y59.514 E15.28678
G1 X79.52 Y60.197 E15.31055
G1 X79.815 Y60.85 E15.33438
G1 X80.193 Y61.459 E15.35822
G1 X80.645 Y62.014 E15.38203
G1 X81.166 Y62.509 E15.40593
G1 X81.744 Y62.932 E15.42976
G1 X82.372 Y63.276 E15.45357
G1 X83.039 Y63.54 E15.47743
G1 X83.734 Y63.714 E15.50126
G1 X84.445 Y63.798 E15.52507
G1 X85.161 Y63.793 E15.54889
G1 X85.87 Y63.694 E15.5727
G1 X86.563 Y63.506 E15.59658
G1 F2700 E10.59658
G0 F6000 X86.472 Y63.24
G0 X84.475 Y63.247
G0 X83.834 Y63.172
G0 X83.208 Y63.015
G0 X82.607 Y62.777
G0 X82.04 Y62.466
G0 X81.52 Y62.085
G0 X81.05 Y61.64
G0 X80.643 Y61.139
G0 X80.302 Y60.589
G0 X80.036 Y60.002
G0 X79.846 Y59.386
G0 X79.565 Y56.732
G0 X78.105 Y54.376
G0 X76.644 Y55.188
G1 F2700 E15.59658
G0 F6000 X76.779 Y55.434
G1 F300 X82.39 Y51.953 E15.8162
G1 X82.77 Y51.659 E15.83218
G1 X82.868 Y51.56 E15.83681
G1 X83.167 Y51.204 E15.85228
G1 X83.418 Y50.742 E15.86976
G1 X83.468 Y50.612 E15.8744
G1 X83.586 Y50.204 E15.88852
G1 X83.611 Y50.067 E15.89315
G1 X83.64 Y49.645 E15.90722
G1 X83.639 Y49.499 E15.91208
G1 X83.586 Y49.102 E15.9254
G1 X83.546 Y48.932 E15.93121
G1 X83.418 Y48.568 E15.94404
G1 X83.344 Y48.406 E15.94997
G1 X83.14 Y48.076 E15.96287
G1 X83.038 Y47.931 E15.96877
G1 X82.769 Y47.653 E15.98163
G1 X82.644 Y47.534 E15.98737
G1 X82.317 Y47.31 E16.00056
G1 X82.164 Y47.217 E16.00651
G1 X81.651 Y47.012 E16.02489
G1 X81.094 Y46.916 E16.04368
G1 X80.679 Y46.925 E16.05749
