;FLAVOR:Marlin
;TIME:4955
;Filament used: 2.44028m
;Layer height: 0.2
;MINX:249.656
;MINY:243.731
;MINZ:0.2
;MAXX:283.228
;MAXY:280.584
;MAXZ:35
;Generated with Cura_SteamEngine 4.12.1
M140 S65
M105
M190 S65
M104 S215
M105
M109 S215
M82 ;absolute extrusion mode
M201 X500.00 Y500.00 Z100.00 E5000.00 ;Setup machine max acceleration
M203 X500.00 Y500.00 Z10.00 E50.00 ;Setup machine max feedrate
M204 P500.00 R1000.00 T500.00 ;Setup Print/Retract/Travel acceleration
M205 X8.00 Y8.00 Z0.40 E5.00 ;Setup Jerk
M220 S100 ;Reset Feedrate
M221 S100 ;Reset Flowrate

G28 ;Home

G92 E0 ;Reset Extruder
G1 Z2.0 F3000 ;Move Z Axis up
G1 X10.1 Y20 Z0.28 F5000.0 ;Move to start position
G1 X10.1 Y200.0 Z0.28 F1500.0 E15 ;Draw the first line
G1 X10.4 Y200.0 Z0.28 F5000.0 ;Move to side a little
G1 X10.4 Y20 Z0.28 F1500.0 E30 ;Draw the second line
G92 E0 ;Reset Extruder
G1 Z2.0 F3000 ;Move Z Axis up

G92 E0
G92 E0
G1 F2700 E-5
;LAYER_COUNT:175
;LAYER:0
M107
;MESH:electronics_platform.v6.stl
G0 F6000 X260.612 Y265.837 Z0.2
;TYPE:WALL-INNER
G1 F2700 E0
G1 F300 X260.65 Y265.943 E0.00375
G1 X260.938 Y266.672 E0.02982
G1 X260.985 Y266.773 E0.03352
G1 X261.333 Y267.469 E0.0594
G1 X261.389 Y267.567 E0.06316
G1 X261.802 Y268.233 E0.08922
G1 X261.865 Y268.323 E0.09287
G1 X262.333 Y268.95 E0.1189
G1 X262.404 Y269.035 E0.12258
G1 X262.928 Y269.621 E0.14873
G1 X263.577 Y270.232 E0.17837
G1 X263.663 Y270.304 E0.1821
G1 X264.276 Y270.781 E0.20794
G1 X264.366 Y270.846 E0.21163
G1 X265.027 Y271.275 E0.23784
G1 X265.125 Y271.329 E0.24156
G1 X265.817 Y271.696 E0.26761
G1 X265.918 Y271.741 E0.27129
G1 X266.636 Y272.043 E0.2972
G1 X266.741 Y272.081 E0.30091
G1 X267.485 Y272.318 E0.32688
G1 X267.592 Y272.347 E0.33057
G1 X268.356 Y272.518 E0.35661
G1 X268.466 Y272.537 E0.36032
G1 X269.24 Y272.64 E0.38629
G1 X269.35 Y272.649 E0.38996
G1 X270.132 Y272.683 E0.416
G1 X270.243 Y272.683 E0.41969
G1 X271.029 Y272.649 E0.44586
G1 X271.14 Y272.637 E0.44957
G1 X271.913 Y272.533 E0.47551
G1 X272.022 Y272.513 E0.4792
G1 X272.79 Y272.34 E0.50538
G1 X272.896 Y272.308 E0.50906
G1 X273.641 Y272.07 E0.53508
G1 X273.744 Y272.03 E0.53875
G1 X274.463 Y271.727 E0.5647
G1 X274.563 Y271.679 E0.56839
G1 X275.257 Y271.312 E0.5945
G1 X275.351 Y271.254 E0.59818
G1 X276.008 Y270.83 E0.62419
G1 X276.098 Y270.763 E0.62792
G1 X276.713 Y270.282 E0.65389
G1 X276.796 Y270.208 E0.65758
G1 X277.366 Y269.674 E0.68356
G1 X277.444 Y269.594 E0.68728
G1 X277.966 Y269.01 E0.71333
G1 X278.035 Y268.923 E0.71702
G1 X278.503 Y268.297 E0.74302
G1 X278.565 Y268.204 E0.74674
G1 X278.974 Y267.539 E0.7727
G1 X279.027 Y267.442 E0.77638
G1 X279.377 Y266.743 E0.80238
G1 X279.422 Y266.642 E0.80606
G1 X279.711 Y265.909 E0.83226
G1 X279.745 Y265.804 E0.83593
G1 X279.965 Y265.057 E0.86184
G1 X279.992 Y264.948 E0.86557
G1 X280.145 Y264.182 E0.89155
G1 X280.162 Y264.072 E0.89525
G1 X280.248 Y263.295 E0.92125
G1 X280.255 Y263.183 E0.92499
G1 X280.273 Y262.397 E0.95114
G1 X280.268 Y262.285 E0.95486
G1 X280.216 Y261.505 E0.98086
G1 X280.202 Y261.395 E0.98455
G1 X280.082 Y260.623 E1.01054
G1 X280.059 Y260.515 E1.01421
G1 X279.87 Y259.755 E1.04026
G1 X279.837 Y259.649 E1.04395
G1 X279.581 Y258.904 E1.07015
G1 X279.221 Y258.093 E1.09966
G1 X279.169 Y257.993 E1.10341
G1 X278.788 Y257.311 E1.1294
G1 X278.728 Y257.217 E1.1331
G1 X278.289 Y256.572 E1.15906
G1 X278.222 Y256.483 E1.16276
G1 X277.724 Y255.877 E1.18885
G1 X277.65 Y255.795 E1.19252
G1 X277.102 Y255.234 E1.21861
G1 X277.019 Y255.159 E1.22233
G1 X276.424 Y254.65 E1.24837
G1 X276.335 Y254.584 E1.25206
G1 X275.701 Y254.131 E1.27797
G1 X275.607 Y254.071 E1.28168
G1 X274.93 Y253.674 E1.30778
G1 X274.831 Y253.624 E1.31147
G1 X274.128 Y253.29 E1.33736
G1 X274.023 Y253.247 E1.34113
G1 X273.291 Y252.978 E1.36707
G1 X273.186 Y252.945 E1.37073
G1 X272.424 Y252.738 E1.397
G1 X271.552 Y252.58 E1.42647
G1 X271.441 Y252.565 E1.4302
G1 X270.659 Y252.496 E1.45631
G1 X270.549 Y252.492 E1.45997
G1 X269.757 Y252.491 E1.48631
G1 X268.869 Y252.568 E1.51595
G1 X267.986 Y252.723 E1.54577
G1 X267.132 Y252.952 E1.57518
G1 X267.026 Y252.988 E1.5789
G1 X266.292 Y253.259 E1.60493
G1 X266.19 Y253.304 E1.60864
G1 X265.483 Y253.639 E1.63466
G1 X265.385 Y253.692 E1.63836
G1 X264.712 Y254.088 E1.66433
G1 X264.62 Y254.15 E1.66802
G1 X263.981 Y254.604 E1.69409
G1 X263.894 Y254.675 E1.69783
G1 X263.3 Y255.183 E1.72383
G1 X263.221 Y255.26 E1.7275
G1 X262.674 Y255.818 E1.75348
G1 X262.6 Y255.903 E1.75723
G1 X262.107 Y256.507 E1.78316
G1 X262.041 Y256.596 E1.78685
G1 X261.601 Y257.244 E1.8129
G1 X261.543 Y257.34 E1.81663
G1 X261.164 Y258.023 E1.84261
G1 X261.115 Y258.122 E1.84629
G1 X260.796 Y258.837 E1.87233
G1 X260.755 Y258.94 E1.87601
G1 X260.5 Y259.683 E1.90214
G1 X260.47 Y259.791 E1.90587
G1 X260.283 Y260.548 E1.9318
G1 X260.262 Y260.656 E1.93546
G1 X260.14 Y261.433 E1.96162
G1 X260.13 Y261.544 E1.96533
G1 X260.078 Y262.318 E1.99113
G1 X260.076 Y262.43 E1.99486
G1 X260.093 Y263.218 E2.02107
G1 X260.103 Y263.327 E2.02471
G1 X260.189 Y264.105 E2.05075
G1 X260.208 Y264.215 E2.05446
G1 X260.362 Y264.982 E2.08048
G1 X260.391 Y265.089 E2.08417
G1 X260.612 Y265.837 E2.11011
G0 F6000 X260.992 Y265.713
;TYPE:WALL-OUTER
G1 F300 X261.024 Y265.802 E2.11325
G1 X261.305 Y266.513 E2.13868
G1 X261.345 Y266.598 E2.14181
G1 X261.686 Y267.28 E2.16717
G1 X261.733 Y267.362 E2.17031
G1 X262.136 Y268.013 E2.19578
G1 X262.189 Y268.089 E2.19886
G1 X262.647 Y268.702 E2.22431
G1 X262.707 Y268.774 E2.22742
G1 X263.217 Y269.344 E2.25286
G1 X263.284 Y269.409 E2.25597
G1 X263.842 Y269.932 E2.28141
G1 X263.914 Y269.992 E2.28452
G1 X264.516 Y270.461 E2.3099
G1 X264.592 Y270.516 E2.31302
G1 X265.234 Y270.932 E2.33847
G1 X265.316 Y270.978 E2.3416
G1 X265.992 Y271.336 E2.36704
G1 X266.077 Y271.374 E2.37013
G1 X266.781 Y271.67 E2.39554
G1 X266.87 Y271.702 E2.39868
G1 X267.597 Y271.934 E2.42406
G1 X267.687 Y271.958 E2.42716
G1 X268.434 Y272.126 E2.45263
G1 X268.526 Y272.142 E2.45573
G1 X269.284 Y272.242 E2.48116
G1 X269.376 Y272.25 E2.48423
G1 X270.141 Y272.283 E2.5097
G1 X270.234 Y272.283 E2.51279
G1 X270.999 Y272.25 E2.53826
G1 X271.092 Y272.24 E2.54137
G1 X271.85 Y272.138 E2.56681
G1 X271.942 Y272.121 E2.56992
G1 X272.688 Y271.953 E2.59536
G1 X272.778 Y271.926 E2.59848
G1 X273.507 Y271.693 E2.62394
G1 X273.594 Y271.659 E2.62704
G1 X274.298 Y271.363 E2.65244
G1 X274.382 Y271.322 E2.65555
G1 X275.058 Y270.965 E2.68098
G1 X275.137 Y270.916 E2.68407
G1 X275.78 Y270.501 E2.70953
G1 X275.855 Y270.445 E2.71264
G1 X276.457 Y269.974 E2.73806
G1 X276.527 Y269.912 E2.74117
G1 X277.085 Y269.39 E2.76659
G1 X277.15 Y269.322 E2.76971
G1 X277.66 Y268.752 E2.79515
G1 X277.718 Y268.679 E2.79825
G1 X278.176 Y268.066 E2.8237
G1 X278.228 Y267.988 E2.82682
G1 X278.628 Y267.338 E2.85221
G1 X278.673 Y267.256 E2.85532
G1 X279.015 Y266.572 E2.88075
G1 X279.053 Y266.487 E2.88385
G1 X279.334 Y265.774 E2.90934
G1 X279.363 Y265.685 E2.91245
G1 X279.579 Y264.953 E2.93784
G1 X279.601 Y264.862 E2.94095
G1 X279.751 Y264.113 E2.96636
G1 X279.765 Y264.02 E2.96949
G1 X279.849 Y263.26 E2.99492
G1 X279.855 Y263.166 E2.99805
G1 X279.873 Y262.401 E3.0235
G1 X279.869 Y262.307 E3.02663
G1 X279.818 Y261.544 E3.05207
G1 X279.806 Y261.452 E3.05515
G1 X279.689 Y260.697 E3.08056
G1 X279.669 Y260.606 E3.08366
G1 X279.485 Y259.863 E3.10912
G1 X279.457 Y259.774 E3.11222
G1 X279.208 Y259.05 E3.13769
G1 X278.86 Y258.266 E3.16622
G1 X278.817 Y258.183 E3.16933
G1 X278.444 Y257.516 E3.19474
G1 X278.394 Y257.437 E3.19785
G1 X277.964 Y256.805 E3.22328
G1 X277.908 Y256.731 E3.22636
G1 X277.422 Y256.139 E3.25184
G1 X277.359 Y256.07 E3.25495
G1 X276.825 Y255.523 E3.28037
G1 X276.755 Y255.46 E3.2835
G1 X276.174 Y254.963 E3.30893
G1 X276.099 Y254.907 E3.31205
G1 X275.478 Y254.463 E3.33744
G1 X275.399 Y254.413 E3.34055
G1 X274.738 Y254.025 E3.36604
G1 X274.655 Y253.983 E3.36913
G1 X273.966 Y253.656 E3.3945
G1 X273.878 Y253.62 E3.39766
G1 X273.161 Y253.357 E3.42306
G1 X273.073 Y253.329 E3.42614
G1 X272.333 Y253.128 E3.45164
G1 X272.242 Y253.11 E3.45473
G1 X271.491 Y252.975 E3.4801
G1 X271.398 Y252.963 E3.48322
G1 X270.635 Y252.895 E3.5087
G1 X270.542 Y252.892 E3.5118
G1 X269.774 Y252.891 E3.53734
G1 X268.921 Y252.965 E3.56582
G1 X268.073 Y253.114 E3.59445
G1 X267.248 Y253.335 E3.62286
G1 X267.159 Y253.365 E3.62598
G1 X266.442 Y253.63 E3.65141
G1 X266.356 Y253.668 E3.65454
G1 X265.665 Y253.995 E3.67996
G1 X265.583 Y254.04 E3.68307
G1 X264.925 Y254.427 E3.70846
G1 X264.847 Y254.479 E3.71158
G1 X264.223 Y254.923 E3.73705
G1 X264.15 Y254.982 E3.74017
G1 X263.57 Y255.479 E3.76558
G1 X263.503 Y255.544 E3.76868
G1 X262.968 Y256.09 E3.79411
G1 X262.906 Y256.161 E3.79724
G1 X262.423 Y256.752 E3.82263
G1 X262.368 Y256.827 E3.82572
G1 X261.938 Y257.46 E3.85118
G1 X261.889 Y257.541 E3.85432
G1 X261.518 Y258.209 E3.87974
G1 X261.477 Y258.292 E3.88282
G1 X261.165 Y258.991 E3.90828
G1 X261.131 Y259.078 E3.91138
G1 X260.882 Y259.801 E3.93682
G1 X260.857 Y259.892 E3.93996
G1 X260.674 Y260.634 E3.96537
G1 X260.656 Y260.726 E3.96849
G1 X260.537 Y261.481 E3.99391
G1 X260.529 Y261.574 E3.99702
G1 X260.478 Y262.336 E4.02242
G1 X260.476 Y262.43 E4.02555
G1 X260.493 Y263.196 E4.05103
G1 X260.501 Y263.288 E4.0541
G1 X260.585 Y264.049 E4.07957
G1 X260.601 Y264.141 E4.08267
G1 X260.752 Y264.891 E4.10812
G1 X260.776 Y264.981 E4.11122
G1 X260.992 Y265.713 E4.1366
G0 F6000 X260.574 Y265.849
G1 F2700 E-0.8634
G0 F6000 X260.208 Y265.141
G0 X261.593 Y264.689
G0 X249.656 Y265.718
G0 X250.983 Y265.077
G0 X250.56 Y264.528
;TYPE:WALL-INNER
G1 F2700 E4.1366
G1 F300 X250.398 Y263.897 E4.15827
G1 X250.299 Y263.239 E4.1804
G1 X250.267 Y262.578 E4.20241
G1 X250.3 Y261.909 E4.22469
G1 X250.398 Y261.268 E4.24626
G1 X250.562 Y260.632 E4.2681
G1 X250.794 Y259.999 E4.29052
G1 X251.08 Y259.41 E4.3123
G1 X251.425 Y258.849 E4.33421
G1 X251.837 Y258.311 E4.35674
G1 X252.272 Y257.845 E4.37795
G1 X252.777 Y257.403 E4.40027
G1 X253.317 Y257.02 E4.42229
G1 X270.261 Y246.188 E5.09117
G1 X270.892 Y245.826 E5.11536
G1 X271.531 Y245.534 E5.13873
G1 X272.205 Y245.299 E5.16247
G1 X272.878 Y245.132 E5.18553
G1 X273.592 Y245.026 E5.20954
G1 X274.286 Y244.985 E5.23266
G1 X275 Y245.012 E5.25643
G1 X275.701 Y245.103 E5.27994
G1 X276.388 Y245.259 E5.30337
G1 X277.047 Y245.473 E5.32641
G1 X277.713 Y245.762 E5.35056
G1 X278.322 Y246.096 E5.37366
G1 X278.917 Y246.498 E5.39755
G1 X279.451 Y246.937 E5.42054
G1 X279.962 Y247.444 E5.44448
G1 X280.414 Y247.985 E5.46793
G1 X280.812 Y248.56 E5.49119
G1 X281.158 Y249.181 E5.51483
G1 X281.447 Y249.83 E5.53846
G1 X281.673 Y250.501 E5.56201
G1 X281.837 Y251.192 E5.58563
G1 X281.931 Y251.868 E5.60833
G1 X281.965 Y252.642 E5.6341
G1 X281.965 Y272.562 E6.29664
G1 X281.93 Y273.306 E6.32141
G1 X281.836 Y273.979 E6.34402
G1 X281.666 Y274.692 E6.3684
G1 X281.444 Y275.348 E6.39143
G1 X281.155 Y275.997 E6.41506
G1 X280.809 Y276.614 E6.43859
G1 X280.403 Y277.199 E6.46227
G1 X279.947 Y277.741 E6.48583
G1 X279.455 Y278.227 E6.50883
G1 X278.896 Y278.683 E6.53282
G1 X278.303 Y279.083 E6.55662
G1 X277.707 Y279.409 E6.57921
G1 X277.029 Y279.7 E6.60375
G1 X276.361 Y279.916 E6.6271
G1 X275.68 Y280.069 E6.65031
G1 X274.992 Y280.157 E6.67338
G1 X274.279 Y280.184 E6.69712
G1 X273.582 Y280.143 E6.72034
G1 X272.874 Y280.036 E6.74415
G1 X272.223 Y279.876 E6.76645
G1 X271.511 Y279.628 E6.79153
G1 X270.868 Y279.331 E6.81508
G1 X270.267 Y278.984 E6.83817
G1 X253.291 Y268.131 E7.50832
G1 X252.769 Y267.758 E7.52966
G1 X252.269 Y267.321 E7.55174
G1 X251.826 Y266.843 E7.57342
G1 X251.424 Y266.317 E7.59544
G1 X251.07 Y265.739 E7.61798
G1 X250.79 Y265.159 E7.6394
G1 X250.56 Y264.528 E7.66174
G0 F6000 X250.179 Y264.651
;TYPE:WALL-OUTER
G1 F300 X250.004 Y263.97 E7.68513
G1 X249.9 Y263.278 E7.7084
G1 X249.866 Y262.578 E7.73171
G1 X249.901 Y261.878 E7.75502
G1 X250.006 Y261.186 E7.7783
G1 X250.182 Y260.505 E7.80169
G1 X250.424 Y259.845 E7.82508
G1 X250.729 Y259.216 E7.84833
G1 X251.093 Y258.624 E7.87144
G1 X251.528 Y258.056 E7.89524
G1 X251.993 Y257.558 E7.9179
G1 X252.528 Y257.09 E7.94154
G1 X253.102 Y256.683 E7.96494
G1 X270.062 Y245.841 E8.63445
G1 X270.709 Y245.47 E8.65925
G1 X271.382 Y245.162 E8.68387
G1 X272.09 Y244.916 E8.7088
G1 X272.804 Y244.738 E8.73327
G1 X273.543 Y244.628 E8.75812
G1 X274.288 Y244.584 E8.78295
G1 X275.034 Y244.613 E8.80778
G1 X275.765 Y244.708 E8.83229
G1 X276.493 Y244.873 E8.85712
G1 X277.191 Y245.1 E8.88153
G1 X277.89 Y245.403 E8.90687
G1 X278.527 Y245.752 E8.93103
G1 X279.159 Y246.179 E8.9564
G1 X279.721 Y246.642 E8.98062
G1 X280.253 Y247.169 E9.00552
G1 X280.736 Y247.747 E9.03058
G1 X281.149 Y248.344 E9.05472
G1 X281.521 Y249.01 E9.08009
G1 X281.818 Y249.678 E9.10441
G1 X282.057 Y250.388 E9.12933
G1 X282.23 Y251.119 E9.15431
G1 X282.33 Y251.838 E9.17846
G1 X282.365 Y252.624 E9.20462
G1 X282.365 Y272.581 E9.8684
G1 X282.329 Y273.336 E9.89354
G1 X282.229 Y274.055 E9.91768
G1 X282.051 Y274.803 E9.94325
G1 X281.818 Y275.491 E9.96741
G1 X281.51 Y276.182 E9.99258
G1 X281.149 Y276.826 E10.01713
G1 X280.726 Y277.436 E10.04182
G1 X280.237 Y278.018 E10.0671
G1 X279.723 Y278.524 E10.09109
G1 X279.132 Y279.007 E10.11648
G1 X278.515 Y279.423 E10.14123
G1 X277.879 Y279.771 E10.16534
G1 X277.171 Y280.075 E10.19097
G1 X276.472 Y280.301 E10.2154
G1 X275.746 Y280.464 E10.24015
G1 X275.023 Y280.556 E10.26439
G1 X274.281 Y280.584 E10.28909
G1 X273.531 Y280.54 E10.31408
G1 X272.808 Y280.431 E10.3384
G1 X272.104 Y280.258 E10.36251
G1 X271.407 Y280.017 E10.38704
G1 X271.364 Y280 E10.38857
G1 X270.683 Y279.686 E10.41352
G1 X270.057 Y279.324 E10.43757
G1 X253.065 Y268.461 E11.10835
G1 X252.522 Y268.073 E11.13054
G1 X251.99 Y267.608 E11.15404
G1 X251.517 Y267.098 E11.17718
G1 X251.095 Y266.546 E11.20029
G1 X250.719 Y265.932 E11.22424
G1 X250.42 Y265.312 E11.24713
G1 X250.179 Y264.651 E11.27053
G0 F6000 X250.599 Y264.521
G0 X250.932 Y264.408
;TYPE:SKIN
G1 F300 X250.781 Y263.82 E11.29072
G1 X250.689 Y263.202 E11.3115
G1 X250.657 Y262.578 E11.33228
G1 X250.688 Y261.948 E11.35326
G1 X250.782 Y261.341 E11.37369
G1 X250.938 Y260.739 E11.39438
G1 X251.151 Y260.157 E11.41499
G1 X251.422 Y259.599 E11.43562
G1 X251.744 Y259.075 E11.45608
G1 X252.142 Y258.555 E11.47786
G1 X252.544 Y258.125 E11.49744
G1 X253.016 Y257.712 E11.5183
G1 X253.535 Y257.344 E11.53946
G1 X270.464 Y246.522 E12.20774
G1 X271.07 Y246.173 E12.23099
G1 X271.679 Y245.896 E12.25325
G1 X272.321 Y245.672 E12.27586
G1 X272.947 Y245.516 E12.29732
G1 X273.627 Y245.416 E12.32018
G1 X274.294 Y245.375 E12.34241
G1 X274.977 Y245.402 E12.36514
G1 X275.63 Y245.487 E12.38704
G1 X276.278 Y245.633 E12.40914
G1 X276.916 Y245.841 E12.43145
G1 X277.539 Y246.111 E12.45404
G1 X278.119 Y246.429 E12.47604
G1 X278.684 Y246.811 E12.49872
G1 X279.187 Y247.225 E12.52039
G1 X279.68 Y247.714 E12.54349
G1 X280.107 Y248.226 E12.56566
G1 X280.474 Y248.756 E12.5871
G1 X280.809 Y249.355 E12.60993
G1 X281.082 Y249.97 E12.63231
G1 X281.298 Y250.609 E12.65474
G1 X281.456 Y251.277 E12.67757
G1 X281.541 Y251.893 E12.69826
G1 X281.575 Y252.642 E12.72319
G1 X281.575 Y272.544 E13.38514
G1 X281.54 Y273.277 E13.40954
G1 X281.455 Y273.894 E13.43026
G1 X281.288 Y274.594 E13.45419
G1 X281.085 Y275.196 E13.47532
G1 X280.804 Y275.826 E13.49827
G1 X280.476 Y276.412 E13.5206
G1 X280.095 Y276.961 E13.54283
G1 X279.666 Y277.47 E13.56497
G1 X279.187 Y277.943 E13.58736
G1 X278.665 Y278.369 E13.60977
G1 X278.102 Y278.749 E13.63236
G1 X277.544 Y279.054 E13.65351
G1 X276.885 Y279.337 E13.67737
G1 X276.255 Y279.541 E13.69939
G1 X275.607 Y279.686 E13.72148
G1 X274.973 Y279.767 E13.74274
G1 X274.287 Y279.794 E13.76557
G1 X273.619 Y279.753 E13.78783
G1 X272.938 Y279.651 E13.81073
G1 X272.34 Y279.504 E13.83121
G1 X271.668 Y279.27 E13.85488
G1 X271.032 Y278.976 E13.87819
G1 X270.477 Y278.655 E13.89951
G1 X253.509 Y267.807 E14.56935
G1 X253.014 Y267.454 E14.58957
G1 X252.537 Y267.037 E14.61064
G1 X252.122 Y266.589 E14.63095
G1 X251.748 Y266.099 E14.65145
G1 X251.413 Y265.552 E14.67279
G1 X251.151 Y265.01 E14.69281
G1 X250.932 Y264.408 E14.71412
G1 F2700 E9.71412
G0 F6000 X250.667 Y264.502
G0 X250.983 Y265.077
G0 X249.656 Y265.718
G0 X261.44 Y263.92
G0 X259.976 Y264.082
G0 X259.994 Y263.338
G1 F2700 E14.71412
G0 F6000 X259.715 Y263.366
