;FLAVOR:Marlin
;TIME:4346
;Filament used: 2.04515m
;Layer height: 0.2
;MINX:27.325
;MINY:250.722
;MINZ:0.2
;MAXX:60.69
;MAXY:286.772
;MAXZ:35
;Generated with Cura_SteamEngine 4.12.1
M140 S65
M105
M190 S65
M104 S215
M105
M109 S215
M82 ;absolute extrusion mode
M201 X500.00 Y500.00 Z100.00 E5000.00 ;Setup machine max acceleration
M203 X500.00 Y500.00 Z10.00 E50.00 ;Setup machine max feedrate
M204 P500.00 R1000.00 T500.00 ;Setup Print/Retract/Travel acceleration
M205 X8.00 Y8.00 Z0.40 E5.00 ;Setup Jerk
M220 S100 ;Reset Feedrate
M221 S100 ;Reset Flowrate

G28 ;Home

G92 E0 ;Reset Extruder
G1 Z2.0 F3000 ;Move Z Axis up
G1 X10.1 Y20 Z0.28 F5000.0 ;Move to start position
G1 X10.1 Y200.0 Z0.28 F1500.0 E15 ;Draw the first line
G1 X10.4 Y200.0 Z0.28 F5000.0 ;Move to side a little
G1 X10.4 Y20 Z0.28 F1500.0 E30 ;Draw the second line
G92 E0 ;Reset Extruder
G1 Z2.0 F3000 ;Move Z Axis up

G92 E0
G92 E0
G1 F2700 E-5
;LAYER_COUNT:175
;LAYER:0
M107
;MESH:electronics_platform.v8.stl
G0 F6000 X57.184 Y272.007 Z0.2
;TYPE:WALL-INNER
G1 F2700 E0
G1 F300 X57.437 Y271.15 E0.02972
G1 X57.613 Y270.276 E0.05937
G1 X57.712 Y269.388 E0.08909
G1 X57.731 Y268.495 E0.1188
G1 X57.672 Y267.604 E0.1485
G1 X57.533 Y266.72 E0.17826
G1 X57.319 Y265.853 E0.20796
G1 X57.026 Y265.009 E0.23768
G1 X56.662 Y264.193 E0.2674
G1 X56.227 Y263.415 E0.29704
G1 X55.724 Y262.676 E0.32678
G1 X55.158 Y261.983 E0.35654
G1 X54.535 Y261.347 E0.38615
G1 X53.856 Y260.765 E0.41589
G1 X53.128 Y260.246 E0.44563
G1 X52.358 Y259.793 E0.47534
G1 X51.551 Y259.411 E0.50504
G1 X50.713 Y259.102 E0.53474
G1 X49.852 Y258.868 E0.56442
G1 X48.968 Y258.71 E0.59429
G1 X48.078 Y258.631 E0.62401
G1 X47.182 Y258.631 E0.65381
G1 X46.291 Y258.711 E0.68356
G1 X45.6 Y258.833 E0.7069
G1 X45.405 Y258.87 E0.7135
G1 X44.545 Y259.104 E0.74314
G1 X43.704 Y259.416 E0.77298
G1 X42.896 Y259.799 E0.80272
G1 X42.124 Y260.255 E0.83254
G1 X41.396 Y260.777 E0.86234
G1 X40.717 Y261.36 E0.8921
G1 X40.227 Y261.861 E0.91541
G1 X40.091 Y262.005 E0.922
G1 X39.526 Y262.695 E0.95166
G1 X39.025 Y263.439 E0.98149
G1 X38.59 Y264.222 E1.01128
G1 X38.228 Y265.04 E1.04104
G1 X37.943 Y265.87 E1.07022
G1 X37.73 Y266.738 E1.09995
G1 X37.593 Y267.62 E1.12964
G1 X37.535 Y268.511 E1.15934
G1 X37.551 Y269.302 E1.18565
G1 X37.557 Y269.412 E1.18931
G1 X37.642 Y270.19 E1.21534
G1 X37.658 Y270.3 E1.21904
G1 X37.834 Y271.167 E1.24847
G1 X38.087 Y272.022 E1.27812
G1 X38.376 Y272.757 E1.30439
G1 X38.419 Y272.86 E1.3081
G1 X38.818 Y273.652 E1.3376
G1 X39.288 Y274.413 E1.36735
G1 X39.824 Y275.127 E1.39704
G1 X40.42 Y275.791 E1.42672
G1 X41.073 Y276.401 E1.45644
G1 X41.777 Y276.951 E1.48615
G1 X42.528 Y277.437 E1.51591
G1 X43.317 Y277.853 E1.54557
G1 X44.142 Y278.199 E1.57533
G1 X44.993 Y278.469 E1.60502
G1 X45.864 Y278.665 E1.63472
G1 X46.749 Y278.782 E1.66441
G1 X47.641 Y278.821 E1.6941
G1 X48.535 Y278.782 E1.72387
G1 X49.42 Y278.663 E1.75357
G1 X50.291 Y278.465 E1.78328
G1 X51.142 Y278.194 E1.81298
G1 X51.965 Y277.846 E1.8427
G1 X52.754 Y277.428 E1.8724
G1 X53.503 Y276.941 E1.90211
G1 X54.205 Y276.39 E1.93179
G1 X54.858 Y275.78 E1.96152
G1 X55.453 Y275.115 E1.99119
G1 X55.988 Y274.399 E2.02092
G1 X56.457 Y273.637 E2.05068
G1 X56.857 Y272.839 E2.08037
G1 X57.184 Y272.007 E2.1101
G0 F6000 X56.805 Y271.877
;TYPE:WALL-OUTER
G1 F300 X57.048 Y271.054 E2.13865
G1 X57.217 Y270.214 E2.16714
G1 X57.312 Y269.361 E2.19569
G1 X57.331 Y268.504 E2.2242
G1 X57.274 Y267.648 E2.25274
G1 X57.141 Y266.799 E2.28132
G1 X56.935 Y265.967 E2.30983
G1 X56.654 Y265.156 E2.33837
G1 X56.304 Y264.373 E2.3669
G1 X55.886 Y263.625 E2.3954
G1 X55.403 Y262.915 E2.42396
G1 X54.86 Y262.25 E2.45251
G1 X54.261 Y261.639 E2.48097
G1 X53.609 Y261.08 E2.50954
G1 X52.91 Y260.582 E2.53808
G1 X52.171 Y260.147 E2.5666
G1 X51.396 Y259.78 E2.59513
G1 X50.591 Y259.483 E2.62366
G1 X49.764 Y259.259 E2.65216
G1 X48.915 Y259.107 E2.68085
G1 X48.06 Y259.031 E2.7094
G1 X47.2 Y259.031 E2.738
G1 X46.344 Y259.108 E2.76659
G1 X45.672 Y259.226 E2.78928
G1 X45.495 Y259.26 E2.79527
G1 X44.667 Y259.485 E2.82381
G1 X43.86 Y259.785 E2.85245
G1 X43.084 Y260.153 E2.88101
G1 X42.343 Y260.59 E2.90963
G1 X41.643 Y261.092 E2.93828
G1 X40.991 Y261.652 E2.96686
G1 X40.515 Y262.138 E2.98949
G1 X40.391 Y262.269 E2.99549
G1 X39.847 Y262.934 E3.02406
G1 X39.366 Y263.648 E3.0527
G1 X38.949 Y264.4 E3.0813
G1 X38.601 Y265.186 E3.10989
G1 X38.327 Y265.983 E3.13792
G1 X38.123 Y266.816 E3.16644
G1 X37.991 Y267.664 E3.19499
G1 X37.935 Y268.52 E3.22352
G1 X37.951 Y269.287 E3.24903
G1 X37.956 Y269.38 E3.25213
G1 X38.039 Y270.14 E3.27756
G1 X38.052 Y270.232 E3.28065
G1 X38.222 Y271.07 E3.30909
G1 X38.466 Y271.892 E3.33761
G1 X38.747 Y272.607 E3.36316
G1 X38.783 Y272.693 E3.36626
G1 X39.167 Y273.457 E3.3947
G1 X39.619 Y274.187 E3.42326
G1 X40.133 Y274.873 E3.45177
G1 X40.706 Y275.511 E3.48029
G1 X41.333 Y276.097 E3.50884
G1 X42.009 Y276.625 E3.53736
G1 X42.73 Y277.091 E3.56592
G1 X43.488 Y277.491 E3.59442
G1 X44.28 Y277.823 E3.62299
G1 X45.098 Y278.083 E3.65154
G1 X45.934 Y278.271 E3.68003
G1 X46.784 Y278.383 E3.70855
G1 X47.641 Y278.421 E3.73708
G1 X48.499 Y278.383 E3.76565
G1 X49.349 Y278.269 E3.79417
G1 X50.186 Y278.079 E3.82272
G1 X51.003 Y277.818 E3.85125
G1 X51.793 Y277.484 E3.87977
G1 X52.551 Y277.083 E3.90829
G1 X53.27 Y276.615 E3.93683
G1 X53.945 Y276.086 E3.96535
G1 X54.572 Y275.5 E3.9939
G1 X55.143 Y274.861 E4.0224
G1 X55.657 Y274.174 E4.05094
G1 X56.107 Y273.442 E4.07951
G1 X56.491 Y272.676 E4.10801
G1 X56.805 Y271.877 E4.13657
G0 F6000 X57.221 Y272.019
G1 F2700 E-0.86343
G0 F6000 X56.624 Y273.73
G0 X55.35 Y273.024
G0 X60.69 Y278.687
G0 X59.215 Y278.687
G0 X59.294 Y280.122
;TYPE:WALL-INNER
G1 F2700 E4.13657
G1 F300 X59.125 Y280.828 E4.16071
G1 X58.904 Y281.484 E4.18374
G1 X58.61 Y282.142 E4.20771
G1 X58.271 Y282.746 E4.23074
G1 X57.868 Y283.327 E4.25426
G1 X57.41 Y283.873 E4.27796
G1 X56.908 Y284.369 E4.30144
G1 X56.366 Y284.813 E4.32474
G1 X55.767 Y285.218 E4.34879
G1 X55.156 Y285.552 E4.37195
G1 X54.501 Y285.833 E4.39565
G1 X53.836 Y286.05 E4.41892
G1 X53.149 Y286.203 E4.44233
G1 X52.451 Y286.294 E4.46574
G1 X51.735 Y286.32 E4.48957
G1 X51.043 Y286.279 E4.51263
G1 X50.339 Y286.174 E4.5363
G1 X49.676 Y286.012 E4.559
G1 X49.003 Y285.778 E4.5827
G1 X48.377 Y285.493 E4.60558
G1 X48.33 Y285.47 E4.60732
G1 X47.726 Y285.121 E4.63052
G1 X30.755 Y274.272 E5.30046
G1 X30.232 Y273.898 E5.32184
G1 X29.725 Y273.454 E5.34426
G1 X29.285 Y272.98 E5.36577
G1 X28.875 Y272.444 E5.38821
G1 X28.539 Y271.892 E5.40971
G1 X28.248 Y271.292 E5.43189
G1 X28.021 Y270.67 E5.45391
G1 X27.858 Y270.031 E5.47584
G1 X27.76 Y269.377 E5.49784
G1 X27.727 Y268.715 E5.51988
G1 X27.76 Y268.046 E5.54216
G1 X27.858 Y267.405 E5.56373
G1 X28.022 Y266.765 E5.5857
G1 X28.249 Y266.144 E5.60769
G1 X28.543 Y265.541 E5.63001
G1 X28.892 Y264.975 E5.65212
G1 X29.281 Y264.465 E5.67346
G1 X29.748 Y263.967 E5.69616
G1 X30.229 Y263.547 E5.7174
G1 X30.787 Y263.15 E5.74018
G1 X47.725 Y252.322 E6.40882
G1 X48.326 Y251.975 E6.4319
G1 X48.435 Y251.923 E6.43592
G1 X48.96 Y251.683 E6.45512
G1 X49.071 Y251.641 E6.45906
G1 X49.636 Y251.444 E6.47896
G1 X49.715 Y251.421 E6.4817
G1 X50.293 Y251.278 E6.50151
G1 X50.385 Y251.26 E6.50462
G1 X51.043 Y251.163 E6.52674
G1 X51.744 Y251.122 E6.5501
G1 X52.46 Y251.149 E6.57393
G1 X53.16 Y251.24 E6.59741
G1 X53.847 Y251.396 E6.62084
G1 X54.517 Y251.614 E6.64427
G1 X55.165 Y251.896 E6.66778
G1 X55.781 Y252.233 E6.69113
G1 X56.367 Y252.63 E6.71468
G1 X56.917 Y253.081 E6.73833
G1 X57.424 Y253.584 E6.76209
G1 X57.871 Y254.118 E6.78525
G1 X58.272 Y254.7 E6.80876
G1 X58.617 Y255.318 E6.8323
G1 X58.906 Y255.967 E6.85593
G1 X59.132 Y256.638 E6.87948
G1 X59.295 Y257.329 E6.90309
G1 X59.39 Y258.006 E6.92583
G1 X59.425 Y258.779 E6.95156
G1 X59.425 Y278.697 E7.61404
G1 X59.388 Y279.443 E7.63888
G1 X59.294 Y280.122 E7.66168
G0 F6000 X59.687 Y280.198
;TYPE:WALL-OUTER
G1 F300 X59.51 Y280.939 E7.68702
G1 X59.278 Y281.627 E7.71117
G1 X58.967 Y282.322 E7.73649
G1 X58.608 Y282.963 E7.76093
G1 X58.186 Y283.571 E7.78554
G1 X57.706 Y284.144 E7.81041
G1 X57.178 Y284.665 E7.83508
G1 X56.601 Y285.138 E7.85989
G1 X55.979 Y285.558 E7.88485
G1 X55.336 Y285.909 E7.90922
G1 X54.641 Y286.208 E7.93438
G1 X53.943 Y286.436 E7.95881
G1 X53.211 Y286.599 E7.98375
G1 X52.484 Y286.693 E8.00813
G1 X51.736 Y286.721 E8.03303
G1 X50.994 Y286.677 E8.05775
G1 X50.271 Y286.569 E8.08206
G1 X49.563 Y286.395 E8.10631
G1 X49.513 Y286.38 E8.10805
G1 X48.866 Y286.154 E8.13084
G1 X48.814 Y286.133 E8.13271
G1 X48.199 Y285.852 E8.1552
G1 X48.151 Y285.828 E8.15698
G1 X47.516 Y285.461 E8.18138
G1 X30.525 Y274.599 E8.85211
G1 X29.981 Y274.211 E8.87433
G1 X29.45 Y273.745 E8.89783
G1 X28.976 Y273.235 E8.92099
G1 X28.549 Y272.676 E8.94438
G1 X28.183 Y272.076 E8.96776
G1 X27.879 Y271.449 E8.99094
G1 X27.637 Y270.786 E9.01441
G1 X27.465 Y270.111 E9.03758
G1 X27.361 Y269.415 E9.06098
G1 X27.326 Y268.715 E9.08429
G1 X27.361 Y268.015 E9.10761
G1 X27.466 Y267.323 E9.13089
G1 X27.641 Y266.642 E9.15427
G1 X27.881 Y265.986 E9.1775
G1 X28.193 Y265.346 E9.20119
G1 X28.561 Y264.749 E9.22451
G1 X28.902 Y264.3 E9.24326
G1 X28.978 Y264.203 E9.24736
G1 X29.465 Y263.684 E9.27103
G1 X29.984 Y263.23 E9.29397
G1 X30.555 Y262.824 E9.31727
G1 X47.516 Y251.981 E9.98682
G1 X48.147 Y251.617 E10.01105
G1 X48.262 Y251.562 E10.01529
G1 X48.81 Y251.312 E10.03532
G1 X48.928 Y251.267 E10.03952
G1 X49.504 Y251.066 E10.05982
G1 X49.619 Y251.033 E10.06379
G1 X50.206 Y250.888 E10.08391
G1 X50.326 Y250.864 E10.08798
G1 X50.994 Y250.765 E10.11044
G1 X51.747 Y250.722 E10.13552
G1 X52.493 Y250.75 E10.16035
G1 X53.225 Y250.845 E10.1849
G1 X53.953 Y251.01 E10.20973
G1 X54.661 Y251.241 E10.2345
G1 X55.342 Y251.537 E10.2592
G1 X55.986 Y251.889 E10.28361
G1 X56.609 Y252.311 E10.30863
G1 X57.187 Y252.785 E10.3335
G1 X57.72 Y253.314 E10.35847
G1 X58.185 Y253.87 E10.38258
G1 X58.612 Y254.489 E10.40759
G1 X58.98 Y255.147 E10.43267
G1 X59.277 Y255.815 E10.45698
G1 X59.516 Y256.525 E10.4819
G1 X59.689 Y257.256 E10.50688
G1 X59.789 Y257.976 E10.53106
G1 X59.825 Y258.761 E10.5572
G1 X59.825 Y278.717 E11.22094
G1 X59.788 Y279.473 E11.24611
G1 X59.687 Y280.198 E11.27046
G0 F6000 X59.255 Y280.117
G0 X58.913 Y280.036
;TYPE:SKIN
G1 F300 X58.749 Y280.723 E11.29395
G1 X58.539 Y281.345 E11.31578
G1 X58.261 Y281.967 E11.33844
G1 X57.938 Y282.544 E11.36044
G1 X57.566 Y283.08 E11.38214
G1 X57.123 Y283.608 E11.40506
G1 X56.645 Y284.08 E11.4274
G1 X56.133 Y284.499 E11.44941
G1 X55.56 Y284.887 E11.47243
G1 X54.994 Y285.197 E11.49389
G1 X54.359 Y285.469 E11.51687
G1 X53.722 Y285.677 E11.53915
G1 X53.083 Y285.819 E11.56093
G1 X52.428 Y285.904 E11.58289
G1 X51.744 Y285.93 E11.60566
G1 X51.08 Y285.889 E11.62779
G1 X50.411 Y285.79 E11.65028
G1 X49.787 Y285.638 E11.67164
G1 X49.151 Y285.416 E11.69405
G1 X48.502 Y285.119 E11.71778
G1 X47.936 Y284.792 E11.73953
G1 X30.973 Y273.948 E12.40915
G1 X30.471 Y273.59 E12.42966
G1 X29.998 Y273.175 E12.45059
G1 X29.585 Y272.731 E12.47076
G1 X29.196 Y272.222 E12.49206
G1 X28.882 Y271.705 E12.51218
G1 X28.61 Y271.144 E12.53292
G1 X28.391 Y270.544 E12.55416
G1 X28.242 Y269.957 E12.5743
G1 X28.15 Y269.34 E12.59505
G1 X28.117 Y268.714 E12.6159
G1 X28.148 Y268.085 E12.63685
G1 X28.241 Y267.481 E12.65717
G1 X28.393 Y266.889 E12.6775
G1 X28.61 Y266.294 E12.69857
G1 X28.888 Y265.724 E12.71966
G1 X29.219 Y265.188 E12.74061
G1 X29.577 Y264.718 E12.76026
G1 X30.014 Y264.253 E12.78149
G1 X30.474 Y263.851 E12.80181
G1 X31.005 Y263.474 E12.82347
G1 X47.935 Y252.651 E13.49179
G1 X48.499 Y252.325 E13.51346
G1 X49.11 Y252.044 E13.53583
G1 X49.204 Y252.008 E13.53917
G1 X49.765 Y251.812 E13.55894
G1 X49.817 Y251.797 E13.56074
G1 X50.377 Y251.659 E13.57992
G1 X50.45 Y251.645 E13.58239
G1 X51.078 Y251.553 E13.6035
G1 X51.752 Y251.512 E13.62596
G1 X52.437 Y251.539 E13.64876
G1 X53.089 Y251.624 E13.67063
G1 X53.736 Y251.77 E13.69269
G1 X54.384 Y251.982 E13.71537
G1 X54.991 Y252.245 E13.73737
G1 X55.572 Y252.562 E13.75939
G1 X56.134 Y252.944 E13.78199
G1 X56.654 Y253.37 E13.80434
G1 X57.142 Y253.854 E13.8272
G1 X57.555 Y254.348 E13.84862
G1 X57.941 Y254.908 E13.87124
G1 X58.268 Y255.492 E13.8935
G1 X58.544 Y256.113 E13.91611
G1 X58.754 Y256.739 E13.93807
G1 X58.915 Y257.419 E13.96131
G1 X59 Y258.031 E13.98186
G1 X59.035 Y258.779 E14.00677
G1 X59.035 Y278.678 E14.66861
G1 X58.998 Y279.416 E14.69319
G1 X58.913 Y280.036 E14.714
G1 F2700 E9.714
G0 F6000 X59.189 Y280.074
G0 X59.215 Y278.687
G0 X60.69 Y278.687
G0 X54.409 Y274.386
G0 X55.495 Y275.354
G0 X54.937 Y275.857
G1 F2700 E14.714
G0 F6000 X55.137 Y276.053
G1 F300 X55.755 Y275.363 E14.74481
G1 X56.311 Y274.619 E14.7757
G1 X56.798 Y273.827 E14.80663
G1 X57.214 Y272.998 E14.83747
G1 X57.553 Y272.134 E14.86834
G1 X57.816 Y271.244 E14.89921
G1 X57.999 Y270.336 E14.93002
G1 X58.102 Y269.414 E14.96088
G1 X58.121 Y268.487 E14.99171
G1 X58.06 Y267.561 E15.02258
G1 X57.915 Y266.642 E15.05352
G1 X57.693 Y265.742 E15.08436
G1 X57.389 Y264.865 E15.11523
G1 X57.011 Y264.018 E15.14608
G1 X56.559 Y263.21 E15.17687
G1 X56.036 Y262.442 E15.20777
G1 X55.449 Y261.722 E15.23867
G1 X54.802 Y261.062 E15.26941
G1 X54.096 Y260.457 E15.30034
G1 X53.341 Y259.918 E15.33119
G1 X52.541 Y259.448 E15.36205
G1 X51.703 Y259.051 E15.39289
G1 X50.832 Y258.73 E15.42377
G1 X49.938 Y258.487 E15.45458
G1 X49.019 Y258.323 E15.48563
G1 X48.095 Y258.241 E15.51648
G1 X47.164 Y258.241 E15.54745
G1 X46.24 Y258.324 E15.5783
G1 X45.53 Y258.449 E15.60228
G1 X45.317 Y258.49 E15.60949
G1 X44.426 Y258.732 E15.6402
G1 X43.552 Y259.057 E15.67122
G1 X42.713 Y259.454 E15.70209
G1 X41.911 Y259.928 E15.73307
G1 X41.155 Y260.47 E15.76401
G1 X40.45 Y261.075 E15.79491
G1 X39.946 Y261.59 E15.81888
G1 X39.798 Y261.748 E15.82608
G1 X39.212 Y262.462 E15.8568
G1 X38.692 Y263.235 E15.88779
G1 X38.241 Y264.048 E15.91871
G1 X37.865 Y264.898 E15.94962
G1 X37.569 Y265.76 E15.97994
G1 X37.348 Y266.662 E16.01082
G1 X37.205 Y267.577 E16.04163
G1 X37.145 Y268.503 E16.07249
G1 X37.161 Y269.316 E16.09954
G1 X37.169 Y269.444 E16.1038
G1 X37.255 Y270.239 E16.1304
G1 X37.274 Y270.366 E16.13467
G1 X37.455 Y271.261 E16.16504
G1 X37.718 Y272.149 E16.19584
G1 X38.064 Y273.023 E16.22711
G1 X38.477 Y273.843 E16.25764
G1 X38.966 Y274.633 E16.28855
G1 X39.522 Y275.375 E16.31939
G1 X40.141 Y276.064 E16.35019
G1 X40.819 Y276.698 E16.38106
G1 X41.551 Y277.269 E16.41194
G1 X42.331 Y277.774 E16.44285
G1 X43.151 Y278.206 E16.47367
G1 X44.007 Y278.566 E16.50456
G1 X44.891 Y278.846 E16.5354
G1 X45.796 Y279.049 E16.56625
G1 X46.714 Y279.17 E16.59705
G1 X47.641 Y279.211 E16.62791
G1 X48.57 Y279.17 E16.65884
G1 X49.49 Y279.047 E16.68971
G1 X50.394 Y278.841 E16.72055
G1 X51.277 Y278.56 E16.75137
G1 X52.133 Y278.199 E16.78227
G1 X52.952 Y277.765 E16.8131
G1 X53.73 Y277.259 E16.84396
G1 X54.459 Y276.686 E16.8748
G1 X55.137 Y276.053 E16.90565
G1 F2700 E11.90565
G0 F6000 X54.937 Y275.857
G0 X56.316 Y273.558
G0 X56.71 Y272.774
G0 X57.28 Y271.111
G0 X57.454 Y270.251
G0 X57.551 Y269.376
G0 X57.57 Y268.5
G0 X57.512 Y267.622
G0 X57.232 Y266.227
G0 X56.389 Y263.314
G0 X55.147 Y264.076
G0 X60.359 Y256.337
G0 X59.305 Y256.587
G0 X58.491 Y255.317
G1 F2700 E16.90565
G0 F6000 X58.105 Y255.53
G1 F300 X55.017 Y252.441 E17.05093
G0 F6000 X55.228 Y252.057
G0 X54.185 Y251.623
G0 X54.05 Y252.04
G1 F300 X58.502 Y256.492 E17.26034
G0 F6000 X58.715 Y257.27
G1 F300 X53.274 Y251.829 E17.51626
G0 F6000 X52.6 Y251.721
G1 F300 X58.827 Y257.949 E17.80919
G0 F6000 X58.864 Y258.551
G1 F300 X51.993 Y251.68 E18.13238
G0 F6000 X51.438 Y251.691
G1 F300 X58.875 Y259.127 E18.48217
G0 F6000 X58.875 Y259.693
G1 F300 X50.919 Y251.737 E18.85639
G0 F6000 X50.428 Y251.812
G1 F300 X58.875 Y260.259 E19.25371
G0 F6000 X58.875 Y260.824
G1 F300 X49.973 Y251.923 E19.67241
G0 F6000 X49.543 Y252.058
G1 F300 X58.875 Y261.39 E20.11136
G0 F6000 X58.875 Y261.956
G1 F300 X49.129 Y252.21 E20.56978
G0 F6000 X48.742 Y252.389
G1 F300 X58.875 Y262.521 E21.04639
G0 F6000 X58.875 Y263.087
G1 F300 X48.371 Y252.583 E21.54046
G0 F6000 X48.013 Y252.791
G1 F300 X58.875 Y263.653 E22.05138
G0 F6000 X58.875 Y264.218
G1 F300 X47.668 Y253.011 E22.57852
G0 F6000 X47.323 Y253.232
G1 F300 X58.875 Y264.784 E23.12189
G0 F6000 X58.875 Y265.35
