;FLAVOR:Marlin
;TIME:5888
;Filament used: 4.93629m
;Layer height: 0.2
;MINX:228.832
;MINY:216.789
;MINZ:0.2
;MAXX:265.638
;MAXY:256.388
;MAXZ:20
;Generated with Cura_SteamEngine 4.12.1
M140 S65
M105
M190 S65
M104 S215
M105
M109 S215
M82 ;absolute extrusion mode
M201 X500.00 Y500.00 Z100.00 E5000.00 ;Setup machine max acceleration
M203 X500.00 Y500.00 Z10.00 E50.00 ;Setup machine max feedrate
M204 P500.00 R1000.00 T500.00 ;Setup Print/Retract/Travel acceleration
M205 X8.00 Y8.00 Z0.40 E5.00 ;Setup Jerk
M220 S100 ;Reset Feedrate
M221 S100 ;Reset Flowrate

G28 ;Home

G92 E0 ;Reset Extruder
G1 Z2.0 F3000 ;Move Z Axis up
G1 X10.1 Y20 Z0.28 F5000.0 ;Move to start position
G1 X10.1 Y200.0 Z0.28 F1500.0 E15 ;Draw the first line
G1 X10.4 Y200.0 Z0.28 F5000.0 ;Move to side a little
G1 X10.4 Y20 Z0.28 F1500.0 E30 ;Draw the second line
G92 E0 ;Reset Extruder
G1 Z2.0 F3000 ;Move Z Axis up

G92 E0
G92 E0
G1 F2700 E-5
;LAYER_COUNT:100
;LAYER:0
M107
;MESH:head.v3.4_5mm.stl
G0 F6000 X234.109 Y243.118 Z0.2
;TYPE:WALL-INNER
G1 F2700 E0
G1 F300 X234.181 Y243.232 E0.00448
G1 X234.642 Y243.919 E0.032
G1 X234.723 Y244.028 E0.03652
G1 X235.236 Y244.677 E0.06403
G1 X235.324 Y244.782 E0.06859
G1 X235.888 Y245.389 E0.09615
G1 X235.983 Y245.486 E0.10066
G1 X236.59 Y246.047 E0.12816
G1 X236.693 Y246.139 E0.13275
G1 X237.45 Y246.732 E0.16473
G1 X238.253 Y247.268 E0.19684
G1 X239.096 Y247.741 E0.22899
G1 X239.973 Y248.147 E0.26114
G1 X240.872 Y248.479 E0.29301
G1 X241.001 Y248.52 E0.29751
G1 X241.799 Y248.747 E0.32511
G1 X241.931 Y248.777 E0.32961
G1 X242.745 Y248.941 E0.35723
G1 X242.88 Y248.961 E0.36177
G1 X243.698 Y249.061 E0.38918
G1 X243.834 Y249.073 E0.39372
G1 X244.665 Y249.109 E0.42138
G1 X244.801 Y249.11 E0.42591
G1 X245.631 Y249.081 E0.45353
G1 X245.765 Y249.071 E0.458
G1 X246.59 Y248.979 E0.48561
G1 X246.724 Y248.96 E0.49011
G1 X247.536 Y248.804 E0.51761
G1 X247.67 Y248.776 E0.52216
G1 X248.597 Y248.52 E0.55415
G1 X249.506 Y248.191 E0.5863
G1 X250.385 Y247.793 E0.6184
G1 X251.232 Y247.329 E0.65052
G1 X252.034 Y246.803 E0.68242
G1 X252.144 Y246.723 E0.68694
G1 X252.801 Y246.214 E0.71458
G1 X252.904 Y246.126 E0.71909
G1 X253.517 Y245.57 E0.74662
G1 X253.613 Y245.475 E0.75111
G1 X254.182 Y244.872 E0.77868
G1 X254.272 Y244.769 E0.78323
G1 X254.791 Y244.124 E0.81077
G1 X254.873 Y244.017 E0.81525
G1 X255.34 Y243.334 E0.84277
G1 X255.415 Y243.22 E0.84731
G1 X255.83 Y242.5 E0.87495
G1 X255.895 Y242.38 E0.87949
G1 X256.252 Y241.632 E0.90706
G1 X256.308 Y241.507 E0.91161
G1 X256.652 Y240.61 E0.94356
G1 X256.927 Y239.684 E0.97569
G1 X257.129 Y238.74 E1.0078
G1 X257.257 Y237.786 E1.03982
G1 X257.267 Y237.652 E1.04428
G1 X257.312 Y236.824 E1.07186
G1 X257.312 Y236.687 E1.07642
G1 X257.293 Y235.859 E1.10397
G1 X257.282 Y235.723 E1.10851
G1 X257.199 Y234.9 E1.13602
G1 X257.179 Y234.765 E1.14056
G1 X257.032 Y233.951 E1.16807
G1 X257.003 Y233.817 E1.17263
G1 X256.793 Y233.018 E1.20011
G1 X256.755 Y232.887 E1.20464
G1 X256.436 Y231.98 E1.23662
G1 X256.047 Y231.098 E1.26868
G1 X255.59 Y230.245 E1.30087
G1 X255.068 Y229.433 E1.33298
G1 X254.491 Y228.667 E1.36487
G1 X254.329 Y228.475 E1.37323
G1 X253.913 Y228.006 E1.39408
G1 X253.626 Y227.669 E1.4088
G1 X253.457 Y227.438 E1.41832
G1 X253.354 Y227.289 E1.42435
G1 X253.146 Y226.946 E1.43769
G1 X253.081 Y226.83 E1.44211
G1 X252.904 Y226.49 E1.45486
G1 X252.744 Y226.136 E1.46778
G1 X252.703 Y226.04 E1.47125
G1 X252.536 Y225.601 E1.48687
G1 X252.405 Y225.212 E1.50053
G1 X252.373 Y225.104 E1.50427
G1 X252.266 Y224.716 E1.51766
G1 X252.239 Y224.603 E1.52152
G1 X252.092 Y224.186 E1.53623
G1 X252.429 Y224.381 E1.54095
G1 X253.267 Y224.947 E1.57458
G1 X254.057 Y225.566 E1.60796
G1 X254.805 Y226.24 E1.64145
G1 X255.498 Y226.959 E1.67466
G1 X256.145 Y227.732 E1.70819
G1 X256.735 Y228.545 E1.7416
G1 X257.273 Y229.408 E1.77543
G1 X257.742 Y230.291 E1.80868
G1 X258.154 Y231.22 E1.84248
G1 X258.49 Y232.146 E1.87525
G1 X258.769 Y233.125 E1.9091
G1 X258.977 Y234.108 E1.94252
G1 X259.114 Y235.089 E1.97547
G1 X259.184 Y236.107 E2.00941
G1 X259.183 Y237.099 E2.0424
G1 X259.111 Y238.116 E2.07631
G1 X258.972 Y239.096 E2.10923
G1 X258.757 Y240.1 E2.14338
G1 X258.49 Y241.032 E2.17563
G1 X258.139 Y241.994 E2.20969
G1 X257.727 Y242.917 E2.2433
G1 X257.258 Y243.796 E2.27644
G1 X256.723 Y244.652 E2.31002
G1 X256.138 Y245.457 E2.34311
G1 X255.477 Y246.242 E2.37725
G1 X254.79 Y246.953 E2.41013
G1 X254.047 Y247.621 E2.44336
G1 X253.245 Y248.245 E2.47716
G1 X252.416 Y248.805 E2.51043
G1 X251.544 Y249.307 E2.5439
G1 X250.652 Y249.743 E2.57692
G1 X249.696 Y250.127 E2.61119
G1 X248.762 Y250.432 E2.64387
G1 X247.784 Y250.674 E2.67738
G1 X246.798 Y250.849 E2.71068
G1 X245.784 Y250.952 E2.74458
G1 X244.779 Y250.988 E2.77803
G1 X243.773 Y250.951 E2.81151
G1 X242.775 Y250.846 E2.84489
G1 X241.782 Y250.67 E2.87843
G1 X240.805 Y250.426 E2.91192
G1 X239.858 Y250.116 E2.94507
G1 X238.926 Y249.738 E2.97852
G1 X238.012 Y249.292 E3.01234
G1 X237.156 Y248.797 E3.04523
G1 X236.319 Y248.231 E3.07884
G1 X235.529 Y247.612 E3.11222
G1 X234.781 Y246.938 E3.14571
G1 X234.086 Y246.217 E3.17901
G1 X233.441 Y245.446 E3.21245
G1 X232.846 Y244.627 E3.24612
G1 X232.31 Y243.766 E3.27985
G1 X231.847 Y242.892 E3.31275
G1 X231.432 Y241.958 E3.34674
G1 X231.094 Y241.027 E3.37968
G1 X230.817 Y240.053 E3.41336
G1 X230.609 Y239.07 E3.44678
G1 X230.472 Y238.088 E3.47976
G1 X230.402 Y237.071 E3.51366
G1 X230.403 Y236.064 E3.54716
G1 X230.473 Y235.076 E3.5801
G1 X230.614 Y234.082 E3.61349
G1 X230.83 Y233.072 E3.64785
G1 X231.096 Y232.146 E3.67989
G1 X231.452 Y231.171 E3.71441
G1 X231.854 Y230.27 E3.74723
G1 X232.334 Y229.372 E3.78109
G1 X232.866 Y228.521 E3.81447
G1 X233.457 Y227.709 E3.84788
G1 X234.102 Y226.942 E3.88121
G1 X234.797 Y226.224 E3.91444
G1 X235.539 Y225.557 E3.94763
G1 X236.352 Y224.924 E3.9819
G1 X237.164 Y224.376 E4.01448
G1 X238.048 Y223.868 E4.04839
G1 X238.93 Y223.437 E4.08104
G1 X239.885 Y223.052 E4.11529
G1 X240.824 Y222.746 E4.14814
G1 X241.802 Y222.504 E4.18165
G1 X242.789 Y222.329 E4.21499
G1 X243.802 Y222.225 E4.24886
G1 X244.808 Y222.189 E4.28234
G1 X245.812 Y222.226 E4.31575
G1 X246.811 Y222.332 E4.34917
G1 X247.804 Y222.508 E4.38271
G1 X248.47 Y222.674 E4.40554
G1 X248.062 Y222.869 E4.40916
G1 X247.841 Y223 E4.4177
G1 X247.344 Y223.263 E4.43641
G1 X247.26 Y223.306 E4.43954
G1 X246.859 Y223.489 E4.45421
G1 X246.535 Y223.619 E4.46582
G1 X246.15 Y223.757 E4.47942
G1 X245.837 Y223.851 E4.49029
G1 X245.594 Y223.914 E4.49864
G1 X245.346 Y223.968 E4.50708
G1 X245.094 Y224.015 E4.51561
G1 X244.765 Y224.052 E4.52662
G1 X243.85 Y224.104 E4.5571
G1 X243.598 Y224.124 E4.56551
G1 X242.656 Y224.253 E4.59713
G1 X242.521 Y224.278 E4.6017
G1 X241.711 Y224.454 E4.62927
G1 X241.579 Y224.489 E4.63381
G1 X240.788 Y224.726 E4.66127
G1 X240.659 Y224.77 E4.66581
G1 X239.885 Y225.071 E4.69343
G1 X239.761 Y225.124 E4.69791
G1 X239.015 Y225.482 E4.72543
G1 X238.894 Y225.543 E4.72994
G1 X238.174 Y225.962 E4.75765
G1 X238.059 Y226.033 E4.76214
G1 X237.271 Y226.579 E4.79403
G1 X236.521 Y227.188 E4.82616
G1 X235.818 Y227.856 E4.85842
G1 X235.173 Y228.572 E4.89047
G1 X234.585 Y229.336 E4.92253
G1 X234.059 Y230.142 E4.95455
G1 X233.993 Y230.259 E4.95901
G1 X233.595 Y230.986 E4.98658
G1 X233.536 Y231.107 E4.99106
G1 X233.199 Y231.863 E5.01859
G1 X233.148 Y231.989 E5.02311
G1 X232.868 Y232.771 E5.05073
G1 X232.828 Y232.902 E5.05529
G1 X232.61 Y233.7 E5.0828
G1 X232.579 Y233.832 E5.08731
G1 X232.425 Y234.645 E5.11484
G1 X232.403 Y234.779 E5.11935
G1 X232.3 Y235.735 E5.15133
G1 X232.272 Y236.701 E5.18348
G1 X232.318 Y237.665 E5.21558
G1 X232.437 Y238.623 E5.24768
G1 X232.631 Y239.572 E5.2799
G1 X232.897 Y240.494 E5.31182
G1 X232.942 Y240.623 E5.31636
G1 X233.233 Y241.397 E5.34386
G1 X233.287 Y241.521 E5.34836
G1 X233.637 Y242.273 E5.37595
G1 X233.699 Y242.393 E5.38044
G1 X234.109 Y243.118 E5.40814
G0 F6000 X234.452 Y242.912
;TYPE:WALL-OUTER
G1 F300 X234.516 Y243.013 E5.41212
G1 X234.97 Y243.689 E5.43921
G1 X235.041 Y243.786 E5.4432
G1 X235.546 Y244.424 E5.47027
G1 X235.624 Y244.517 E5.4743
G1 X236.178 Y245.113 E5.50137
G1 X236.262 Y245.199 E5.50537
G1 X236.859 Y245.751 E5.53241
G1 X236.95 Y245.832 E5.53646
G1 X237.685 Y246.408 E5.56752
G1 X238.462 Y246.927 E5.5986
G1 X239.278 Y247.384 E5.62971
G1 X240.127 Y247.777 E5.66082
G1 X241.002 Y248.101 E5.69186
G1 X241.116 Y248.137 E5.69583
G1 X241.899 Y248.359 E5.7229
G1 X242.016 Y248.386 E5.72689
G1 X242.814 Y248.547 E5.75397
G1 X242.934 Y248.565 E5.75801
G1 X243.74 Y248.663 E5.78501
G1 X243.861 Y248.674 E5.78905
G1 X244.675 Y248.709 E5.81615
G1 X244.796 Y248.71 E5.82018
G1 X245.61 Y248.681 E5.84727
G1 X245.729 Y248.673 E5.85123
G1 X246.539 Y248.582 E5.87834
G1 X246.658 Y248.565 E5.88234
G1 X247.457 Y248.412 E5.9094
G1 X247.575 Y248.387 E5.91341
G1 X248.476 Y248.139 E5.94449
G1 X249.355 Y247.82 E5.9756
G1 X250.206 Y247.435 E6.00666
G1 X251.026 Y246.986 E6.03776
G1 X251.806 Y246.474 E6.06879
G1 X251.903 Y246.403 E6.07279
G1 X252.548 Y245.904 E6.09991
G1 X252.639 Y245.826 E6.1039
G1 X253.242 Y245.279 E6.13097
G1 X253.327 Y245.195 E6.13495
G1 X253.886 Y244.603 E6.16203
G1 X253.966 Y244.512 E6.16606
G1 X254.476 Y243.877 E6.19315
G1 X254.549 Y243.782 E6.19713
G1 X255.008 Y243.111 E6.22417
G1 X255.075 Y243.01 E6.2282
G1 X255.481 Y242.304 E6.25529
G1 X255.539 Y242.198 E6.25931
G1 X255.889 Y241.464 E6.28636
G1 X255.939 Y241.353 E6.29041
G1 X256.273 Y240.481 E6.32146
G1 X256.539 Y239.585 E6.35255
G1 X256.735 Y238.671 E6.38364
G1 X256.859 Y237.744 E6.41475
G1 X256.868 Y237.626 E6.41868
G1 X256.912 Y236.813 E6.44576
G1 X256.912 Y236.692 E6.44979
G1 X256.893 Y235.879 E6.47684
G1 X256.884 Y235.758 E6.48087
G1 X256.802 Y234.95 E6.50788
G1 X256.784 Y234.83 E6.51192
G1 X256.64 Y234.029 E6.53899
G1 X256.614 Y233.911 E6.54301
G1 X256.407 Y233.124 E6.57007
G1 X256.374 Y233.008 E6.57408
G1 X256.064 Y232.127 E6.60515
G1 X255.687 Y231.273 E6.6362
G1 X255.245 Y230.448 E6.66733
G1 X254.74 Y229.662 E6.6984
G1 X254.178 Y228.917 E6.72944
G1 X254.026 Y228.737 E6.73727
G1 X253.609 Y228.266 E6.7582
G1 X253.34 Y227.952 E6.77195
G1 X253.303 Y227.905 E6.77394
G1 X253.134 Y227.674 E6.78346
G1 X253.018 Y227.506 E6.79025
G1 X252.804 Y227.153 E6.80398
G1 X252.726 Y227.015 E6.80925
G1 X252.549 Y226.675 E6.822
G1 X252.376 Y226.293 E6.83595
G1 X252.335 Y226.197 E6.83942
G1 X252.162 Y225.743 E6.85558
G1 X252.026 Y225.34 E6.86972
G1 X251.987 Y225.21 E6.87424
G1 X251.88 Y224.822 E6.88763
G1 X251.855 Y224.715 E6.89128
G1 X251.72 Y224.333 E6.90476
G1 X251.525 Y223.98 E6.91817
G1 X251.268 Y223.657 E6.9319
G1 X250.962 Y223.383 E6.94556
G1 X250.613 Y223.164 E6.95926
G1 X250.234 Y223.006 E6.97292
G1 X249.834 Y222.913 E6.98658
G1 X249.424 Y222.889 E7.00024
G1 X249.016 Y222.933 E7.01389
G1 X248.619 Y223.046 E7.02762
G1 X248.251 Y223.222 E7.04118
G1 X248.046 Y223.344 E7.04912
G1 X247.525 Y223.62 E7.06873
G1 X247.438 Y223.664 E7.07197
G1 X247.007 Y223.861 E7.08773
G1 X246.683 Y223.99 E7.09933
G1 X246.268 Y224.139 E7.114
G1 X245.949 Y224.235 E7.12508
G1 X245.679 Y224.305 E7.13435
G1 X245.431 Y224.359 E7.1428
G1 X245.156 Y224.41 E7.1521
G1 X244.797 Y224.451 E7.16412
G1 X243.877 Y224.503 E7.19476
G1 X243.641 Y224.522 E7.20264
G1 X242.719 Y224.648 E7.23359
G1 X242.6 Y224.67 E7.23762
G1 X241.805 Y224.843 E7.26468
G1 X241.688 Y224.874 E7.2687
G1 X240.91 Y225.107 E7.29571
G1 X240.796 Y225.146 E7.29972
G1 X240.036 Y225.441 E7.32684
G1 X239.926 Y225.488 E7.33081
G1 X239.192 Y225.841 E7.3579
G1 X239.085 Y225.895 E7.36189
G1 X238.38 Y226.305 E7.38902
G1 X238.278 Y226.368 E7.393
G1 X237.511 Y226.899 E7.42403
G1 X236.785 Y227.489 E7.45515
G1 X236.193 Y228.049 E7.48225
G1 X236.107 Y228.133 E7.48625
G1 X235.481 Y228.828 E7.51736
G1 X234.911 Y229.568 E7.54843
G1 X234.401 Y230.35 E7.57948
G1 X234.342 Y230.454 E7.58345
G1 X233.951 Y231.169 E7.61056
G1 X233.899 Y231.276 E7.61452
G1 X233.567 Y232.019 E7.64158
G1 X233.522 Y232.131 E7.6456
G1 X233.248 Y232.898 E7.67269
G1 X233.212 Y233.014 E7.67673
G1 X232.998 Y233.799 E7.70379
G1 X232.97 Y233.916 E7.70779
G1 X232.819 Y234.716 E7.73487
G1 X232.799 Y234.834 E7.73885
G1 X232.699 Y235.762 E7.76989
G1 X232.672 Y236.697 E7.801
G1 X232.717 Y237.631 E7.83211
G1 X232.832 Y238.558 E7.86317
G1 X233.02 Y239.476 E7.89434
G1 X233.278 Y240.372 E7.92535
G1 X233.318 Y240.486 E7.92937
G1 X233.604 Y241.247 E7.95641
G1 X233.652 Y241.357 E7.9604
G1 X233.996 Y242.096 E7.98751
G1 X234.051 Y242.202 E7.99149
G1 X234.452 Y242.912 E8.01861
G0 F6000 X234.075 Y243.138
G1 F2700 E3.01861
G0 F6000 X232.148 Y237.68
G0 X233.382 Y231.034
G0 X237.169 Y226.442
G0 X243.579 Y223.954
G0 X245.308 Y223.802
G0 X246.478 Y223.458
G0 X247.757 Y222.851
G0 X246.785 Y222.501
G0 X244.808 Y222.359
G0 X242.816 Y222.498
G0 X240.874 Y222.909
G0 X238.997 Y223.594
G0 X237.248 Y224.525
G0 X235.643 Y225.693
G0 X234.23 Y227.056
G0 X233.003 Y228.623
G0 X232.011 Y230.339
G0 X231.26 Y232.192
G0 X230.783 Y234.105
G0 X230.574 Y236.063
G0 X230.643 Y238.077
G0 X230.981 Y240.005
G0 X231.324 Y241.071
G0 X232.681 Y244.742
G1 F2700 E8.01861
G0 F6000 X232.515 Y244.852
G1 F300 X231.97 Y243.977 E8.05289
G1 X231.482 Y243.057 E8.08753
G1 X231.063 Y242.113 E8.12188
G1 X230.711 Y241.142 E8.15623
G1 X230.432 Y240.163 E8.19009
G1 X230.215 Y239.138 E8.22494
G1 X230.074 Y238.128 E8.25886
G1 X230.002 Y237.083 E8.2937
G1 X230.003 Y236.05 E8.32805
G1 X230.075 Y235.034 E8.36193
G1 X230.22 Y234.012 E8.39626
G1 X230.439 Y232.988 E8.43109
G1 X230.72 Y232.009 E8.46497
G1 X231.079 Y231.026 E8.49978
G1 X231.501 Y230.081 E8.5342
G1 X231.981 Y229.183 E8.56806
G1 X232.532 Y228.302 E8.60263
G1 X233.144 Y227.461 E8.63722
G1 X233.805 Y226.675 E8.67138
G1 X234.518 Y225.938 E8.70548
G1 X235.293 Y225.241 E8.74015
G1 X236.106 Y224.608 E8.77442
G1 X236.956 Y224.034 E8.80854
G1 X237.852 Y223.519 E8.84291
G1 X238.78 Y223.066 E8.87726
G1 X239.742 Y222.678 E8.91176
G1 X240.714 Y222.362 E8.94575
G1 X241.726 Y222.111 E8.98043
G1 X242.733 Y221.933 E9.01444
G1 X243.776 Y221.825 E9.04932
G1 X244.808 Y221.789 E9.08366
G1 X245.84 Y221.826 E9.11801
G1 X246.867 Y221.935 E9.15236
G1 X247.884 Y222.116 E9.18672
G1 X248.89 Y222.367 E9.2212
G1 X249.872 Y222.687 E9.25555
G1 X250.819 Y223.072 E9.28955
G1 X251.76 Y223.532 E9.32439
G1 X252.642 Y224.042 E9.35828
G1 X253.51 Y224.629 E9.39313
G1 X254.312 Y225.257 E9.42701
G1 X255.079 Y225.948 E9.46135
G1 X255.805 Y226.702 E9.49616
G1 X256.46 Y227.484 E9.53009
G1 X257.071 Y228.326 E9.56469
G1 X257.613 Y229.196 E9.59878
G1 X258.104 Y230.12 E9.63358
G1 X258.523 Y231.065 E9.66796
G1 X258.875 Y232.036 E9.70232
G1 X259.154 Y233.015 E9.73618
G1 X259.371 Y234.04 E9.77102
G1 X259.512 Y235.05 E9.80494
G1 X259.584 Y236.094 E9.83975
G1 X259.583 Y237.113 E9.87364
G1 X259.509 Y238.158 E9.90848
G1 X259.366 Y239.166 E9.94234
G1 X259.147 Y240.19 E9.97717
G1 X258.866 Y241.169 E10.01105
G1 X258.512 Y242.139 E10.04539
G1 X258.085 Y243.095 E10.08022
G1 X257.605 Y243.995 E10.11414
G1 X257.058 Y244.871 E10.14849
G1 X256.444 Y245.715 E10.18321
G1 X255.781 Y246.503 E10.21746
G1 X255.068 Y247.24 E10.25156
G1 X254.293 Y247.937 E10.28623
G1 X253.48 Y248.57 E10.3205
G1 X252.631 Y249.143 E10.35457
G1 X251.734 Y249.659 E10.38899
G1 X250.815 Y250.108 E10.42301
G1 X249.834 Y250.502 E10.45817
G1 X248.873 Y250.816 E10.4918
G1 X247.86 Y251.067 E10.52651
G1 X246.854 Y251.245 E10.56049
G1 X245.81 Y251.352 E10.59539
G1 X244.778 Y251.389 E10.62974
G1 X243.746 Y251.351 E10.66409
G1 X242.719 Y251.243 E10.69843
G1 X241.702 Y251.062 E10.73279
G1 X240.697 Y250.811 E10.76724
G1 X239.714 Y250.49 E10.80164
G1 X238.767 Y250.106 E10.83562
G1 X237.826 Y249.646 E10.87046
G1 X236.943 Y249.136 E10.90438
G1 X236.076 Y248.549 E10.9392
G1 X235.274 Y247.921 E10.97308
G1 X234.507 Y247.23 E11.00742
G1 X233.781 Y246.476 E11.04223
G1 X233.126 Y245.694 E11.07616
G1 X232.515 Y244.852 E11.11076
G0 F6000 X232.88 Y244.607
G0 X233.166 Y244.402
;TYPE:SKIN
G1 F300 X232.649 Y243.573 E11.14326
G1 X232.196 Y242.717 E11.17547
G1 X231.793 Y241.808 E11.20854
G1 X231.461 Y240.894 E11.24088
G1 X231.196 Y239.96 E11.27317
G1 X230.991 Y238.99 E11.30615
G1 X230.862 Y238.061 E11.33734
G1 X230.792 Y237.044 E11.37125
G1 X230.793 Y236.077 E11.40341
G1 X230.861 Y235.117 E11.43542
