;FLAVOR:Marlin
;TIME:7848
;Filament used: 5.73142m
;Layer height: 0.2
;MINX:41.483
;MINY:73.016
;MINZ:0.2
;MAXX:78.868
;MAXY:112.605
;MAXZ:20
;Generated with Cura_SteamEngine main
M140 S65
M105
M190 S65
M104 S215
M105
M109 S215
M82 ;absolute extrusion mode
M201 X500.00 Y500.00 Z100.00 E5000.00 ;Setup machine max acceleration
M203 X500.00 Y500.00 Z10.00 E50.00 ;Setup machine max feedrate
M204 P500.00 R1000.00 T500.00 ;Setup Print/Retract/Travel acceleration
M205 X8.00 Y8.00 Z0.40 E5.00 ;Setup Jerk
M220 S100 ;Reset Feedrate
M221 S100 ;Reset Flowrate

G28 ;Home
G29 ;BL-touch
G92 E0 ;Reset Extruder
G1 Z2.0 F3000 ;Move Z Axis up
G1 X10.1 Y20 Z0.28 F5000.0 ;Move to start position
G1 X10.1 Y200.0 Z0.28 F1500.0 E15 ;Draw the first line
G1 X10.4 Y200.0 Z0.28 F5000.0 ;Move to side a little
G1 X10.4 Y20 Z0.28 F1500.0 E30 ;Draw the second line
G92 E0 ;Reset Extruder
G1 Z2.0 F3000 ;Move Z Axis up
G92 E0
G92 E0
G1 F2700 E-5
;LAYER_COUNT:100
;LAYER:0
M107
;MESH:head.v6.lower.3mf
G0 F6000 X62.213 Y106.342 Z0.2
;TYPE:WALL-INNER
G1 F2700 E0
G1 F300 X63.312 Y105.893 E0.03949
G1 X62.813 Y105.764 E0.05663
G1 X62.158 Y105.547 E0.07958
G1 X61.731 Y105.427 E0.09433
G1 X61.247 Y105.317 E0.11084
G1 X60.867 Y105.246 E0.1237
G1 X60.3 Y105.183 E0.14267
G1 X59.705 Y105.158 E0.16248
G1 X59.454 Y105.167 E0.17083
G1 X58.171 Y105.301 E0.21374
G1 X57.195 Y105.332 E0.24621
G1 X56.276 Y105.292 E0.27681
G1 X55.283 Y105.173 E0.31007
G1 X54.337 Y104.982 E0.34217
G1 X53.409 Y104.719 E0.37425
G1 X52.509 Y104.387 E0.40616
G1 X51.535 Y103.936 E0.44186
G1 X50.697 Y103.459 E0.47393
G1 X49.867 Y102.901 E0.50719
G1 X49.109 Y102.295 E0.53947
G1 X48.407 Y101.644 E0.57132
G1 X47.743 Y100.924 E0.60389
G1 X47.146 Y100.163 E0.63606
G1 X46.608 Y99.36 E0.66821
G1 X46.15 Y98.545 E0.6993
G1 X45.745 Y97.674 E0.73125
G1 X45.405 Y96.781 E0.76303
G1 X45.13 Y95.83 E0.79596
G1 X44.911 Y94.742 E0.83287
G1 X44.802 Y93.827 E0.86352
G1 X44.761 Y92.865 E0.89555
G1 X44.795 Y91.876 E0.92846
G1 X44.903 Y90.921 E0.96043
G1 X45.085 Y89.972 E0.99256
G1 X45.34 Y89.046 E1.02451
G1 X45.67 Y88.12 E1.05721
G1 X46.077 Y87.22 E1.09006
G1 X46.542 Y86.374 E1.12217
G1 X47.071 Y85.561 E1.15443
G1 X47.662 Y84.797 E1.18655
G1 X48.369 Y84.015 E1.22162
G1 X49.071 Y83.356 E1.25364
G1 X49.853 Y82.731 E1.28694
G1 X50.652 Y82.187 E1.31909
G1 X51.49 Y81.708 E1.35119
G1 X52.364 Y81.295 E1.38334
G1 X53.249 Y80.956 E1.41486
G1 X54.19 Y80.675 E1.44753
G1 X55.12 Y80.477 E1.47915
G1 X56.1 Y80.345 E1.51204
G1 X57.017 Y80.292 E1.54259
G1 X58.149 Y80.32 E1.58025
G1 X59.105 Y80.421 E1.61223
G1 X60.052 Y80.598 E1.64427
G1 X60.98 Y80.848 E1.67624
G1 X61.891 Y81.166 E1.70833
G1 X62.771 Y81.552 E1.74029
G1 X63.63 Y82.013 E1.77272
G1 X64.456 Y82.546 E1.80541
G1 X65.198 Y83.107 E1.83635
G1 X65.917 Y83.741 E1.86823
G1 X66.617 Y84.463 E1.90168
G1 X67.235 Y85.214 E1.93403
G1 X67.846 Y86.084 E1.96939
G1 X68.341 Y86.937 E2.00219
G1 X68.748 Y87.777 E2.03324
G1 X69.104 Y88.678 E2.06546
G1 X69.388 Y89.598 E2.09748
G1 X69.601 Y90.547 E2.12983
G1 X69.736 Y91.488 E2.16145
G1 X69.802 Y92.492 E2.19491
G1 X69.789 Y93.454 E2.22691
G1 X69.703 Y94.412 E2.2589
G1 X69.545 Y95.35 E2.29054
G1 X69.31 Y96.297 E2.32299
G1 X68.967 Y97.313 E2.35866
G1 X68.587 Y98.197 E2.39066
G1 X68.14 Y99.055 E2.42284
G1 X67.512 Y100.063 E2.46234
G1 X67.278 Y100.504 E2.47895
G1 X67.092 Y100.947 E2.49493
G1 X66.936 Y101.391 E2.51058
G1 X66.816 Y101.813 E2.52517
G1 X66.722 Y102.205 E2.53858
G1 X66.617 Y102.769 E2.55766
G1 X66.531 Y103.434 E2.57996
G1 X66.427 Y103.942 E2.59721
G1 X67.283 Y103.169 E2.63557
G1 X67.972 Y102.456 E2.66855
G1 X68.621 Y101.686 E2.70204
G1 X69.22 Y100.861 E2.73595
G1 X69.753 Y100.009 E2.76938
G1 X70.224 Y99.125 E2.80269
G1 X70.63 Y98.207 E2.83608
G1 X70.97 Y97.275 E2.86907
G1 X71.249 Y96.306 E2.90261
G1 X71.462 Y95.31 E2.93649
G1 X71.6 Y94.327 E2.9695
G1 X71.672 Y93.328 E3.00282
G1 X71.672 Y92.307 E3.03678
G1 X71.602 Y91.308 E3.07008
G1 X71.462 Y90.311 E3.10357
G1 X71.256 Y89.342 E3.13652
G1 X70.979 Y88.374 E3.17001
G1 X70.633 Y87.416 E3.20389
G1 X70.229 Y86.509 E3.23691
G1 X69.76 Y85.625 E3.27019
G1 X69.227 Y84.771 E3.30368
G1 X68.658 Y83.984 E3.33598
G1 X67.982 Y83.175 E3.37104
G1 X67.285 Y82.452 E3.40444
G1 X66.538 Y81.779 E3.43788
G1 X65.758 Y81.17 E3.4708
G1 X64.926 Y80.609 E3.50417
G1 X64.054 Y80.104 E3.53769
G1 X63.156 Y79.665 E3.57093
G1 X62.222 Y79.284 E3.60448
G1 X61.252 Y78.969 E3.63841
G1 X60.291 Y78.729 E3.67135
G1 X59.296 Y78.554 E3.70495
G1 X58.303 Y78.448 E3.73817
G1 X57.296 Y78.412 E3.77168
G1 X56.279 Y78.447 E3.80553
G1 X55.282 Y78.552 E3.83887
G1 X54.29 Y78.726 E3.87237
G1 X53.327 Y78.967 E3.90539
G1 X52.357 Y79.279 E3.93928
G1 X51.421 Y79.657 E3.97285
G1 X50.524 Y80.098 E4.0061
G1 X49.714 Y80.563 E4.03716
G1 X48.82 Y81.161 E4.07293
G1 X48.026 Y81.782 E4.10646
G1 X47.291 Y82.443 E4.13934
G1 X46.591 Y83.167 E4.17283
G1 X45.946 Y83.934 E4.20616
G1 X45.345 Y84.76 E4.24014
G1 X44.814 Y85.611 E4.2735
G1 X44.34 Y86.499 E4.30698
G1 X43.964 Y87.34 E4.33762
G1 X43.592 Y88.348 E4.37336
G1 X43.316 Y89.313 E4.40674
G1 X43.102 Y90.312 E4.44072
G1 X42.964 Y91.292 E4.47364
G1 X42.893 Y92.295 E4.50708
G1 X42.892 Y93.312 E4.54091
G1 X42.962 Y94.313 E4.57428
G1 X43.102 Y95.31 E4.60777
G1 X43.309 Y96.281 E4.64079
G1 X43.587 Y97.259 E4.67461
G1 X43.932 Y98.202 E4.708
G1 X44.334 Y99.11 E4.74103
G1 X44.804 Y99.997 E4.77442
G1 X45.337 Y100.85 E4.80787
G1 X45.926 Y101.661 E4.84121
G1 X46.582 Y102.444 E4.87518
G1 X47.279 Y103.167 E4.90859
G1 X48.027 Y103.839 E4.94203
G1 X48.807 Y104.449 E4.97496
G1 X49.641 Y105.013 E5.00845
G1 X50.506 Y105.515 E5.04171
G1 X51.413 Y105.96 E5.07532
G1 X52.358 Y106.343 E5.10923
G1 X53.3 Y106.646 E5.14214
G1 X54.278 Y106.892 E5.17568
G1 X55.265 Y107.068 E5.20903
G1 X56.264 Y107.173 E5.24244
G1 X57.3 Y107.21 E5.27692
G1 X58.285 Y107.175 E5.3097
G1 X59.285 Y107.07 E5.34314
G1 X60.263 Y106.898 E5.37617
G1 X61.252 Y106.652 E5.41007
G1 X62.213 Y106.342 E5.44365
G0 F6000 X62.35 Y106.718
;TYPE:WALL-OUTER
G1 F300 X63.3 Y106.331 E5.47777
G1 X64.343 Y105.822 E5.51637
G1 F221.4 X64.638 Y105.479 E5.53676
G1 X64.212 Y105.459 E5.55598
G1 F300 X63.774 Y105.511 E5.57065
G1 X63.303 Y105.477 E5.58636
G1 X62.899 Y105.372 E5.60024
G1 X62.286 Y105.167 E5.62174
G1 X61.843 Y105.042 E5.63705
G1 X61.34 Y104.927 E5.65421
G1 X60.926 Y104.85 E5.66822
G1 X60.33 Y104.783 E5.68816
G1 X59.706 Y104.758 E5.70894
G1 X59.426 Y104.768 E5.71825
G1 X58.147 Y104.901 E5.76102
G1 X57.213 Y104.932 E5.79211
G1 X56.278 Y104.891 E5.82323
G1 X55.349 Y104.778 E5.85436
G1 X54.429 Y104.592 E5.88558
G1 X53.524 Y104.335 E5.91687
G1 X52.65 Y104.012 E5.94786
G1 X51.699 Y103.57 E5.98274
G1 X50.887 Y103.106 E6.01385
G1 X50.112 Y102.584 E6.04492
G1 X49.381 Y102.001 E6.07602
G1 X48.693 Y101.363 E6.10723
G1 X48.057 Y100.676 E6.13837
G1 X47.478 Y99.94 E6.16951
G1 X46.957 Y99.164 E6.2006
G1 X46.499 Y98.348 E6.23173
G1 X46.107 Y97.502 E6.26274
G1 X45.776 Y96.63 E6.29376
G1 X45.516 Y95.725 E6.32508
G1 X45.309 Y94.694 E6.36005
G1 X45.199 Y93.764 E6.3912
G1 X45.161 Y92.831 E6.42226
G1 X45.195 Y91.896 E6.45338
G1 X45.301 Y90.967 E6.48448
G1 X45.479 Y90.045 E6.51571
G1 X45.728 Y89.144 E6.5468
G1 X46.044 Y88.263 E6.57793
G1 X46.428 Y87.412 E6.60898
G1 X46.87 Y86.604 E6.63961
G1 X47.388 Y85.805 E6.67128
G1 X47.959 Y85.065 E6.70237
G1 X48.657 Y84.293 E6.73699
G1 X49.348 Y83.646 E6.76847
G1 X50.079 Y83.061 E6.79961
G1 X50.837 Y82.542 E6.83017
G1 X51.662 Y82.07 E6.86178
G1 X52.508 Y81.669 E6.89292
G1 X53.376 Y81.336 E6.92384
G1 X54.287 Y81.063 E6.95547
G1 X55.197 Y80.87 E6.98641
G1 X56.123 Y80.745 E7.01749
G1 X57.057 Y80.692 E7.04861
G1 X58.107 Y80.718 E7.08354
G1 X59.037 Y80.817 E7.11465
G1 X59.958 Y80.988 E7.1458
G1 X60.86 Y81.231 E7.17687
G1 X61.744 Y81.539 E7.20801
G1 X62.595 Y81.912 E7.23891
G1 X63.438 Y82.365 E7.27074
G1 X64.214 Y82.866 E7.30146
G1 X64.96 Y83.431 E7.33259
G1 X65.669 Y84.058 E7.36407
G1 X66.31 Y84.722 E7.39476
G1 X66.907 Y85.444 E7.42592
G1 X67.509 Y86.302 E7.46079
G1 X67.981 Y87.112 E7.49197
G1 X68.386 Y87.948 E7.52286
G1 X68.731 Y88.824 E7.55418
G1 X69.005 Y89.72 E7.58534
G1 X69.212 Y90.645 E7.61687
G1 X69.34 Y91.558 E7.64753
G1 X69.401 Y92.492 E7.67866
G1 X69.389 Y93.429 E7.70983
G1 X69.305 Y94.362 E7.74099
G1 X69.151 Y95.273 E7.77172
G1 X68.921 Y96.194 E7.80329
G1 X68.591 Y97.175 E7.83771
G1 X68.221 Y98.035 E7.86885
G1 X67.779 Y98.878 E7.90051
G1 X67.165 Y99.863 E7.93912
G1 X66.916 Y100.332 E7.95678
G1 X66.718 Y100.803 E7.97377
G1 X66.554 Y101.269 E7.9902
G1 X66.427 Y101.719 E8.00575
G1 X66.33 Y102.121 E8.01951
G1 X66.221 Y102.707 E8.03933
G1 X66.139 Y103.354 E8.06102
G1 X66.05 Y103.78 E8.0755
G1 X65.885 Y104.183 E8.08998
G1 X65.646 Y104.559 E8.1048
G1 F221 X65.475 Y104.954 E8.12423
G1 X65.915 Y104.837 E8.14479
G1 F300 X66.806 Y104.139 E8.18244
G1 X67.552 Y103.466 E8.21585
G1 X68.27 Y102.724 E8.2502
G1 X68.936 Y101.932 E8.28461
G1 X69.552 Y101.085 E8.31945
G1 X70.1 Y100.209 E8.35381
G1 X70.584 Y99.3 E8.38807
G1 X71.002 Y98.357 E8.42237
G1 X71.351 Y97.399 E8.45629
G1 X71.637 Y96.403 E8.49075
G1 X71.856 Y95.38 E8.52555
G1 X71.998 Y94.369 E8.5595
G1 X72.072 Y93.342 E8.59375
G1 X72.072 Y92.293 E8.62864
G1 X72 Y91.266 E8.66288
G1 X71.856 Y90.241 E8.69731
G1 X71.644 Y89.246 E8.73114
G1 X71.36 Y88.251 E8.76556
G1 X71.004 Y87.266 E8.8004
G1 X70.589 Y86.334 E8.83433
G1 X70.107 Y85.425 E8.86855
G1 X69.559 Y84.547 E8.90297
G1 X68.954 Y83.712 E8.93727
G1 X68.28 Y82.907 E8.97219
G1 X67.563 Y82.164 E9.00653
G1 X66.795 Y81.473 E9.04089
G1 X65.994 Y80.846 E9.07473
G1 X65.138 Y80.269 E9.10906
G1 X64.242 Y79.751 E9.14348
G1 X63.32 Y79.299 E9.17764
G1 X62.36 Y78.908 E9.21211
G1 X61.362 Y78.584 E9.24701
G1 X60.374 Y78.337 E9.28088
G1 X59.354 Y78.158 E9.31533
G1 X58.331 Y78.048 E9.34955
G1 X57.296 Y78.012 E9.38399
G1 X56.251 Y78.047 E9.41877
G1 X55.272 Y78.15 E9.45151
G1 X54.207 Y78.334 E9.48746
G1 X53.217 Y78.582 E9.5214
G1 X52.221 Y78.903 E9.55621
G1 X51.258 Y79.291 E9.59074
G1 X50.336 Y79.744 E9.62491
G1 X49.441 Y80.26 E9.65927
G1 X48.585 Y80.837 E9.6936
G1 X47.769 Y81.475 E9.72805
G1 X47.013 Y82.155 E9.76187
G1 X46.294 Y82.899 E9.79629
G1 X45.63 Y83.687 E9.83056
G1 X45.013 Y84.536 E9.86547
G1 X44.467 Y85.411 E9.89977
G1 X43.98 Y86.323 E9.93416
G1 X43.561 Y87.267 E9.96851
G1 X43.211 Y88.224 E10.0024
G1 X42.928 Y89.216 E10.03671
G1 X42.708 Y90.242 E10.07161
G1 X42.566 Y91.25 E10.10547
G1 X42.493 Y92.281 E10.13985
G1 X42.492 Y93.326 E10.1746
G1 X42.564 Y94.355 E10.20891
G1 X42.708 Y95.38 E10.24334
G1 X42.911 Y96.335 E10.27581
G1 X43.206 Y97.383 E10.31202
G1 X43.545 Y98.312 E10.34491
G1 X43.974 Y99.285 E10.38028
G1 X44.458 Y100.197 E10.41462
G1 X45.005 Y101.074 E10.449
G1 X45.61 Y101.907 E10.48324
G1 X46.284 Y102.712 E10.51816
G1 X47.001 Y103.455 E10.5525
G1 X47.769 Y104.146 E10.58686
G1 X48.571 Y104.773 E10.62072
G1 X49.429 Y105.352 E10.65515
G1 X50.317 Y105.868 E10.68931
G1 X51.249 Y106.325 E10.72383
G1 X52.221 Y106.719 E10.75872
G1 X53.19 Y107.031 E10.79258
G1 X54.194 Y107.284 E10.82701
G1 X55.209 Y107.464 E10.8613
G1 X56.236 Y107.573 E10.89565
G1 X57.268 Y107.61 E10.93
G1 X58.313 Y107.574 E10.96477
G1 X59.296 Y107.472 E10.99764
G1 X60.346 Y107.29 E11.03309
G1 X61.362 Y107.037 E11.06791
G1 X62.35 Y106.718 E11.10244
G1 F2700 E6.10244
G0 F6000 X62.232 Y106.441
G0 X64.106 Y105.694
G1 F2700 E11.10244
G0 F6000 X64.638 Y105.479
G1 F177.8 X64.862 Y105.358 E11.11673
G1 F182.4 X65.087 Y105.237 E11.13071
G1 F179.6 X65.475 Y104.954 E11.15739
G1 F2700 E6.15739
G0 F6000 X65.898 Y104.569
G0 X66.106 Y104.278
G0 X67.991 Y98.986
G0 X68.813 Y97.264
G0 X69.154 Y96.252
G0 X69.543 Y94.384
G0 X69.639 Y92.479
G0 X69.442 Y90.582
G0 X68.953 Y88.738
G0 X68.188 Y86.993
G0 X67.705 Y86.167
G0 X67.092 Y85.292
G0 X65.819 Y83.872
G0 X64.342 Y82.664
G0 X62.697 Y81.698
G0 X60.922 Y80.998
G0 X59.063 Y80.579
G0 X58.113 Y80.479
G0 X57.045 Y80.453
G0 X55.146 Y80.636
G0 X53.299 Y81.109
G0 X51.545 Y81.861
G0 X49.93 Y82.874
G0 X48.489 Y84.124
G0 X47.771 Y84.918
G0 X46.668 Y86.476
G0 X45.819 Y88.182
G0 X45.244 Y90.001
G0 X44.956 Y91.887
G0 X44.961 Y93.793
G0 X45.074 Y94.741
G0 X45.286 Y95.79
G0 X45.888 Y97.6
G0 X46.759 Y99.297
G0 X47.883 Y100.838
G0 X49.23 Y102.189
G0 X50.768 Y103.314
G0 X51.599 Y103.787
G0 X52.568 Y104.237
G0 X54.383 Y104.826
G0 X56.266 Y105.13
G0 X61.085 Y105.344
G0 X62.326 Y105.709
G1 F2700 E11.15739
G0 F6000 X62.245 Y105.95
;TYPE:SKIN
G1 F300 X61.628 Y105.771 E11.17875
G1 X61.192 Y105.674 E11.19361
G1 X60.8 Y105.602 E11.20687
G1 X60.273 Y105.542 E11.22451
G1 X59.595 Y105.515 E11.24707
G1 X58.188 Y105.66 E11.29412
G1 X57.181 Y105.692 E11.32763
G1 X56.197 Y105.647 E11.36039
G1 X55.213 Y105.527 E11.39336
G1 X54.242 Y105.331 E11.42631
G1 X53.317 Y105.068 E11.45829
G1 X52.328 Y104.702 E11.49337
G1 X51.378 Y104.261 E11.5282
G1 X50.46 Y103.737 E11.56336
G1 X49.685 Y103.215 E11.59444
G1 X48.868 Y102.565 E11.62916
G1 X48.145 Y101.891 E11.66204
G1 X47.471 Y101.163 E11.69504
G1 X46.89 Y100.424 E11.7263
G1 X46.311 Y99.566 E11.76073
G1 X45.835 Y98.72 E11.79302
G1 X45.388 Y97.757 E11.82833
G1 X45.065 Y96.899 E11.85882
G1 X44.777 Y95.907 E11.89318
G1 X44.563 Y94.846 E11.92918
G1 X44.44 Y93.816 E11.96368
G1 X44.401 Y92.867 E11.99527
G1 X44.436 Y91.844 E12.02931
G1 X44.548 Y90.859 E12.06229
G1 X44.744 Y89.843 E12.0967
G1 X44.996 Y88.934 E12.12807
G1 X45.339 Y87.977 E12.16189
G1 X45.76 Y87.046 E12.19587
G1 X46.202 Y86.239 E12.22647
G1 X46.771 Y85.358 E12.26136
G1 X47.395 Y84.556 E12.29515
G1 X48.097 Y83.777 E12.33003
G1 X48.837 Y83.081 E12.36382
G1 X49.649 Y82.433 E12.39837
G1 X50.419 Y81.907 E12.42939
G1 X51.278 Y81.411 E12.46238
G1 X52.225 Y80.961 E12.49725
G1 X53.144 Y80.613 E12.52994
G1 X54.068 Y80.333 E12.56205
G1 X55.065 Y80.121 E12.59595
G1 X56.044 Y79.989 E12.62881
G1 X57.011 Y79.933 E12.66102
G1 X58.18 Y79.96 E12.69992
G1 X59.166 Y80.064 E12.73289
G1 X60.145 Y80.249 E12.76603
G1 X61.088 Y80.501 E12.79849
G1 X62.034 Y80.835 E12.83186
G1 X62.928 Y81.226 E12.86432
G1 X63.819 Y81.705 E12.89796
G1 X64.633 Y82.229 E12.93016
G1 X65.421 Y82.822 E12.96296
G1 X66.196 Y83.507 E12.99736
G1 X66.855 Y84.191 E13.02895
G1 X67.521 Y84.993 E13.06363
G1 X68.147 Y85.884 E13.09985
G1 X68.65 Y86.748 E13.1331
G1 X69.079 Y87.634 E13.16584
G1 X69.448 Y88.566 E13.19918
G1 X69.74 Y89.515 E13.2322
G1 X69.956 Y90.479 E13.26506
G1 X70.094 Y91.45 E13.29768
G1 X70.162 Y92.475 E13.33185
G1 X70.151 Y93.437 E13.36384
G1 X70.06 Y94.462 E13.39807
G1 X69.897 Y95.432 E13.43079
G1 X69.665 Y96.369 E13.46289
G1 X69.313 Y97.419 E13.49972
G1 X68.906 Y98.37 E13.53413
G1 X68.459 Y99.224 E13.56619
G1 X67.825 Y100.242 E13.60608
G1 X67.605 Y100.661 E13.62182
G1 X67.426 Y101.08 E13.63697
G1 X67.277 Y101.514 E13.65223
G1 X67.163 Y101.912 E13.666
G1 X67.074 Y102.283 E13.67869
G1 X66.942 Y103.003 E13.70304
G1 X67.713 Y102.205 E13.73995
G1 X68.351 Y101.444 E13.77298
G1 X68.907 Y100.68 E13.8044
G1 X69.451 Y99.811 E13.8385
G1 X69.899 Y98.967 E13.87028
G1 X70.293 Y98.078 E13.90263
G1 X70.641 Y97.125 E13.93637
G1 X70.898 Y96.219 E13.96769
G1 X71.106 Y95.246 E14.00079
G1 X71.241 Y94.289 E14.03293
G1 X71.312 Y93.314 E14.06544
G1 X71.311 Y92.301 E14.09914
G1 X71.244 Y91.349 E14.13088
G1 X71.108 Y90.382 E14.16336
G1 X70.91 Y89.449 E14.19508
G1 X70.639 Y88.5 E14.22791
G1 X70.309 Y87.577 E14.26051
G1 X69.904 Y86.667 E14.29364
G1 X69.438 Y85.788 E14.32673
G1 X68.927 Y84.972 E14.35875
G1 X68.369 Y84.202 E14.39038
G1 X67.713 Y83.416 E14.42443
G1 X67.033 Y82.712 E14.45698
G1 X66.306 Y82.057 E14.48953
G1 X65.545 Y81.463 E14.52164
G1 X64.734 Y80.914 E14.55421
G1 X63.882 Y80.421 E14.58695
G1 X63.009 Y79.994 E14.61928
G1 X62.084 Y79.616 E14.65251
G1 X61.153 Y79.318 E14.68502
G1 X60.215 Y79.082 E14.71719
G1 X59.244 Y78.911 E14.74999
G1 X58.279 Y78.807 E14.78227
G1 X57.303 Y78.774 E14.81475
G1 X56.305 Y78.806 E14.84796
G1 X55.314 Y78.912 E14.88111
G1 X54.367 Y79.079 E14.91309
G1 X53.384 Y79.325 E14.94679
G1 X52.506 Y79.609 E14.97749
G1 X51.569 Y79.985 E15.01107
G1 X50.658 Y80.437 E15.04489
G1 X49.846 Y80.905 E15.07606
G1 X49.017 Y81.465 E15.10934
G1 X48.257 Y82.059 E15.14142
G1 X47.541 Y82.702 E15.17343
G1 X46.859 Y83.409 E15.2061
G1 X46.229 Y84.157 E15.23863
G1 X45.629 Y84.985 E15.27264
G1 X45.127 Y85.791 E15.30422
G1 X44.664 Y86.657 E15.33688
