;FLAVOR:Marlin
;TIME:6532
;Filament used: 5.6938m
;Layer height: 0.2
;MINX:72.677
;MINY:50.448
;MINZ:0.2
;MAXX:112.268
;MAXY:87.834
;MAXZ:19.6
;Generated with Cura_SteamEngine main
M140 S65
M105
M190 S65
M104 S215
M105
M109 S215
M82 ;absolute extrusion mode
M201 X500.00 Y500.00 Z100.00 E5000.00 ;Setup machine max acceleration
M203 X500.00 Y500.00 Z10.00 E50.00 ;Setup machine max feedrate
M204 P500.00 R1000.00 T500.00 ;Setup Print/Retract/Travel acceleration
M205 X8.00 Y8.00 Z0.40 E5.00 ;Setup Jerk
M220 S100 ;Reset Feedrate
M221 S100 ;Reset Flowrate

G28 ;Home
G29 ;BL-touch
G92 E0 ;Reset Extruder
G1 Z2.0 F3000 ;Move Z Axis up
G1 X10.1 Y20 Z0.28 F5000.0 ;Move to start position
G1 X10.1 Y200.0 Z0.28 F1500.0 E15 ;Draw the first line
G1 X10.4 Y200.0 Z0.28 F5000.0 ;Move to side a little
G1 X10.4 Y20 Z0.28 F1500.0 E30 ;Draw the second line
G92 E0 ;Reset Extruder
G1 Z2.0 F3000 ;Move Z Axis up
G92 E0
G92 E0
G1 F2700 E-5
;LAYER_COUNT:98
;LAYER:0
M107
;MESH:head.v5.hole_left.3mf
G0 F6000 X104.324 Y63.224 Z0.2
;TYPE:WALL-OUTER
G1 F2700 E0
G1 F271.5 X104.433 Y63.346 E0.00601
G1 F296.3 X104.624 Y63.582 E0.01624
G1 F317.5 X104.845 Y63.908 E0.02862
G1 F292.7 X105.06 Y64.299 E0.04383
G1 F2700 E-4.95617
G0 F6000 X104.804 Y67.05
G0 X94.97 Y86.215
;TYPE:WALL-INNER
G1 F2700 E0.04383
G1 F300 X95.955 Y86.006 E0.07732
G1 X96.909 Y85.732 E0.11033
G1 X97.867 Y85.385 E0.14422
G1 X98.787 Y84.977 E0.17769
G1 X99.671 Y84.506 E0.21101
G1 X100.525 Y83.973 E0.24449
G1 X101.338 Y83.382 E0.27792
G1 X102.109 Y82.735 E0.3114
G1 X102.831 Y82.039 E0.34475
G1 X103.503 Y81.29 E0.37822
G1 X104.122 Y80.499 E0.41163
G1 X104.684 Y79.666 E0.44505
G1 X105.185 Y78.795 E0.47847
G1 X105.624 Y77.896 E0.51175
G1 X106.004 Y76.962 E0.54528
G1 X106.319 Y75.992 E0.5792
G1 X106.557 Y75.03 E0.61216
G1 X106.732 Y74.038 E0.64567
G1 X106.837 Y73.042 E0.67898
G1 X106.872 Y72.035 E0.71249
G1 X106.837 Y71.031 E0.74591
G1 X106.737 Y70.069 E0.77807
G1 X106.557 Y69.043 E0.81272
G1 X106.317 Y68.081 E0.8457
G1 X106.004 Y67.11 E0.87963
G1 X105.624 Y66.17 E0.91335
G1 X105.467 Y65.849 E0.92524
G1 X105.368 Y66.175 E0.93657
G1 X105.228 Y66.47 E0.94743
G1 X104.977 Y67.103 E0.97008
G1 X104.835 Y67.533 E0.98514
G1 X104.763 Y67.776 E0.99357
G1 X104.63 Y68.324 E1.01232
G1 X104.538 Y68.876 E1.03094
G1 X104.497 Y69.326 E1.04597
G1 X104.489 Y69.597 E1.05498
G1 X104.505 Y70.004 E1.06853
G1 X104.598 Y70.777 E1.09443
G1 X104.656 Y71.668 E1.12412
G1 X104.652 Y72.563 E1.15389
G1 X104.581 Y73.454 E1.18362
G1 X104.445 Y74.324 E1.21291
G1 X104.308 Y74.952 E1.23429
G1 X104.234 Y75.235 E1.24402
G1 X104.059 Y75.818 E1.26426
G1 X103.754 Y76.654 E1.29386
G1 X103.388 Y77.463 E1.32339
G1 X102.959 Y78.247 E1.35312
G1 X102.478 Y79.001 E1.38286
G1 X101.939 Y79.713 E1.41257
G1 X101.355 Y80.387 E1.44223
G1 X100.718 Y81.014 E1.47196
G1 X100.04 Y81.594 E1.50163
G1 X99.318 Y82.122 E1.53138
G1 X98.529 Y82.616 E1.56234
G1 X97.733 Y83.031 E1.5922
G1 X97.196 Y83.271 E1.61176
G1 X96.913 Y83.384 E1.6219
G1 X96.339 Y83.593 E1.64222
G1 X96.068 Y83.681 E1.65169
G1 X95.486 Y83.846 E1.67181
G1 X94.63 Y84.032 E1.70095
G1 X93.732 Y84.159 E1.73111
G1 X92.851 Y84.217 E1.76048
G1 X91.912 Y84.212 E1.79171
G1 X91.02 Y84.138 E1.82148
G1 X90.192 Y84.01 E1.84935
G1 X89.278 Y83.8 E1.88054
G1 X88.425 Y83.531 E1.91029
G1 X87.588 Y83.203 E1.94019
G1 X86.774 Y82.81 E1.97025
G1 X86.244 Y82.511 E1.99049
G1 X86.001 Y82.364 E1.99994
G1 X85.492 Y82.026 E2.02026
G1 X85.26 Y81.86 E2.02975
G1 X84.768 Y81.478 E2.05046
G1 X84.091 Y80.885 E2.0804
G1 X83.495 Y80.278 E2.10869
G1 X82.887 Y79.564 E2.13988
G1 X82.371 Y78.858 E2.16897
G1 X81.899 Y78.104 E2.19855
G1 X81.483 Y77.31 E2.22837
G1 X81.117 Y76.466 E2.25897
G1 X80.829 Y75.647 E2.28784
G1 X80.593 Y74.76 E2.31837
G1 X80.473 Y74.163 E2.33862
G1 X80.425 Y73.88 E2.34817
G1 X80.348 Y73.273 E2.36852
G1 X80.322 Y72.991 E2.37794
G1 X80.29 Y72.403 E2.39753
G1 X80.287 Y72.053 E2.40917
G1 X80.298 Y71.47 E2.42856
G1 X80.372 Y70.577 E2.45836
G1 X80.503 Y69.736 E2.48667
G1 X80.714 Y68.823 E2.51784
G1 X80.965 Y68.017 E2.54592
G1 X81.298 Y67.163 E2.5764
G1 X81.701 Y66.327 E2.60727
G1 X82.137 Y65.572 E2.63627
G1 X82.628 Y64.846 E2.66542
G1 X83.183 Y64.146 E2.69513
G1 X83.614 Y63.664 E2.71664
G1 X83.813 Y63.459 E2.72614
G1 X84.252 Y63.037 E2.74639
G1 X84.466 Y62.846 E2.75593
G1 X84.939 Y62.454 E2.77637
G1 X85.162 Y62.285 E2.78567
G1 X85.672 Y61.921 E2.80651
G1 X86.391 Y61.472 E2.83471
G1 X87.228 Y61.033 E2.86614
G1 X88.046 Y60.678 E2.8958
G1 X88.886 Y60.384 E2.9254
G1 X89.76 Y60.151 E2.95549
G1 X90.641 Y59.985 E2.9853
G1 X91.487 Y59.886 E3.01363
G1 X92.378 Y59.847 E3.0433
G1 X93.312 Y59.876 E3.07438
G1 X93.922 Y59.933 E3.09475
G1 X94.202 Y59.971 E3.10415
G1 X94.789 Y60.07 E3.12395
G1 X95.084 Y60.129 E3.13396
G1 X95.678 Y60.274 E3.15429
G1 X96.531 Y60.543 E3.18404
G1 X97.367 Y60.87 E3.2139
G1 X98.173 Y61.26 E3.24368
G1 X98.852 Y61.633 E3.26945
G1 X99.162 Y61.775 E3.28079
G1 X99.516 Y61.907 E3.29335
G1 X99.91 Y62.022 E3.30701
G1 X100.335 Y62.122 E3.32153
G1 X100.786 Y62.194 E3.33672
G1 X101.121 Y62.236 E3.34795
G1 X101.808 Y62.279 E3.37084
G1 X102.101 Y62.282 E3.38059
G1 X102.734 Y62.26 E3.40165
G1 X103.058 Y62.287 E3.41247
G1 X102.83 Y62.033 E3.42382
G1 X102.093 Y61.322 E3.45788
G1 X101.34 Y60.69 E3.49058
G1 X100.527 Y60.1 E3.52399
G1 X99.673 Y59.567 E3.55747
G1 X98.784 Y59.093 E3.59098
G1 X97.866 Y58.685 E3.62439
G1 X96.925 Y58.342 E3.6577
G1 X95.957 Y58.065 E3.69119
G1 X94.972 Y57.855 E3.72469
G1 X93.978 Y57.715 E3.75808
G1 X92.973 Y57.645 E3.79158
G1 X91.972 Y57.644 E3.82488
G1 X90.97 Y57.714 E3.85828
G1 X89.973 Y57.855 E3.89177
G1 X88.988 Y58.065 E3.92527
G1 X88.024 Y58.339 E3.9586
G1 X87.082 Y58.684 E3.99197
G1 X86.161 Y59.093 E4.02549
G1 X85.273 Y59.566 E4.05895
G1 X84.421 Y60.098 E4.09236
G1 X83.61 Y60.688 E4.12572
G1 X82.839 Y61.335 E4.15919
G1 X82.116 Y62.034 E4.19264
G1 X81.444 Y62.78 E4.22604
G1 X80.823 Y63.573 E4.25954
G1 X80.263 Y64.402 E4.29281
G1 X79.761 Y65.275 E4.3263
G1 X79.319 Y66.178 E4.35974
G1 X78.936 Y67.125 E4.39372
G1 X78.633 Y68.066 E4.4266
G1 X78.389 Y69.044 E4.46013
G1 X78.214 Y70.031 E4.49346
G1 X78.108 Y71.031 E4.52691
G1 X78.074 Y72.035 E4.56032
G1 X78.108 Y73.042 E4.59384
G1 X78.209 Y74.001 E4.62591
G1 X78.386 Y75.016 E4.66018
G1 X78.631 Y76.005 E4.69407
G1 X78.941 Y76.966 E4.72765
G1 X79.304 Y77.855 E4.75959
G1 X79.761 Y78.795 E4.79435
G1 X80.261 Y79.666 E4.82776
G1 X80.821 Y80.498 E4.86111
G1 X81.441 Y81.291 E4.89459
G1 X82.113 Y82.036 E4.92796
G1 X82.837 Y82.735 E4.96143
G1 X83.606 Y83.38 E4.99482
G1 X84.422 Y83.972 E5.02835
G1 X85.271 Y84.505 E5.06169
G1 X86.158 Y84.977 E5.09511
G1 X87.077 Y85.384 E5.12854
G1 X88.022 Y85.728 E5.16199
G1 X88.991 Y86.005 E5.19551
G1 X89.973 Y86.215 E5.22891
G1 X90.97 Y86.355 E5.26239
G1 X91.97 Y86.426 E5.29573
G1 X92.972 Y86.426 E5.32906
G1 X93.937 Y86.359 E5.36123
G1 X94.97 Y86.215 E5.39592
G0 F6000 X95.04 Y86.609
;TYPE:WALL-OUTER
G1 F300 X96.052 Y86.394 E5.43034
G1 X97.032 Y86.113 E5.46424
G1 X98.017 Y85.757 E5.49908
G1 X98.962 Y85.337 E5.53347
G1 X99.825 Y84.879 E5.56597
G1 X100.749 Y84.305 E5.60215
G1 X101.584 Y83.698 E5.63648
G1 X102.377 Y83.033 E5.67091
G1 X103.119 Y82.317 E5.7052
G1 X103.81 Y81.548 E5.73959
G1 X104.446 Y80.735 E5.77392
G1 X105.024 Y79.878 E5.8083
G1 X105.539 Y78.983 E5.84264
G1 X105.99 Y78.06 E5.87681
G1 X106.38 Y77.099 E5.91131
G1 X106.704 Y76.102 E5.94617
G1 X106.949 Y75.113 E5.98006
G1 X107.128 Y74.094 E6.01447
G1 X107.236 Y73.07 E6.04872
G1 X107.272 Y72.035 E6.08317
G1 X107.236 Y71.003 E6.11751
G1 X107.135 Y70.027 E6.15015
G1 X106.949 Y68.96 E6.18617
G1 X106.702 Y67.971 E6.22007
G1 X106.38 Y66.974 E6.25492
G1 X105.992 Y66.011 E6.28945
G1 X105.536 Y65.083 E6.32384
G1 X105.286 Y64.651 E6.34044
G1 F285 X105.06 Y64.299 E6.35509
G1 X105.146 Y64.744 E6.37095
G1 F300 X105.172 Y65.175 E6.38532
G1 X105.129 Y65.572 E6.3986
G1 X105 Y66.015 E6.41394
G1 X104.864 Y66.301 E6.42448
G1 X104.601 Y66.967 E6.44829
G1 X104.453 Y67.413 E6.46392
G1 X104.382 Y67.653 E6.47225
G1 X104.238 Y68.244 E6.49248
G1 X104.141 Y68.825 E6.51207
G1 X104.097 Y69.302 E6.528
G1 X104.089 Y69.599 E6.53788
G1 X104.106 Y70.036 E6.55243
G1 X104.2 Y70.826 E6.57889
G1 X104.256 Y71.676 E6.60722
G1 X104.25 Y72.557 E6.63653
G1 X104.182 Y73.412 E6.66505
G1 X104.049 Y74.262 E6.69367
G1 X103.918 Y74.857 E6.71393
G1 X103.851 Y75.119 E6.72293
G1 X103.677 Y75.697 E6.743
G1 X103.593 Y75.943 E6.75165
G1 X103.38 Y76.506 E6.77167
G1 X103.276 Y76.751 E6.78052
G1 X103.028 Y77.287 E6.80016
G1 X102.607 Y78.055 E6.82929
G1 X102.146 Y78.777 E6.85779
G1 X101.617 Y79.474 E6.88689
G1 X101.06 Y80.116 E6.91516
G1 X100.44 Y80.726 E6.94409
G1 X99.782 Y81.287 E6.97285
G1 X99.071 Y81.805 E7.00211
G1 X98.339 Y82.263 E7.03082
G1 X97.57 Y82.665 E7.05969
G1 X97.027 Y82.907 E7.07946
G1 X96.777 Y83.008 E7.08843
G1 X96.215 Y83.213 E7.10832
G1 X95.959 Y83.296 E7.11727
G1 X95.364 Y83.464 E7.13784
G1 X94.533 Y83.642 E7.1661
G1 X93.675 Y83.762 E7.19492
G1 X92.825 Y83.818 E7.22325
G1 X91.944 Y83.813 E7.25255
G1 X91.081 Y83.742 E7.28135
G1 X90.238 Y83.611 E7.30973
G1 X89.388 Y83.415 E7.33874
G1 X88.571 Y83.159 E7.36722
G1 X87.745 Y82.835 E7.39673
G1 X86.97 Y82.462 E7.42534
G1 X86.451 Y82.169 E7.44516
G1 X86.222 Y82.03 E7.45407
G1 X85.724 Y81.7 E7.47394
G1 X85.505 Y81.544 E7.48288
G1 X85.031 Y81.176 E7.50284
G1 X84.377 Y80.605 E7.53172
G1 X83.771 Y79.987 E7.5605
G1 X83.21 Y79.328 E7.58929
G1 X82.699 Y78.629 E7.61809
G1 X82.242 Y77.897 E7.64679
G1 X81.839 Y77.126 E7.67573
G1 X81.495 Y76.333 E7.70448
G1 X81.207 Y75.513 E7.73338
G1 X80.985 Y74.68 E7.76205
G1 X80.867 Y74.096 E7.78187
G1 X80.823 Y73.837 E7.79061
G1 X80.746 Y73.237 E7.81073
G1 X80.722 Y72.969 E7.81968
G1 X80.69 Y72.373 E7.83953
G1 X80.687 Y72.06 E7.84994
G1 X80.697 Y71.502 E7.8685
G1 X80.768 Y70.638 E7.89734
G1 X80.899 Y69.795 E7.92571
G1 X81.096 Y68.942 E7.95483
G1 X81.35 Y68.128 E7.98319
G1 X81.674 Y67.302 E8.0127
G1 X82.048 Y66.527 E8.04132
G1 X82.481 Y65.778 E8.0701
G1 X82.958 Y65.072 E8.09844
G1 X83.504 Y64.386 E8.1276
G1 X83.902 Y63.942 E8.14743
G1 X84.09 Y63.747 E8.15644
G1 X84.52 Y63.335 E8.17625
G1 X84.722 Y63.154 E8.18527
G1 X85.181 Y62.772 E8.20513
G1 X85.878 Y62.264 E8.23381
G1 X86.616 Y61.804 E8.26274
G1 X87.388 Y61.4 E8.29172
G1 X88.164 Y61.061 E8.31988
G1 X88.999 Y60.768 E8.34932
G1 X89.834 Y60.544 E8.37807
G1 X90.687 Y60.383 E8.40694
G1 X91.548 Y60.283 E8.43577
G1 X92.411 Y60.247 E8.4645
G1 X93.274 Y60.274 E8.49322
G1 X93.87 Y60.33 E8.51313
G1 X94.136 Y60.365 E8.52205
G1 X94.711 Y60.462 E8.54145
G1 X94.989 Y60.518 E8.55088
G1 X95.572 Y60.661 E8.57084
G1 X96.385 Y60.916 E8.59918
G1 X97.209 Y61.239 E8.62862
G1 X97.981 Y61.611 E8.65712
G1 X98.672 Y61.99 E8.68333
G1 X99.008 Y62.145 E8.69564
G1 X99.39 Y62.287 E8.7092
G1 X99.808 Y62.41 E8.72369
G1 X100.258 Y62.514 E8.73905
G1 X100.735 Y62.591 E8.75512
G1 X101.083 Y62.635 E8.76679
G1 X101.781 Y62.679 E8.79005
G1 X102.114 Y62.682 E8.80113
G1 X102.734 Y62.66 E8.82176
G1 X103.184 Y62.704 E8.8368
G1 X103.595 Y62.821 E8.85101
G1 X103.985 Y63.008 E8.8654
G1 F281.7 X104.324 Y63.224 E8.87964
G1 X104.097 Y62.892 E8.89388
G1 F300 X103.804 Y62.518 E8.90968
G1 X103.105 Y61.742 E8.94442
G1 X102.351 Y61.016 E8.97923
G1 X101.586 Y60.374 E9.01245
G1 X100.751 Y59.768 E9.04677
G1 X99.873 Y59.22 E9.08119
G1 X98.96 Y58.733 E9.11561
G1 X98.016 Y58.313 E9.14997
G1 X97.049 Y57.961 E9.1842
G1 X96.054 Y57.677 E9.21861
G1 X95.042 Y57.461 E9.25303
G1 X94.02 Y57.317 E9.28736
G1 X92.987 Y57.245 E9.3218
G1 X91.958 Y57.244 E9.35602
G1 X90.928 Y57.316 E9.39037
G1 X89.903 Y57.461 E9.4248
G1 X88.892 Y57.677 E9.45918
G1 X87.9 Y57.959 E9.49348
G1 X86.932 Y58.313 E9.52776
G1 X85.985 Y58.733 E9.56222
G1 X85.073 Y59.22 E9.59661
G1 X84.197 Y59.766 E9.63094
G1 X83.364 Y60.372 E9.6652
G1 X82.571 Y61.037 E9.69962
G1 X81.828 Y61.756 E9.73401
G1 X81.137 Y62.522 E9.76832
G1 X80.499 Y63.337 E9.80275
G1 X79.923 Y64.19 E9.83698
G1 X79.407 Y65.087 E9.8714
G1 X78.953 Y66.015 E9.90576
G1 X78.559 Y66.988 E9.94068
G1 X78.248 Y67.956 E9.97449
G1 X77.997 Y68.96 E10.00891
G1 X77.818 Y69.975 E10.04319
G1 X77.709 Y71.003 E10.07758
G1 X77.674 Y72.035 E10.11192
G1 X77.706 Y73.017 E10.1446
G1 X77.811 Y74.043 E10.1789
G1 X77.994 Y75.099 E10.21455
G1 X78.246 Y76.115 E10.24937
G1 X78.565 Y77.103 E10.2839
G1 X78.953 Y78.053 E10.31803
G1 X79.407 Y78.983 E10.35245
G1 X79.921 Y79.878 E10.38678
G1 X80.497 Y80.733 E10.42106
G1 X81.135 Y81.548 E10.45549
G1 X81.825 Y82.314 E10.48978
G1 X82.569 Y83.033 E10.52419
G1 X83.36 Y83.696 E10.55852
G1 X84.198 Y84.304 E10.59295
G1 X85.071 Y84.851 E10.62722
G1 X85.983 Y85.337 E10.66159
G1 X86.927 Y85.755 E10.69593
G1 X87.898 Y86.109 E10.7303
G1 X88.894 Y86.394 E10.76476
G1 X89.903 Y86.609 E10.79907
G1 X90.928 Y86.753 E10.8335
G1 X91.956 Y86.826 E10.86778
G1 X92.986 Y86.826 E10.90204
G1 X94.018 Y86.753 E10.93645
G1 X95.04 Y86.609 E10.97077
G0 F6000 X94.898 Y85.861
;TYPE:SKIN
G1 F300 X95.891 Y85.648 E11.00455
G1 X96.784 Y85.393 E11.03544
G1 X97.731 Y85.051 E11.06893
G1 X98.628 Y84.653 E11.10157
G1 X99.519 Y84.177 E11.13517
G1 X100.348 Y83.655 E11.16775
G1 X101.137 Y83.079 E11.20024
G1 X101.865 Y82.469 E11.23183
G1 X102.57 Y81.789 E11.26441
G1 X103.227 Y81.059 E11.29707
G1 X103.83 Y80.288 E11.32963
G1 X104.378 Y79.474 E11.36227
G1 X104.881 Y78.599 E11.39584
G1 X105.295 Y77.75 E11.42725
G1 X105.666 Y76.838 E11.46
G1 X105.972 Y75.895 E11.49297
G1 X106.204 Y74.956 E11.52514
G1 X106.375 Y73.988 E11.55784
G1 X106.477 Y73.017 E11.59031
G1 X106.511 Y72.034 E11.62303
G1 X106.479 Y71.082 E11.65471
G1 X106.379 Y70.109 E11.68724
G1 X106.205 Y69.132 E11.72025
G1 X105.977 Y68.201 E11.75213
G1 X105.667 Y67.234 E11.7859
G1 X105.489 Y66.793 E11.80172
G1 X105.319 Y67.22 E11.817
G1 X105.105 Y67.879 E11.84005
G1 X104.981 Y68.412 E11.85825
G1 X104.895 Y68.924 E11.87552
G1 X104.844 Y69.487 E11.89432
G1 X104.865 Y69.975 E11.91057
G1 X104.957 Y70.734 E11.936
G1 X105.017 Y71.651 E11.96656
G1 X105.012 Y72.579 E11.99743
G1 X104.94 Y73.489 E12.02779
G1 X104.8 Y74.395 E12.05828
G1 X104.662 Y75.02 E12.07957
G1 X104.59 Y75.305 E12.08934
G1 X104.406 Y75.917 E12.1106
G1 X104.306 Y76.209 E12.12087
G1 X104.088 Y76.791 E12.14154
G1 X103.712 Y77.625 E12.17196
G1 X103.268 Y78.439 E12.2028
G1 X102.779 Y79.201 E12.23292
G1 X102.215 Y79.945 E12.26397
G1 X101.592 Y80.661 E12.29554
G1 X100.97 Y81.272 E12.32454
G1 X100.281 Y81.865 E12.35477
G1 X99.52 Y82.419 E12.38608
G1 X98.704 Y82.933 E12.41815
G1 X97.886 Y83.357 E12.4488
G1 X97.336 Y83.603 E12.46884
G1 X97.066 Y83.712 E12.47852
G1 X96.449 Y83.938 E12.50038
G1 X96.171 Y84.027 E12.51009
G1 X95.573 Y84.197 E12.53076
G1 X94.692 Y84.386 E12.56073
G1 X93.727 Y84.521 E12.59314
G1 X92.808 Y84.578 E12.62377
G1 X91.892 Y84.572 E12.65423
G1 X90.972 Y84.495 E12.68494
G1 X90.122 Y84.364 E12.71354
G1 X89.212 Y84.156 E12.74459
G1 X88.308 Y83.872 E12.77611
G1 X87.468 Y83.544 E12.8061
G1 X86.591 Y83.122 E12.83847
G1 X85.828 Y82.682 E12.86777
G1 X85.304 Y82.336 E12.88865
G1 X85.062 Y82.163 E12.89855
G1 X84.54 Y81.758 E12.92052
G1 X83.848 Y81.152 E12.95111
G1 X83.211 Y80.503 E12.98136
G1 X82.605 Y79.791 E13.01246
G1 X82.069 Y79.055 E13.04274
G1 X81.582 Y78.277 E13.07327
G1 X81.153 Y77.457 E13.10405
G1 X80.796 Y76.637 E13.13379
G1 X80.485 Y75.747 E13.16515
G1 X80.249 Y74.877 E13.19513
G1 X80.121 Y74.246 E13.21655
G1 X80.073 Y73.957 E13.22629
G1 X79.992 Y73.333 E13.24722
G1 X79.962 Y73.011 E13.25798
G1 X79.93 Y72.416 E13.27779
G1 X79.927 Y72.046 E13.2901
G1 X79.937 Y71.487 E13.3087
G1 X80.016 Y70.52 E13.34097
G1 X80.147 Y69.675 E13.36941
G1 X80.355 Y68.769 E13.40032
G1 X80.623 Y67.906 E13.43038
G1 X80.965 Y67.025 E13.46181
G1 X81.388 Y66.146 E13.49426
G1 X81.85 Y65.351 E13.52484
G1 X82.335 Y64.635 E13.5536
G1 X82.939 Y63.877 E13.58584
G1 X83.337 Y63.433 E13.60567
G1 X83.542 Y63.22 E13.6155
G1 X84.213 Y62.586 E13.64621
G1 X84.738 Y62.152 E13.66886
G1 X85.46 Y61.629 E13.69852
G1 X86.259 Y61.132 E13.72981
G1 X87.084 Y60.703 E13.76074
G1 X87.872 Y60.36 E13.78932
G1 X88.79 Y60.036 E13.8217
G1 X89.69 Y59.796 E13.85268
G1 X90.582 Y59.63 E13.88286
G1 X91.497 Y59.524 E13.9135
G1 X92.379 Y59.487 E13.94286
G1 X93.326 Y59.515 E13.97437
G1 X93.94 Y59.572 E13.99488
G1 X94.272 Y59.614 E14.00601
G1 X94.835 Y59.711 E14.02501
