;FLAVOR:Marlin
;TIME:7501
;Filament used: 4.77076m
;Layer height: 0.2
;MINX:22.845
;MINY:56.776
;MINZ:0.2
;MAXX:62.445
;MAXY:96.526
;MAXZ:17.6
;Generated with Cura_SteamEngine main
M140 S65
M105
M190 S65
M104 S215
M105
M109 S215
M82 ;absolute extrusion mode
M201 X500.00 Y500.00 Z100.00 E5000.00 ;Setup machine max acceleration
M203 X500.00 Y500.00 Z10.00 E50.00 ;Setup machine max feedrate
M204 P500.00 R1000.00 T500.00 ;Setup Print/Retract/Travel acceleration
M205 X8.00 Y8.00 Z0.40 E5.00 ;Setup Jerk
M220 S100 ;Reset Feedrate
M221 S100 ;Reset Flowrate

G28 ;Home
G29 ;BL-touch
G92 E0 ;Reset Extruder
G1 Z2.0 F3000 ;Move Z Axis up
G1 X10.1 Y20 Z0.28 F5000.0 ;Move to start position
G1 X10.1 Y200.0 Z0.28 F1500.0 E15 ;Draw the first line
G1 X10.4 Y200.0 Z0.28 F5000.0 ;Move to side a little
G1 X10.4 Y20 Z0.28 F1500.0 E30 ;Draw the second line
G92 E0 ;Reset Extruder
G1 Z2.0 F3000 ;Move Z Axis up
G92 E0
G92 E0
G1 F2700 E-5
;LAYER_COUNT:88
;LAYER:0
M107
;MESH:holder.pole_bracket.v1.3mf
G0 F6000 X26.619 Y56.777 Z0.2
;TYPE:WALL-OUTER
G1 F2700 E0
G1 F398.7 X29.818 Y56.776 E0.08007
G1 F299.3 X30.082 Y56.878 E0.0895
G1 F2700 E-4.9105
G0 F6000 X29.44 Y57.585
G0 X29.439 Y61.767
G0 X29.918 Y62.84
G0 X29.461 Y63.441
G1 F2700 E0.0895
G0 F6000 X29.66 Y63.64
;TYPE:WALL-INNER
G1 F221.4 X29.66 Y63.098 E0.11393
G1 X26.645 Y63.097 E0.24981
G1 F236.7 X26.385 Y62.912 E0.26326
G1 F275.9 X26.125 Y62.727 E0.2748
G1 F300 X24.535 Y59.977 E0.38045
G1 X24.463 Y59.78 E0.38743
G1 X24.463 Y59.572 E0.39435
G1 X24.535 Y59.375 E0.40133
G1 X25.776 Y57.227 E0.48383
G1 X23.246 Y57.227 E0.56798
G1 X23.245 Y63.712 E0.78367
G1 X25.557 Y63.712 E0.86057
G1 F287.8 X25.829 Y63.695 E0.87002
G1 F264.9 X26.101 Y63.677 E0.88029
G1 F245.4 X26.374 Y63.659 E0.89141
G1 F228.6 X26.646 Y63.641 E0.90331
G1 F221.4 X29.66 Y63.64 E1.03915
G0 F6000 X30.131 Y64.111
;TYPE:WALL-OUTER
G1 F300 X30.131 Y62.286 E1.09985
G1 X29.992 Y62.527 E1.1091
G1 X29.818 Y62.627 E1.11578
G1 X26.645 Y62.626 E1.22131
G1 X26.471 Y62.527 E1.22797
G1 X24.857 Y59.735 E1.33523
G1 X24.857 Y59.617 E1.33915
G1 X25.319 Y58.817 E1.36988
G1 F303 X25.45 Y58.598 E1.37828
G1 F308.5 X25.581 Y58.378 E1.38657
G1 F313.3 X25.712 Y58.158 E1.39472
G1 F319.1 X25.843 Y57.938 E1.40273
G1 F325.2 X25.974 Y57.718 E1.41058
G1 F331.5 X26.106 Y57.498 E1.4183
G1 F338 X26.237 Y57.279 E1.42584
G1 F343.8 X26.368 Y57.059 E1.43327
G1 F350.9 X26.499 Y56.839 E1.44055
G1 F347.8 X26.586 Y56.794 E1.44336
G1 F339.9 X26.318 Y56.797 E1.45123
G1 F334.3 X26.05 Y56.801 E1.45923
G1 F329.7 X25.782 Y56.804 E1.46734
G1 F324.3 X25.514 Y56.808 E1.47558
G1 F320 X25.246 Y56.812 E1.48394
G1 F315.8 X24.978 Y56.815 E1.49241
G1 F310.9 X24.71 Y56.819 E1.50101
G1 F306.9 X24.442 Y56.823 E1.50973
G1 F302.3 X24.174 Y56.826 E1.51857
G1 F300 X22.846 Y56.827 E1.56274
G1 X22.845 Y64.112 E1.80504
G1 X30.131 Y64.111 E2.04738
G0 F6000 X29.861 Y63.841
G0 X26.283 Y63.517
G0 X26.245 Y63.259
;TYPE:SKIN
G1 F300 X25.829 Y62.931 E2.065
G1 X25.289 Y61.999 E2.10082
G1 F298.5 X24.749 Y61.066 E2.13686
G1 F297 X24.209 Y60.133 E2.17307
G1 F279.7 X24.081 Y59.841 E2.18444
G1 F273.3 X24.08 Y59.527 E2.1959
G1 F291.3 X24.227 Y59.186 E2.20863
G1 F300 X25.15 Y57.588 E2.27
G1 X23.607 Y57.588 E2.32133
G1 X23.606 Y59.111 E2.37198
G1 F282.4 X23.631 Y59.55 E2.38752
G1 F266.1 X23.632 Y59.88 E2.39989
G1 F279.7 X23.608 Y60.238 E2.41269
G1 F297.8 X23.607 Y61.795 E2.46487
G1 F299.3 X23.606 Y63.352 E2.51678
G1 F300 X23.606 Y63.351 E2.51682
G1 X25.545 Y63.351 E2.58131
G1 X26.245 Y63.259 E2.60479
G0 F6000 X26.277 Y63.462
G0 X24.117 Y63.15
G1 F300 X23.805 Y62.837 E2.61949
G0 F6000 X23.806 Y62.272
G1 F300 X24.683 Y63.15 E2.66076
G0 F6000 X25.249 Y63.15
G1 F300 X23.806 Y61.707 E2.72864
G0 F6000 X23.808 Y61.143
G1 F300 X25.602 Y62.938 E2.81305
G0 F6000 X25.778 Y62.329
G0 X25.22 Y61.363
G0 X24.822 Y61.592
G1 F300 X23.808 Y60.578 E2.86074
G0 F6000 X24.045 Y60.249
G1 F300 X23.835 Y60.039 E2.87062
G0 F6000 X24.04 Y59.113
G1 F300 X23.806 Y58.878 E2.88165
G0 F6000 X24.245 Y58.752
G1 F300 X23.806 Y58.312 E2.90232
G0 F6000 X23.846 Y57.787
G1 F300 X24.453 Y58.394 E2.93087
G0 F6000 X24.661 Y58.036
G1 F300 X24.412 Y57.787 E2.94259
G1 F2700 E-2.05741
G0 F6000 X24.412 Y57.327
G0 X26.107 Y57.035
G0 X27.038 Y57.572
G0 X30.016 Y58.576
G0 X54.293 Y56.941
G0 X55.273 Y56.941
;TYPE:WALL-OUTER
G1 F2700 E2.94259
G1 F258.1 X55.619 Y56.777 E2.95739
G1 F398.7 X58.818 Y56.776 E3.03746
G0 F6000 X59.425 Y57.075
G0 X60.909 Y59.676
G0 X58.602 Y63.487
G0 X59.279 Y63.51
G0 X62.045 Y63.713
;TYPE:WALL-INNER
G1 F300 X62.045 Y57.226 E3.25321
G1 X59.686 Y57.227 E3.33168
G1 X60.928 Y59.375 E3.4142
G1 X61.001 Y59.572 E3.42119
G1 X61.001 Y59.78 E3.42811
G1 X60.928 Y59.977 E3.43509
G1 X59.338 Y62.727 E3.54075
G1 F274.6 X59.137 Y62.909 E3.5506
G1 F233.9 X58.935 Y63.092 E3.56223
G1 F218.2 X57.283 Y63.094 E3.63778
G1 F219 X55.631 Y63.097 E3.71305
G1 F220.2 X55.63 Y63.641 E3.73771
G1 F220.6 X56.468 Y63.641 E3.77561
G1 F219.8 X57.306 Y63.64 E3.81366
G1 F219 X58.144 Y63.639 E3.85184
G1 F218.2 X58.982 Y63.638 E3.89017
G1 F228.6 X59.29 Y63.662 E3.90365
G1 F252.6 X59.598 Y63.686 E3.91585
G1 F282.4 X59.906 Y63.711 E3.92677
G1 F300 X62.045 Y63.713 E3.99792
G0 F6000 X62.445 Y64.113
;TYPE:WALL-OUTER
G1 F300 X62.445 Y56.826 E4.24028
G1 X61.181 Y56.826 E4.28233
G1 F303 X60.907 Y56.823 E4.29135
G1 F308.5 X60.633 Y56.82 E4.30021
G1 F314.1 X60.359 Y56.816 E4.30892
G1 F320 X60.085 Y56.813 E4.31746
G1 F326.1 X59.811 Y56.81 E4.32584
G1 F332.4 X59.537 Y56.806 E4.33407
G1 F339 X59.263 Y56.803 E4.34214
G1 F345.8 X58.989 Y56.799 E4.35004
G1 F372.7 X58.818 Y56.776 E4.35466
G1 X58.968 Y56.839 E4.35902
G1 F345.8 X59.108 Y57.074 E4.36691
G1 F339 X59.248 Y57.31 E4.37499
G1 F332.4 X59.388 Y57.545 E4.3832
G1 F326.1 X59.528 Y57.781 E4.39159
G1 F320 X59.668 Y58.016 E4.40012
G1 F314.1 X59.808 Y58.252 E4.40884
G1 F308.5 X59.948 Y58.488 E4.41772
G1 F303 X60.089 Y58.723 E4.42674
G1 F300 X60.606 Y59.616 E4.46106
G1 X60.606 Y59.735 E4.46502
G1 X58.992 Y62.527 E4.57228
G1 X58.853 Y62.624 E4.57792
G1 X55.645 Y62.626 E4.68462
G1 X55.471 Y62.527 E4.69127
G1 X55.16 Y61.987 E4.712
G1 X55.159 Y64.112 E4.78268
G1 X62.445 Y64.113 E5.02501
G0 F6000 X62.175 Y63.843
G0 X59.279 Y63.51
G0 X61.685 Y63.352
;TYPE:SKIN
G1 F300 X61.685 Y60.284 E5.12705
G1 F314.1 X61.703 Y59.865 E5.14037
G1 F329.7 X61.704 Y59.55 E5.14991
G1 F315 X61.685 Y59.14 E5.16291
G1 F300 X61.685 Y57.586 E5.2146
G1 X60.309 Y57.586 E5.26036
G1 X61.25 Y59.217 E5.32299
G1 F310.1 X61.335 Y59.485 E5.33204
G1 F324.3 X61.34 Y59.834 E5.34278
G1 F314.1 X61.236 Y60.164 E5.35377
G1 F300 X59.639 Y62.928 E5.45994
G1 X59.317 Y63.253 E5.47516
G1 X59.921 Y63.351 E5.49551
G1 X61.685 Y63.352 E5.55418
G0 F6000 X59.286 Y63.463
G0 X59.953 Y62.781
G1 F300 X60.321 Y63.15 E5.57151
G0 F6000 X60.887 Y63.15
G1 F300 X60.16 Y62.423 E5.60571
G0 F6000 X60.367 Y62.064
G1 F300 X61.453 Y63.15 E5.65679
G0 F6000 X61.485 Y62.616
G1 F300 X60.575 Y61.706 E5.69959
G0 F6000 X60.782 Y61.347
G1 F300 X61.485 Y62.05 E5.73266
G0 F6000 X61.485 Y61.485
G1 F300 X60.988 Y60.988 E5.75604
G0 F6000 X61.195 Y60.63
G1 F300 X61.485 Y60.919 E5.76966
G0 F6000 X61.485 Y60.353
G1 F300 X61.403 Y60.271 E5.77351
G0 F6000 X61.007 Y60.041
G0 X60.841 Y59.026
G0 X61.484 Y58.655
G1 F300 X60.711 Y57.883 E5.80985
G0 F6000 X61.18 Y57.786
G1 F300 X61.484 Y58.09 E5.82415
G1 F2700 E0.82415
G0 F6000 X61.081 Y57.326
G0 X61.873 Y57.398
G0 X62.051 Y63.893
G0 X62.051 Y64.978
G0 X62.23 Y88.274
G0 X62.045 Y96.026
;TYPE:WALL-INNER
G1 F2700 E5.82415
G1 F300 X62.045 Y89.538 E6.03994
G1 X59.965 Y89.539 E6.10912
G1 F283 X59.679 Y89.563 E6.11924
G1 F254.2 X59.392 Y89.587 E6.13054
G1 F230.3 X59.105 Y89.611 E6.14302
G1 F210.9 X58.818 Y89.635 E6.15665
G1 F202 X55.656 Y89.636 E6.31282
G1 X55.656 Y90.229 E6.34211
G1 X58.818 Y90.229 E6.49829
G1 F220.2 X59.078 Y90.427 E6.5131
G1 F267.9 X59.338 Y90.625 E6.52527
G1 F300 X60.928 Y93.375 E6.63092
G1 X61.001 Y93.572 E6.63791
G1 X61.001 Y93.78 E6.64483
G1 X60.928 Y93.977 E6.65182
G1 X59.743 Y96.026 E6.73054
G1 X62.045 Y96.026 E6.80711
G0 F6000 X62.445 Y96.426
;TYPE:WALL-OUTER
G1 F300 X62.445 Y89.138 E7.04951
G1 X55.159 Y89.139 E7.29184
G1 X55.158 Y91.367 E7.36594
G1 X55.471 Y90.826 E7.38673
G1 X55.645 Y90.726 E7.39341
G1 X58.818 Y90.726 E7.49894
G1 X58.992 Y90.825 E7.5056
G1 X60.606 Y93.617 E7.61286
G1 X60.606 Y93.736 E7.61682
G1 X60.128 Y94.562 E7.64856
G1 F306.9 X59.995 Y94.775 E7.65673
G1 F320 X59.862 Y94.989 E7.66458
G1 F335.2 X59.729 Y95.203 E7.67208
G1 F350.9 X59.595 Y95.417 E7.67926
G1 F368.1 X59.462 Y95.631 E7.68609
G1 F388.3 X59.329 Y95.845 E7.69257
G1 F409.6 X59.196 Y96.059 E7.69871
G1 F434.8 X59.062 Y96.273 E7.7045
G1 F461.5 X58.929 Y96.487 E7.70995
G1 F528.6 X58.835 Y96.526 E7.71187
G1 X58.933 Y96.5 E7.71378
G1 F461.5 X59.184 Y96.492 E7.71921
G1 F434.8 X59.436 Y96.484 E7.725
G1 F409.6 X59.688 Y96.476 E7.73114
G1 F388.3 X59.94 Y96.468 E7.73762
G1 F368.1 X60.192 Y96.459 E7.74445
G1 F350.9 X60.444 Y96.451 E7.75162
G1 F335.2 X60.696 Y96.443 E7.75913
G1 F320 X60.948 Y96.435 E7.76699
G1 F306.9 X61.2 Y96.427 E7.77519
G1 F300 X62.445 Y96.426 E7.8166
G1 F2700 E2.8166
G0 F6000 X62.175 Y96.156
G0 X59.482 Y96.177
G1 F2700 E7.8166
G0 F6000 X58.835 Y96.526
G1 F574.2 X58.564 Y96.526 E7.8213
G1 F533.3 X58.293 Y96.526 E7.82638
G1 F497.9 X58.022 Y96.526 E7.83181
G1 F466.9 X57.751 Y96.526 E7.8376
G1 F439.6 X57.48 Y96.526 E7.84375
G1 F415.2 X57.209 Y96.526 E7.85026
G1 F393.4 X56.938 Y96.526 E7.85713
G1 F373.8 X56.667 Y96.526 E7.86437
G1 F356.1 X56.396 Y96.526 E7.87196
G1 F339.9 X56.125 Y96.526 E7.87992
G1 F325.2 X55.854 Y96.526 E7.88823
G1 F311.7 X55.583 Y96.526 E7.89691
G1 F245.4 X55.251 Y96.332 E7.91254
G1 F2700 E2.91254
G0 F6000 X56.025 Y95.767
G0 X58.438 Y95.767
G0 X61.685 Y95.666
;TYPE:SKIN
G1 F2700 E7.91254
G1 F300 X61.685 Y94.283 E7.95854
G1 F314.1 X61.703 Y93.865 E7.97183
G1 F329.7 X61.704 Y93.55 E7.98136
G1 F315 X61.685 Y93.14 E7.99437
G1 F300 X61.685 Y89.898 E8.1022
G1 X59.981 Y89.899 E8.15887
G1 X59.185 Y90.034 E8.18572
G1 X59.637 Y90.42 E8.20549
G1 X61.25 Y93.217 E8.31288
G1 F310.1 X61.335 Y93.485 E8.32193
G1 F324.3 X61.34 Y93.834 E8.33267
G1 F314.1 X61.236 Y94.163 E8.34363
G1 F300 X60.369 Y95.666 E8.40134
G1 X61.685 Y95.666 E8.44511
G0 F6000 X60.803 Y95.31
G1 F300 X60.958 Y95.465 E8.4524
G0 F6000 X61.01 Y94.951
G1 F300 X61.485 Y95.426 E8.47474
G0 F6000 X61.485 Y94.86
G1 F300 X61.217 Y94.593 E8.48732
G0 F6000 X61.485 Y94.294
G1 F300 X61.424 Y94.234 E8.49017
G0 F6000 X61.011 Y94.034
G0 X60.976 Y93.258
G0 X61.487 Y93.166
G1 F300 X61.41 Y93.088 E8.49382
G0 F6000 X61.485 Y92.597
G1 F300 X60.635 Y91.748 E8.53377
G0 F6000 X61.485 Y91.466
G1 F300 X60.116 Y90.098 E8.59814
G0 F6000 X59.862 Y90.409
G1 F300 X61.485 Y92.032 E8.67449
G0 F6000 X61.945 Y92.032
G0 X61.945 Y90.9
G0 X61.485 Y90.9
G1 F300 X60.682 Y90.098 E8.71223
G0 F6000 X61.248 Y90.098
G1 F300 X61.485 Y90.335 E8.72338
G1 F2700 E3.72338
G0 F6000 X61.945 Y90.335
G0 X61.873 Y89.71
G0 X60.154 Y89.701
G0 X55.404 Y90.509
G0 X54.293 Y90.509
G0 X30.998 Y96.394
G0 X30.102 Y96.395
;TYPE:WALL-OUTER
G1 F2700 E8.72338
G1 F361.4 X29.835 Y96.526 E8.73159
G1 F597 X26.645 Y96.526 E8.78491
G0 F6000 X25.981 Y96.177
G0 X25.288 Y95.925
G0 X25.72 Y96.025
;TYPE:WALL-INNER
G1 F300 X24.535 Y93.977 E8.8636
G1 X24.463 Y93.78 E8.87058
G1 X24.463 Y93.572 E8.8775
G1 X24.535 Y93.375 E8.88447
G1 X26.125 Y90.625 E8.99013
G1 F292 X26.318 Y90.461 E8.99878
G1 F275.9 X26.511 Y90.296 E9.00797
G1 F230.8 X26.683 Y90.229 E9.01595
G1 F202 X29.635 Y90.229 E9.16175
G1 X29.635 Y89.636 E9.19104
G1 X26.683 Y89.636 E9.33684
G1 F220.6 X26.472 Y89.585 E9.34666
G1 F251 X26.148 Y89.57 E9.35955
G1 F268.5 X25.823 Y89.555 E9.37165
G1 F289.2 X25.498 Y89.539 E9.38287
G1 F300 X23.246 Y89.538 E9.45778
G1 X23.246 Y96.025 E9.67353
G1 X25.72 Y96.025 E9.75582
G0 F6000 X26.53 Y96.493
;TYPE:WALL-OUTER
G1 F524 X26.645 Y96.526 E9.7581
G1 X26.53 Y96.493 E9.76038
G1 F451.1 X26.392 Y96.269 E9.7662
G1 F425.5 X26.253 Y96.044 E9.7724
G1 F402.7 X26.115 Y95.819 E9.77894
G1 F383.4 X25.976 Y95.595 E9.7858
G1 F364.7 X25.837 Y95.37 E9.79303
G1 F347.8 X25.699 Y95.145 E9.80061
G1 F333.3 X25.56 Y94.92 E9.80852
G1 F319.1 X25.422 Y94.696 E9.81675
G1 F306.1 X25.283 Y94.471 E9.82537
G1 F300 X24.857 Y93.736 E9.85362
G1 X24.857 Y93.617 E9.85758
G1 X26.471 Y90.825 E9.96484
G1 X26.588 Y90.726 E9.96994
G1 X29.818 Y90.726 E10.07737
G1 X29.991 Y90.826 E10.08402
G1 X30.132 Y91.069 E10.09336
G1 X30.132 Y89.139 E10.15755
G1 X26.683 Y89.139 E10.27227
G1 X26.294 Y89.152 E10.28521
G1 X25.498 Y89.139 E10.31169
G1 X22.846 Y89.138 E10.3999
G1 X22.846 Y96.425 E10.64226
G1 X24.151 Y96.425 E10.68567
G1 F306.1 X24.415 Y96.432 E10.69428
G1 F319.1 X24.679 Y96.44 E10.70253
G1 F333.3 X24.943 Y96.447 E10.71044
G1 F347.8 X25.207 Y96.455 E10.71802
G1 F364.7 X25.471 Y96.462 E10.72524
G1 F383.4 X25.735 Y96.47 E10.73212
G1 F402.7 X25.999 Y96.477 E10.73866
G1 F425.5 X26.263 Y96.485 E10.74485
G1 F451.1 X26.527 Y96.492 E10.75069
G0 F6000 X25.981 Y96.177
G0 X25.093 Y95.925
G0 X25.093 Y95.664
;TYPE:SKIN
G1 F299.3 X24.651 Y94.899 E10.78015
G1 F297.8 X24.209 Y94.133 E10.80979
G1 F279.7 X24.081 Y93.841 E10.82116
G1 F274 X24.081 Y93.527 E10.8326
G1 F291.3 X24.227 Y93.186 E10.8453
G1 F300 X25.826 Y90.419 E10.9516
G1 X26.366 Y89.96 E10.97517
G1 X25.48 Y89.9 E11.00471
G1 X23.607 Y89.899 E11.067
G1 X23.606 Y93.111 E11.17383
G1 F283 X23.631 Y93.55 E11.18934
G1 F266.1 X23.632 Y93.88 E11.20171
G1 F279.7 X23.608 Y94.238 E11.21451
G1 F298.5 X23.607 Y95.664 E11.26218
G1 F300 X25.093 Y95.664 E11.3116
G0 F6000 X24.187 Y95.463
G1 F300 X23.807 Y95.083 E11.32947
G0 F6000 X23.808 Y94.519
G1 F300 X24.736 Y95.447 E11.37312
G0 F6000 X25.136 Y95.216
G0 X24.492 Y94.102
G0 X23.985 Y94.13
G1 F300 X23.842 Y93.987 E11.37985
G0 F6000 X24.06 Y93.074
G1 F300 X23.805 Y92.819 E11.39185
G0 F6000 X24.267 Y92.715
G1 F300 X23.805 Y92.253 E11.41358
G0 F6000 X23.805 Y91.687
G1 F300 X24.475 Y92.357 E11.44509
G0 F6000 X24.682 Y91.998
G1 F300 X23.806 Y91.122 E11.4863
G0 F6000 X23.806 Y90.557
G1 F300 X24.889 Y91.64 E11.53724
G0 F6000 X25.095 Y91.281
G1 F300 X23.913 Y90.098 E11.59286
G0 F6000 X24.48 Y90.099
G1 F300 X25.303 Y90.922 E11.63157
G0 F6000 X25.51 Y90.564
G1 F300 X25.047 Y90.1 E11.65337
G0 F6000 X25.621 Y90.109
G1 F300 X25.749 Y90.237 E11.65939
G1 F2700 E6.65939
;MESH:NONMESH
G0 F300 X25.749 Y90.237 Z0.4
G0 F6000 X25.987 Y90.662
G0 X26.723 Y89.932
G0 X26.027 Y89.357
G0 X26.027 Y88.272
G0 X26.021 Y64.977
G0 X26.619 Y56.777
;TIME_ELAPSED:85.290884
;LAYER:1
M106 S85
;TYPE:WALL-OUTER
;MESH:holder.pole_bracket.v1.3mf
G1 F2700 E11.65939
G1 F1395.3 X29.818 Y56.776 E11.73946
G1 F995.3 X30.117 Y56.898 E11.75079
G1 F2700 E6.75079
G0 F7500 X29.44 Y57.585
G0 X29.439 Y61.767
G0 X29.97 Y62.84
G0 X29.514 Y63.496
G1 F2700 E11.75079
G0 F7500 X29.699 Y63.68
;TYPE:WALL-INNER
G1 F736.8 X29.699 Y63.111 E11.77776
G1 X26.645 Y63.111 E11.9225
G1 F795.5 X26.385 Y62.919 E11.93669
G1 F950.2 X26.125 Y62.727 E11.94857
G1 F1050 X24.535 Y59.977 E12.05422
G1 X24.463 Y59.78 E12.0612
G1 X24.463 Y59.572 E12.06812
G1 X24.535 Y59.375 E12.0751
G1 X25.776 Y57.227 E12.1576
G1 X23.246 Y57.227 E12.24175
G1 X23.245 Y63.769 E12.45934
G1 X25.525 Y63.768 E12.53517
G1 F997.6 X25.805 Y63.747 E12.545
G1 F905.2 X26.085 Y63.726 E12.55584
G1 F830 X26.365 Y63.705 E12.56765
G1 F765 X26.645 Y63.683 E12.58047
G1 F736.8 X29.699 Y63.68 E12.72522
G0 F7500 X30.184 Y64.165
;TYPE:WALL-OUTER
G1 F1050 X30.184 Y62.195 E12.79074
G1 X29.992 Y62.527 E12.8035
G1 X29.818 Y62.626 E12.81015
G1 X26.645 Y62.626 E12.91569
G1 X26.471 Y62.527 E12.92235
G1 X24.857 Y59.735 E13.02961
G1 X24.857 Y59.617 E13.03353
G1 X25.319 Y58.817 E13.06426
G1 F1060.6 X25.45 Y58.598 E13.07266
G1 F1079.7 X25.581 Y58.378 E13.08095
G1 F1096.6 X25.712 Y58.158 E13.0891
G1 F1117 X25.843 Y57.938 E13.0971
G1 F1138.2 X25.974 Y57.718 E13.10496
G1 F1160.2 X26.106 Y57.498 E13.11268
G1 F1183.1 X26.237 Y57.279 E13.12022
G1 F1203.4 X26.368 Y57.059 E13.12765
G1 F1228.1 X26.499 Y56.839 E13.13493
G1 F1217.4 X26.586 Y56.794 E13.13774
G1 F1189.8 X26.318 Y56.797 E13.1456
G1 F1169.9 X26.05 Y56.801 E13.15361
G1 F1153.8 X25.782 Y56.804 E13.16172
G1 F1135.1 X25.514 Y56.808 E13.16996
G1 F1120 X25.246 Y56.812 E13.17832
G1 F1105.3 X24.978 Y56.815 E13.18679
