;FLAVOR:Marlin
;TIME:12581
;Filament used: 8.05999m
;Layer height: 0.2
;MINX:29.408
;MINY:40.067
;MINZ:0.2
;MAXX:76.664
;MAXY:152.02
;MAXZ:45.8
;Generated with Cura_SteamEngine main
M140 S65
M105
M190 S65
M104 S215
M105
M109 S215
M82 ;absolute extrusion mode
M201 X500.00 Y500.00 Z100.00 E5000.00 ;Setup machine max acceleration
M203 X500.00 Y500.00 Z10.00 E50.00 ;Setup machine max feedrate
M204 P500.00 R1000.00 T500.00 ;Setup Print/Retract/Travel acceleration
M205 X8.00 Y8.00 Z0.40 E5.00 ;Setup Jerk
M220 S100 ;Reset Feedrate
M221 S100 ;Reset Flowrate

G28 ;Home
G29 ;BL-touch
G92 E0 ;Reset Extruder
G1 Z2.0 F3000 ;Move Z Axis up
G1 X10.1 Y20 Z0.28 F5000.0 ;Move to start position
G1 X10.1 Y200.0 Z0.28 F1500.0 E15 ;Draw the first line
G1 X10.4 Y200.0 Z0.28 F5000.0 ;Move to side a little
G1 X10.4 Y20 Z0.28 F1500.0 E30 ;Draw the second line
G92 E0 ;Reset Extruder
G1 Z2.0 F3000 ;Move Z Axis up
G92 E0
G92 E0
G1 F2700 E-5
;LAYER_COUNT:230
;LAYER:0
M107
;MESH:handle_holder.v1.3mf
G0 F6000 X37.085 Y48.049 Z0.2
;TYPE:WALL-INNER
G1 F2700 E0
G1 F300 X36.583 Y48.255 E0.01805
G1 X36.037 Y48.326 E0.03636
G1 X35.489 Y48.255 E0.05474
G1 X34.983 Y48.047 E0.07294
G1 X34.545 Y47.71 E0.09132
G1 X34.21 Y47.273 E0.10963
G1 F304.6 X34.013 Y46.775 E0.12718
G1 F316.6 X33.988 Y46.498 E0.13594
G1 F334.3 X33.962 Y46.22 E0.14428
G1 F339 X33.986 Y45.947 E0.15234
G1 F329.7 X34.01 Y45.673 E0.16067
G1 F319.1 X34.109 Y45.421 E0.16913
G1 F306.1 X34.209 Y45.169 E0.17797
G1 F300 X34.546 Y44.731 E0.19635
G1 X34.982 Y44.394 E0.21468
G1 X35.488 Y44.186 E0.23287
G1 X36.037 Y44.12 E0.25127
G1 X36.583 Y44.186 E0.26956
G1 X37.092 Y44.395 E0.28786
G1 X37.526 Y44.731 E0.30611
G1 X37.86 Y45.162 E0.32425
G1 X38.072 Y45.675 E0.34271
G1 X38.143 Y46.222 E0.36106
G1 X38.067 Y46.78 E0.37979
G1 X37.868 Y47.26 E0.39707
G1 X37.527 Y47.708 E0.4158
G1 X37.085 Y48.049 E0.43436
G0 F6000 X36.899 Y47.689
;TYPE:WALL-OUTER
G1 F300 X36.482 Y47.864 E0.44941
G1 X36.037 Y47.922 E0.46433
G1 X35.591 Y47.864 E0.47929
G1 X35.185 Y47.697 E0.49389
G1 X34.833 Y47.427 E0.50865
G1 X34.562 Y47.073 E0.52347
G1 X34.392 Y46.663 E0.53824
G1 X34.337 Y46.22 E0.55308
G1 X34.389 Y45.803 E0.56706
G1 X34.56 Y45.369 E0.58258
G1 X34.832 Y45.016 E0.5974
G1 X35.185 Y44.743 E0.61224
G1 X35.61 Y44.574 E0.62745
G1 X36.037 Y44.517 E0.64178
G1 X36.481 Y44.576 E0.65668
G1 X36.891 Y44.745 E0.67143
G1 X37.241 Y45.016 E0.68615
G1 X37.511 Y45.364 E0.7008
G1 X37.682 Y45.778 E0.7157
G1 X37.739 Y46.221 E0.73055
G1 X37.677 Y46.674 E0.74576
G1 X37.516 Y47.063 E0.75976
G1 X37.24 Y47.424 E0.77488
G1 X36.899 Y47.689 E0.78924
G1 F2700 E-4.21076
G0 F6000 X37.209 Y48.081
G0 X34.997 Y48.227
G0 X33.813 Y46.708
G0 X33.812 Y74.767
G0 X35.352 Y73.068
G0 X37.267 Y73.318
G0 X37.914 Y74.718
G0 X37.98 Y75.22
G0 X37.914 Y75.724
G0 X37.277 Y77.03
G1 F2700 E0.78924
G0 F6000 X37.092 Y77.046
;TYPE:WALL-INNER
G1 F300 X36.585 Y77.254 E0.80747
G1 X36.038 Y77.326 E0.82582
G1 X35.489 Y77.255 E0.84423
G1 X34.983 Y77.047 E0.86243
G1 X34.545 Y76.71 E0.88081
G1 X34.21 Y76.273 E0.89912
G1 F304.6 X34.013 Y75.777 E0.91661
G1 F323.5 X33.965 Y75.295 E0.93155
G1 F339.9 X33.965 Y75.145 E0.93595
G1 F331.5 X34.011 Y74.671 E0.95029
G1 F317.5 X34.109 Y74.42 E0.95876
G1 F306.1 X34.208 Y74.169 E0.96755
G1 F300 X34.546 Y73.731 E0.98595
G1 X34.983 Y73.394 E1.00431
G1 X35.485 Y73.188 E1.02235
G1 X36.037 Y73.114 E1.04088
G1 X36.586 Y73.187 E1.0593
G1 X37.085 Y73.392 E1.07724
G1 X37.519 Y73.725 E1.09544
G1 X37.864 Y74.169 E1.11414
G1 X38.073 Y74.68 E1.1325
G1 X38.143 Y75.22 E1.15061
G1 X38.072 Y75.767 E1.16896
G1 X37.861 Y76.277 E1.18731
G1 X37.527 Y76.71 E1.2055
G1 X37.092 Y77.046 E1.22378
G0 F6000 X36.89 Y76.697
;TYPE:WALL-OUTER
G1 F300 X36.463 Y76.867 E1.23907
G1 X36.037 Y76.922 E1.25336
G1 X35.591 Y76.864 E1.26831
G1 X35.185 Y76.697 E1.28292
G1 X34.833 Y76.427 E1.29767
G1 X34.562 Y76.073 E1.3125
G1 X34.392 Y75.663 E1.32726
G1 X34.338 Y75.246 E1.34125
G1 X34.338 Y75.194 E1.34298
G1 X34.389 Y74.803 E1.35609
G1 X34.56 Y74.369 E1.37161
G1 X34.832 Y74.016 E1.38643
G1 X35.184 Y73.744 E1.40122
G1 X35.591 Y73.577 E1.41586
G1 X36.037 Y73.517 E1.43082
G1 X36.481 Y73.577 E1.44573
G1 X36.899 Y73.752 E1.4608
G1 X37.239 Y74.016 E1.47511
G1 X37.505 Y74.357 E1.4895
G1 X37.678 Y74.771 E1.50442
G1 X37.737 Y75.206 E1.51902
G1 X37.682 Y75.662 E1.5343
G1 X37.511 Y76.076 E1.5492
G1 X37.241 Y76.425 E1.56387
G1 X36.89 Y76.697 E1.57864
G1 F2700 E-3.42136
G0 F6000 X37.071 Y76.932
G0 X38.241 Y75.709
G0 X37.564 Y73.557
G0 X35.352 Y73.068
G0 X33.812 Y74.767
G0 X33.81 Y41.493
G0 X72.265 Y41.492
G0 X72.262 Y74.767
G0 X70.72 Y73.068
G0 X68.391 Y73.671
G0 X67.885 Y75.907
G0 X68.785 Y77.055
G0 X70.981 Y77.201
G1 F2700 E1.57864
G0 F6000 X71.089 Y77.047
;TYPE:WALL-INNER
G1 F300 X70.585 Y77.254 E1.59676
G1 X70.037 Y77.326 E1.61515
G1 X69.493 Y77.255 E1.63339
G1 X68.984 Y77.047 E1.65168
G1 X68.548 Y76.712 E1.66997
G1 X68.212 Y76.274 E1.68833
G1 X68.002 Y75.767 E1.70658
G1 X67.941 Y75.298 E1.72231
G1 X67.941 Y75.142 E1.7275
G1 X68.006 Y74.681 E1.74299
G1 X68.209 Y74.17 E1.76128
G1 X68.545 Y73.733 E1.77961
G1 X68.987 Y73.393 E1.79816
G1 X69.488 Y73.187 E1.81617
G1 X70.037 Y73.115 E1.83459
G1 X70.586 Y73.187 E1.85301
G1 X71.09 Y73.394 E1.87113
G1 X71.524 Y73.729 E1.88936
G1 X71.865 Y74.168 E1.90785
G1 F304.6 X71.963 Y74.417 E1.91662
G1 F314.1 X72.062 Y74.667 E1.92516
G1 F323.5 X72.116 Y75.218 E1.94224
G1 F322.6 X72.091 Y75.492 E1.95075
G1 F312.5 X72.065 Y75.766 E1.95954
G1 F303.8 X71.863 Y76.273 E1.97746
G1 F300 X71.527 Y76.71 E1.9958
G1 X71.089 Y77.047 E2.01418
G0 F6000 X70.89 Y76.697
;TYPE:WALL-OUTER
G1 F300 X70.463 Y76.867 E2.02946
G1 X70.037 Y76.922 E2.04375
G1 X69.594 Y76.865 E2.05861
G1 X69.185 Y76.697 E2.07331
G1 X68.833 Y76.427 E2.08807
G1 X68.562 Y76.073 E2.10289
G1 X68.392 Y75.663 E2.11766
G1 X68.338 Y75.246 E2.13164
G1 X68.338 Y75.194 E2.13337
G1 X68.391 Y74.79 E2.14692
G1 X68.569 Y74.357 E2.1625
G1 X68.842 Y74.008 E2.17723
G1 X69.19 Y73.743 E2.19178
G1 X69.594 Y73.576 E2.20632
G1 X70.037 Y73.517 E2.22119
G1 X70.481 Y73.576 E2.23608
G1 X70.891 Y73.745 E2.25083
G1 X71.241 Y74.016 E2.26555
G1 X71.514 Y74.368 E2.28037
G1 X71.685 Y74.803 E2.29592
G1 X71.739 Y75.22 E2.3099
G1 X71.684 Y75.647 E2.32422
G1 X71.512 Y76.075 E2.33956
G1 X71.241 Y76.425 E2.35429
G1 X70.89 Y76.697 E2.36906
G1 F2700 E-2.63094
G0 F6000 X71.071 Y76.932
G0 X71.719 Y76.192
G0 X72.262 Y74.767
G0 X72.262 Y46.708
G0 X70.981 Y48.201
G1 F2700 E2.36906
G0 F6000 X71.089 Y48.047
;TYPE:WALL-INNER
G1 F300 X70.583 Y48.255 E2.38725
G1 X70.037 Y48.326 E2.40556
G1 X69.507 Y48.257 E2.42334
G1 X68.989 Y48.049 E2.44191
G1 X68.547 Y47.711 E2.46041
G1 X68.214 Y47.276 E2.47863
G1 X68.001 Y46.759 E2.49723
G1 X67.941 Y46.298 E2.51269
G1 X67.941 Y46.142 E2.51788
G1 X68.002 Y45.675 E2.53355
G1 X68.214 Y45.163 E2.55198
G1 X68.546 Y44.731 E2.5701
G1 X68.979 Y44.397 E2.58829
G1 X69.487 Y44.186 E2.60658
G1 X70.062 Y44.117 E2.62585
G1 X70.587 Y44.193 E2.64349
G1 X71.087 Y44.392 E2.66139
G1 X71.524 Y44.729 E2.67974
G1 X71.865 Y45.168 E2.69823
G1 F304.6 X71.963 Y45.417 E2.707
G1 F314.1 X72.062 Y45.667 E2.71554
G1 F323.5 X72.116 Y46.218 E2.73262
G1 F322.6 X72.091 Y46.492 E2.74113
G1 F312.5 X72.065 Y46.766 E2.74992
G1 F303.8 X71.863 Y47.273 E2.76784
G1 F300 X71.527 Y47.71 E2.78618
G1 X71.089 Y48.047 E2.80456
G0 F6000 X70.981 Y48.201
G0 X69.851 Y48.403
G0 X70.036 Y47.922
;TYPE:WALL-OUTER
G1 F300 X69.591 Y47.862 E2.81949
G1 X69.19 Y47.698 E2.8339
G1 X68.833 Y47.424 E2.84887
G1 X68.558 Y47.063 E2.86396
G1 X68.397 Y46.674 E2.87797
G1 X68.338 Y46.246 E2.89234
G1 X68.338 Y46.194 E2.89406
G1 X68.392 Y45.778 E2.90802
G1 X68.563 Y45.365 E2.92288
G1 X68.832 Y45.016 E2.93754
G1 X69.182 Y44.745 E2.95226
G1 X69.61 Y44.574 E2.96759
G1 X70.037 Y44.517 E2.98192
G1 X70.481 Y44.576 E2.99682
G1 X70.891 Y44.745 E3.01157
G1 X71.241 Y45.016 E3.02629
G1 X71.514 Y45.368 E3.04111
G1 X71.685 Y45.803 E3.05665
G1 X71.739 Y46.22 E3.07064
G1 X71.684 Y46.647 E3.08496
G1 X71.512 Y47.075 E3.1003
G1 X71.241 Y47.425 E3.11502
G1 X70.891 Y47.696 E3.12974
G1 X70.481 Y47.865 E3.14449
G1 X70.036 Y47.922 E3.15942
G1 F2700 E-1.84058
G0 F6000 X69.851 Y48.403
G0 X71.938 Y47.439
G0 X72.262 Y46.708
G0 X72.265 Y79.948
G0 X62.609 Y80.292
G0 X62.609 Y146.148
G0 X72.299 Y146.159
G0 X72.437 Y151.62
;TYPE:WALL-INNER
G1 F2700 E3.15942
G1 F300 X72.437 Y146.32 E3.33569
G1 X62.923 Y146.32 E3.65213
G1 X62.642 Y146.173 E3.66268
G1 X62.497 Y145.983 E3.67063
G1 X62.442 Y145.8 E3.67698
G1 X62.439 Y80.589 E5.84591
G1 X62.588 Y80.32 E5.85614
G1 X62.757 Y80.188 E5.86327
G1 X62.995 Y80.121 E5.87149
G1 X72.437 Y80.12 E6.18554
G1 X72.437 Y76.31 E6.31226
G1 F304.6 X72.443 Y76.013 E6.32199
G1 F314.1 X72.449 Y75.716 E6.33143
G1 F324.3 X72.455 Y75.419 E6.34056
G1 F335.2 X72.461 Y75.122 E6.34941
G1 F333.3 X72.453 Y74.792 E6.35929
G1 F319.1 X72.445 Y74.461 E6.36964
G1 F306.1 X72.437 Y74.13 E6.38043
G1 F300 X72.437 Y47.31 E7.27247
G1 F304.6 X72.443 Y47.013 E7.2822
G1 F314.1 X72.449 Y46.716 E7.29164
G1 F324.3 X72.455 Y46.419 E7.30078
G1 F335.2 X72.461 Y46.122 E7.30962
G1 F333.3 X72.453 Y45.792 E7.3195
G1 F319.1 X72.445 Y45.461 E7.32985
G1 F306.1 X72.437 Y45.13 E7.34064
G1 F300 X72.437 Y41.32 E7.46736
G1 X33.638 Y41.321 E8.75782
G1 X33.637 Y45.131 E8.88455
G1 F304.6 X33.631 Y45.428 E8.89428
G1 F314.1 X33.625 Y45.725 E8.90371
G1 F324.3 X33.619 Y46.022 E8.91285
G1 F335.2 X33.613 Y46.319 E8.9217
G1 F333.3 X33.621 Y46.648 E8.93155
G1 F319.1 X33.629 Y46.979 E8.9419
G1 F306.1 X33.638 Y47.31 E8.95269
G1 F300 X33.637 Y74.131 E9.84476
G1 F304.6 X33.631 Y74.428 E9.85449
G1 F314.1 X33.625 Y74.725 E9.86393
G1 F324.3 X33.619 Y75.022 E9.87307
G1 F335.2 X33.613 Y75.319 E9.88191
G1 F333.3 X33.621 Y75.648 E9.89176
G1 F319.1 X33.629 Y75.979 E9.90211
G1 F306.1 X33.638 Y76.31 E9.91291
G1 F300 X33.637 Y80.12 E10.03963
G1 X43.079 Y80.121 E10.35367
G1 X43.219 Y80.148 E10.35841
G1 X43.486 Y80.32 E10.36898
G1 X43.586 Y80.475 E10.37511
G1 X43.636 Y80.675 E10.38197
G1 X43.632 Y145.8 E12.54803
G1 X43.577 Y145.984 E12.55442
G1 X43.432 Y146.173 E12.56234
G1 X43.151 Y146.32 E12.57289
G1 X33.637 Y146.32 E12.88933
G1 X33.637 Y151.62 E13.06561
G1 X72.437 Y151.62 E14.3561
G0 F6000 X72.837 Y152.02
;TYPE:WALL-OUTER
G1 F300 X72.837 Y145.92 E14.55899
G1 X63.003 Y145.92 E14.88607
G1 X62.876 Y145.841 E14.89104
G1 X62.838 Y145.747 E14.89442
G1 X62.841 Y80.676 E17.05869
G1 X62.887 Y80.586 E17.06205
G1 X63.023 Y80.52 E17.06707
G1 X72.837 Y80.52 E17.39349
G1 X72.837 Y40.92 E18.71059
G1 X33.238 Y40.921 E20.02766
G1 X33.237 Y80.52 E21.34473
G1 X43.063 Y80.521 E21.67154
G1 X43.176 Y80.575 E21.67571
G1 X43.237 Y80.702 E21.68039
G1 X43.23 Y145.777 E23.8448
G1 X43.198 Y145.841 E23.84718
G1 X43.072 Y145.918 E23.85209
G1 X33.237 Y145.92 E24.1792
G1 X33.237 Y152.02 E24.38209
G1 X72.837 Y152.02 E25.69919
G0 F6000 X72.567 Y151.75
G0 X72.337 Y151.26
G0 X72.077 Y151.26
;TYPE:SKIN
G1 F300 X72.077 Y146.68 E25.85152
G1 X62.836 Y146.68 E26.15888
G1 X62.4 Y146.44 E26.17543
G1 X62.172 Y146.141 E26.18794
G1 X62.084 Y145.848 E26.19811
G1 X62.079 Y80.6 E28.36827
G1 X62.169 Y80.308 E28.37843
G1 X62.413 Y79.983 E28.39195
G1 X62.74 Y79.805 E28.40433
G1 X62.972 Y79.761 E28.41219
G1 X72.076 Y79.76 E28.71499
G1 X72.076 Y76.59 E28.82042
G1 X71.792 Y76.959 E28.83591
G1 X71.27 Y77.365 E28.8579
G1 X70.682 Y77.597 E28.87893
G1 X70.045 Y77.69 E28.90034
G1 X69.398 Y77.606 E28.92204
G1 X68.809 Y77.367 E28.94318
G1 X68.297 Y76.974 E28.96465
G1 X67.897 Y76.458 E28.98636
G1 X67.65 Y75.86 E29.00788
G1 X67.569 Y75.223 E29.02924
G1 X67.652 Y74.59 E29.05047
G1 X67.885 Y74.009 E29.07129
G1 X68.296 Y73.47 E29.09384
G1 X68.798 Y73.088 E29.11482
G1 X69.391 Y72.837 E29.13624
G1 X70.033 Y72.75 E29.15778
G1 X70.677 Y72.835 E29.17939
G1 X71.265 Y73.074 E29.2005
G1 X71.77 Y73.46 E29.22164
G1 X72.077 Y73.855 E29.23828
G1 X72.077 Y47.585 E30.11202
G1 X71.792 Y47.958 E30.12764
G1 X71.269 Y48.365 E30.14968
G1 X70.679 Y48.606 E30.17088
G1 X70.037 Y48.689 E30.19241
G1 X69.421 Y48.609 E30.21307
G1 X68.81 Y48.365 E30.23495
G1 X68.285 Y47.96 E30.257
G1 X67.895 Y47.445 E30.27849
G1 X67.647 Y46.843 E30.30014
G1 X67.571 Y46.196 E30.32181
G1 X67.651 Y45.578 E30.34254
G1 X67.896 Y44.986 E30.36385
G1 X68.282 Y44.483 E30.38494
G1 X68.797 Y44.081 E30.40667
G1 X69.407 Y43.834 E30.42855
G1 X70.036 Y43.75 E30.44966
G1 X70.655 Y43.832 E30.47043
G1 X71.263 Y44.072 E30.49217
G1 X71.772 Y44.462 E30.5135
G1 X72.077 Y44.855 E30.53004
G1 X72.077 Y41.68 E30.63564
G1 X33.998 Y41.682 E31.90216
G1 X33.998 Y44.852 E32.00759
G1 X34.276 Y44.487 E32.02285
G1 X34.805 Y44.076 E32.04513
G1 X35.398 Y43.835 E32.06642
G1 X36.038 Y43.751 E32.08789
G1 X36.68 Y43.835 E32.10943
G1 X37.271 Y44.078 E32.13068
G1 X37.78 Y44.471 E32.15207
G1 X38.177 Y44.982 E32.17359
G1 X38.422 Y45.576 E32.19496
G1 X38.507 Y46.22 E32.21657
G1 X38.417 Y46.866 E32.23826
G1 X38.18 Y47.445 E32.25907
G1 X37.774 Y47.971 E32.28117
G1 X37.281 Y48.351 E32.30187
G1 X36.684 Y48.605 E32.32345
G1 X36.038 Y48.689 E32.34512
G1 X35.391 Y48.605 E32.36682
G1 X34.804 Y48.364 E32.38792
G1 X34.283 Y47.957 E32.40991
G1 X33.999 Y47.59 E32.42535
G1 X33.998 Y73.852 E33.29882
G1 X34.276 Y73.487 E33.31408
G1 X34.806 Y73.076 E33.33639
G1 X35.393 Y72.835 E33.3575
G1 X36.038 Y72.75 E33.37913
G1 X36.683 Y72.836 E33.40078
G1 X37.28 Y73.088 E33.42233
G1 X37.791 Y73.482 E33.44379
G1 X38.176 Y73.989 E33.46496
G1 X38.418 Y74.568 E33.48584
G1 X38.504 Y75.205 E33.50722
G1 X38.424 Y75.86 E33.52916
G1 X38.178 Y76.455 E33.55058
G1 X37.791 Y76.959 E33.57171
G1 X37.274 Y77.363 E33.59354
G1 X36.662 Y77.607 E33.61545
G1 X36.039 Y77.689 E33.63635
G1 X35.416 Y77.609 E33.65724
G1 X34.81 Y77.367 E33.67894
G1 X34.283 Y76.957 E33.70115
G1 X33.999 Y76.589 E33.71661
G1 X33.998 Y79.759 E33.82205
G1 X43.114 Y79.762 E34.12525
G1 X43.45 Y79.848 E34.13678
G1 X43.711 Y80.029 E34.14735
G1 X43.925 Y80.357 E34.16037
G1 X43.994 Y80.634 E34.16987
G1 X43.996 Y145.818 E36.33789
G1 X43.915 Y146.108 E36.34791
G1 X43.803 Y146.309 E36.35556
G1 X43.496 Y146.568 E36.36892
G1 X43.202 Y146.678 E36.37936
G1 X33.997 Y146.68 E36.68552
G1 X33.997 Y151.26 E36.83785
G1 X72.077 Y151.26 E38.1044
G1 F2700 E33.1044
G0 F6000 X72.337 Y151.26
G0 X34.528 Y151.52
G1 F2700 E38.1044
G0 F6000 X34.528 Y151.059
G1 F300 X34.197 Y150.728 E38.11997
G0 F6000 X34.197 Y150.162
G1 F300 X35.093 Y151.059 E38.16214
G0 F6000 X35.659 Y151.059
G1 F300 X34.197 Y149.596 E38.23093
G0 F6000 X34.197 Y149.031
G1 F300 X36.225 Y151.059 E38.32632
G0 F6000 X36.79 Y151.059
G1 F300 X34.197 Y148.465 E38.44831
G0 F6000 X34.197 Y147.899
G1 F300 X37.356 Y151.059 E38.59692
G0 F6000 X37.922 Y151.059
G1 F300 X34.197 Y147.334 E38.77214
G0 F6000 X34.307 Y146.878
G1 F300 X38.487 Y151.059 E38.96877
G0 F6000 X39.053 Y151.059
G1 F300 X34.873 Y146.878 E39.16541
G0 F6000 X35.438 Y146.878
G1 F300 X39.619 Y151.059 E39.36207
G0 F6000 X40.184 Y151.059
G1 F300 X36.003 Y146.878 E39.55873
G0 F6000 X36.569 Y146.878
G1 F300 X40.75 Y151.059 E39.7554
G0 F6000 X41.316 Y151.059
G1 F300 X37.135 Y146.878 E39.95206
G0 F6000 X37.7 Y146.877
G1 F300 X41.881 Y151.059 E40.14874
G0 F6000 X42.447 Y151.059
G1 F300 X38.265 Y146.877 E40.34545
G0 F6000 X38.83 Y146.876
G1 F300 X43.013 Y151.059 E40.54221
G0 F6000 X43.578 Y151.059
G1 F300 X39.396 Y146.876 E40.73894
G0 F6000 X39.962 Y146.876
G1 F300 X44.144 Y151.059 E40.93567
G0 F6000 X44.71 Y151.059
G1 F300 X40.527 Y146.875 E41.13245
G0 F6000 X41.092 Y146.875
G1 F300 X45.276 Y151.059 E41.32925
G0 F6000 X45.841 Y151.059
G1 F300 X41.658 Y146.875 E41.52603
G0 F6000 X42.223 Y146.875
G1 F300 X46.407 Y151.059 E41.72283
G0 F6000 X46.973 Y151.059
G1 F300 X42.789 Y146.875 E41.91964
G0 F6000 X43.323 Y146.843
G1 F300 X47.538 Y151.059 E42.11792
G0 F6000 X48.104 Y151.059
G1 F300 X43.701 Y146.656 E42.32502
G0 F6000 X43.99 Y146.379
G1 F300 X48.67 Y151.059 E42.54516
G0 F6000 X49.235 Y151.059
G1 F300 X44.156 Y145.98 E42.78406
G0 F6000 X44.193 Y145.451
G1 F300 X49.801 Y151.059 E43.04784
G0 F6000 X50.367 Y151.059
G1 F300 X44.193 Y144.885 E43.33825
G0 F6000 X44.193 Y144.319
G1 F300 X50.932 Y151.059 E43.65525
G0 F6000 X51.498 Y151.059
G1 F300 X44.193 Y143.754 E43.99886
G0 F6000 X44.193 Y143.188
G1 F300 X52.064 Y151.059 E44.36908
G0 F6000 X52.629 Y151.059
G1 F300 X44.193 Y142.622 E44.76591
