;FLAVOR:Marlin
;TIME:8724
;Filament used: 4.92558m
;Layer height: 0.2
;MINX:10.402
;MINY:33.5
;MINZ:0.2
;MAXX:62.002
;MAXY:85.1
;MAXZ:17.6
;Generated with Cura_SteamEngine main
M140 S65
M105
M190 S65
M104 S215
M105
M109 S215
M82 ;absolute extrusion mode
M201 X500.00 Y500.00 Z100.00 E5000.00 ;Setup machine max acceleration
M203 X500.00 Y500.00 Z10.00 E50.00 ;Setup machine max feedrate
M204 P500.00 R1000.00 T500.00 ;Setup Print/Retract/Travel acceleration
M205 X8.00 Y8.00 Z0.40 E5.00 ;Setup Jerk
M220 S100 ;Reset Feedrate
M221 S100 ;Reset Flowrate

G28 ;Home
G29 ;BL-touch
G92 E0 ;Reset Extruder
G1 Z2.0 F3000 ;Move Z Axis up
G1 X10.1 Y20 Z0.28 F5000.0 ;Move to start position
G1 X10.1 Y200.0 Z0.28 F1500.0 E15 ;Draw the first line
G1 X10.4 Y200.0 Z0.28 F5000.0 ;Move to side a little
G1 X10.4 Y20 Z0.28 F1500.0 E30 ;Draw the second line
G92 E0 ;Reset Extruder
G1 Z2.0 F3000 ;Move Z Axis up
G92 E0
G92 E0
G1 F2700 E-5
;LAYER_COUNT:88
;LAYER:0
M107
G0 F6000 X44.096 Y35.543 Z0.2
G0 X42.715 Y39.301
;TYPE:SKIRT
G1 F2700 E0
G1 F300 X42.755 Y38.621 E0.02266
G1 X42.874 Y37.951 E0.04529
G1 X43.071 Y37.299 E0.06794
G1 X43.343 Y36.675 E0.09058
G1 X43.686 Y36.087 E0.11322
G1 X44.096 Y35.543 E0.13588
G1 X44.567 Y35.051 E0.15853
G1 X45.092 Y34.618 E0.18117
G1 X45.664 Y34.249 E0.20381
G1 X46.276 Y33.95 E0.22646
G1 X46.919 Y33.724 E0.24913
G1 X47.583 Y33.575 E0.27177
G1 X48.515 Y33.5 E0.30287
G1 X56.202 Y33.5 E0.55854
G1 X56.882 Y33.54 E0.58119
G1 X57.552 Y33.659 E0.60383
G1 X58.204 Y33.856 E0.62648
G1 X58.828 Y34.128 E0.64912
G1 X59.416 Y34.472 E0.67178
G1 X59.96 Y34.882 E0.69443
G1 X60.451 Y35.353 E0.71706
G1 X60.885 Y35.878 E0.73972
G1 X61.254 Y36.45 E0.76236
G1 X61.553 Y37.062 E0.78501
G1 X61.778 Y37.704 E0.80764
G1 X61.927 Y38.369 E0.83031
G1 X62.002 Y39.3 E0.86137
G1 X62.002 Y46.988 E1.11708
G1 X61.962 Y47.668 E1.13973
G1 X61.843 Y48.338 E1.16237
G1 X61.646 Y48.99 E1.18502
G1 X61.374 Y49.614 E1.20766
G1 X61.03 Y50.202 E1.23032
G1 X60.62 Y50.746 E1.25297
G1 X60.149 Y51.237 E1.2756
G1 X59.624 Y51.671 E1.29826
G1 X59.052 Y52.04 E1.3209
G1 X58.44 Y52.339 E1.34355
G1 X57.798 Y52.564 E1.36618
G1 X57.133 Y52.713 E1.38885
G1 X56.201 Y52.788 E1.41995
G1 X48.515 Y52.787 E1.67558
G1 X47.836 Y52.747 E1.69821
G1 X47.165 Y52.628 E1.72087
G1 X46.514 Y52.43 E1.7435
G1 X45.889 Y52.158 E1.76617
G1 X45.301 Y51.815 E1.78882
G1 X44.758 Y51.405 E1.81145
G1 X44.266 Y50.934 E1.8341
G1 X43.833 Y50.409 E1.85673
G1 X43.464 Y49.836 E1.8794
G1 X43.165 Y49.225 E1.90203
G1 X42.94 Y48.582 E1.92468
G1 X42.791 Y47.918 E1.94732
G1 X42.716 Y46.988 E1.97835
G1 X42.715 Y39.301 E2.23402
G0 F6000 X43.115 Y39.301
G1 F300 X43.155 Y38.645 E2.25588
G1 X43.274 Y37.999 E2.27773
G1 X43.471 Y37.372 E2.29959
G1 X43.742 Y36.774 E2.32142
G1 X44.084 Y36.213 E2.34328
G1 X44.492 Y35.698 E2.36513
G1 X44.959 Y35.236 E2.38698
G1 X45.479 Y34.834 E2.40884
G1 X46.044 Y34.499 E2.43069
G1 X46.645 Y34.234 E2.45253
G1 X47.274 Y34.044 E2.47439
G1 X47.922 Y33.933 E2.49625
G1 X48.515 Y33.9 E2.51601
G1 X56.202 Y33.9 E2.77168
G1 X56.858 Y33.94 E2.79354
G1 X57.504 Y34.059 E2.81538
G1 X58.131 Y34.256 E2.83724
G1 X58.729 Y34.528 E2.85909
G1 X59.29 Y34.87 E2.88095
G1 X59.805 Y35.278 E2.9028
G1 X60.267 Y35.745 E2.92465
G1 X60.668 Y36.265 E2.94649
G1 X61.004 Y36.829 E2.96832
G1 X61.268 Y37.431 E2.99019
G1 X61.458 Y38.06 E3.01204
G1 X61.569 Y38.707 E3.03388
G1 X61.602 Y39.3 E3.05363
G1 X61.602 Y46.988 E3.30933
G1 X61.562 Y47.644 E3.33119
G1 X61.443 Y48.29 E3.35304
G1 X61.246 Y48.917 E3.3749
G1 X60.974 Y49.515 E3.39675
G1 X60.632 Y50.076 E3.4186
G1 X60.224 Y50.591 E3.44046
G1 X59.757 Y51.053 E3.4623
G1 X59.237 Y51.454 E3.48414
G1 X58.673 Y51.79 E3.50598
G1 X58.071 Y52.054 E3.52784
G1 X57.442 Y52.244 E3.5497
G1 X56.795 Y52.355 E3.57153
G1 X56.201 Y52.388 E3.59132
G1 X48.515 Y52.387 E3.84696
G1 X47.86 Y52.347 E3.86878
G1 X47.214 Y52.228 E3.89063
G1 X46.587 Y52.031 E3.91249
G1 X45.989 Y51.759 E3.93434
G1 X45.428 Y51.417 E3.95619
G1 X44.913 Y51.009 E3.97804
G1 X44.451 Y50.542 E3.99989
G1 X44.049 Y50.022 E4.02175
G1 X43.714 Y49.457 E4.0436
G1 X43.45 Y48.855 E4.06546
G1 X43.26 Y48.226 E4.08732
G1 X43.149 Y47.579 E4.10915
G1 X43.116 Y46.988 E4.12884
G1 X43.115 Y39.301 E4.38451
G0 F6000 X43.515 Y39.301
G1 F300 X43.555 Y38.67 E4.40554
G1 X43.674 Y38.049 E4.42657
G1 X43.871 Y37.448 E4.44761
G1 X44.141 Y36.877 E4.46861
G1 X44.482 Y36.344 E4.48966
G1 X44.887 Y35.859 E4.51067
G1 X45.35 Y35.429 E4.53169
G1 X45.864 Y35.061 E4.55272
G1 X46.42 Y34.76 E4.57375
G1 X47.01 Y34.532 E4.59478
G1 X47.623 Y34.38 E4.61579
G1 X48.515 Y34.3 E4.64558
G1 X56.202 Y34.3 E4.90125
G1 X56.833 Y34.34 E4.92228
G1 X57.454 Y34.459 E4.94331
G1 X58.054 Y34.656 E4.96431
G1 X58.626 Y34.927 E4.98536
G1 X59.158 Y35.267 E5.00636
G1 X59.643 Y35.673 E5.0274
G1 X60.073 Y36.136 E5.04842
G1 X60.442 Y36.65 E5.06946
G1 X60.742 Y37.206 E5.09047
G1 X60.97 Y37.795 E5.11148
G1 X61.122 Y38.409 E5.13252
G1 X61.202 Y39.3 E5.16227
G1 X61.202 Y46.988 E5.41798
G1 X61.162 Y47.619 E5.43901
G1 X61.043 Y48.24 E5.46004
G1 X60.846 Y48.84 E5.48104
G1 X60.575 Y49.412 E5.50209
G1 X60.235 Y49.944 E5.52309
G1 X59.829 Y50.429 E5.54413
G1 X59.366 Y50.859 E5.56514
G1 X58.852 Y51.228 E5.58619
G1 X58.296 Y51.528 E5.6072
G1 X57.707 Y51.756 E5.62821
G1 X57.093 Y51.908 E5.64925
G1 X56.201 Y51.988 E5.67903
G1 X48.515 Y51.987 E5.93467
G1 X47.884 Y51.947 E5.9557
G1 X47.264 Y51.828 E5.9767
G1 X46.663 Y51.631 E5.99773
G1 X46.092 Y51.36 E6.01876
G1 X45.559 Y51.019 E6.0398
G1 X45.074 Y50.614 E6.06082
G1 X44.644 Y50.151 E6.08183
G1 X44.276 Y49.637 E6.10286
G1 X43.975 Y49.081 E6.12389
G1 X43.748 Y48.491 E6.14491
G1 X43.596 Y47.877 E6.16595
G1 X43.516 Y46.988 E6.19564
G1 X43.515 Y39.301 E6.45131
G0 F6000 X43.915 Y39.301
G1 F300 X43.955 Y38.696 E6.47148
G1 X44.074 Y38.101 E6.49166
G1 X44.27 Y37.527 E6.51183
G1 X44.54 Y36.985 E6.53197
G1 X44.879 Y36.482 E6.55215
G1 X45.281 Y36.028 E6.57232
G1 X45.74 Y35.631 E6.5925
G1 X46.246 Y35.298 E6.61265
G1 X46.792 Y35.035 E6.6328
G1 X47.368 Y34.845 E6.65298
G1 X47.964 Y34.733 E6.67315
G1 X48.515 Y34.7 E6.69151
G1 X56.202 Y34.7 E6.94718
G1 X56.807 Y34.74 E6.96734
G1 X57.401 Y34.859 E6.98749
G1 X57.975 Y35.055 E7.00767
G1 X58.518 Y35.326 E7.02785
G1 X59.021 Y35.665 E7.04803
G1 X59.474 Y36.067 E7.06817
G1 X59.871 Y36.525 E7.08833
G1 X60.204 Y37.032 E7.1085
G1 X60.468 Y37.578 E7.12868
G1 X60.657 Y38.154 E7.14884
G1 X60.769 Y38.75 E7.16901
G1 X60.802 Y39.3 E7.18733
G1 X60.802 Y46.988 E7.44304
G1 X60.762 Y47.593 E7.4632
G1 X60.643 Y48.187 E7.48335
G1 X60.447 Y48.761 E7.50353
G1 X60.176 Y49.304 E7.52371
G1 X59.837 Y49.807 E7.54389
G1 X59.435 Y50.26 E7.56403
G1 X58.977 Y50.657 E7.58419
G1 X58.47 Y50.99 E7.60436
G1 X57.924 Y51.254 E7.62454
G1 X57.348 Y51.443 E7.6447
G1 X56.752 Y51.555 E7.66487
G1 X56.201 Y51.588 E7.68323
G1 X48.515 Y51.587 E7.93887
G1 X47.91 Y51.547 E7.95903
G1 X47.316 Y51.428 E7.97918
G1 X46.742 Y51.231 E7.99937
G1 X46.2 Y50.961 E8.01951
G1 X45.697 Y50.622 E8.03968
G1 X45.243 Y50.22 E8.05985
G1 X44.847 Y49.761 E8.08001
G1 X44.514 Y49.255 E8.10016
G1 X44.25 Y48.708 E8.12036
G1 X44.061 Y48.132 E8.14052
G1 X43.949 Y47.537 E8.16066
G1 X43.916 Y46.988 E8.17895
G1 X43.915 Y39.301 E8.43462
G0 F6000 X44.315 Y39.301
G1 F300 X44.355 Y38.723 E8.45389
G1 X44.474 Y38.156 E8.47316
G1 X44.67 Y37.61 E8.49246
G1 X44.939 Y37.097 E8.51172
G1 X45.276 Y36.626 E8.53099
G1 X45.675 Y36.206 E8.55025
G1 X46.127 Y35.845 E8.56949
G1 X46.626 Y35.549 E8.58879
G1 X47.16 Y35.325 E8.60805
G1 X47.72 Y35.176 E8.62733
G1 X48.515 Y35.1 E8.65389
G1 X56.202 Y35.1 E8.90956
G1 X56.78 Y35.14 E8.92883
G1 X57.347 Y35.259 E8.9481
G1 X57.892 Y35.455 E8.96736
G1 X58.405 Y35.724 E8.98663
G1 X58.876 Y36.061 E9.00589
G1 X59.296 Y36.46 E9.02516
G1 X59.658 Y36.913 E9.04444
G1 X59.953 Y37.411 E9.0637
G1 X60.178 Y37.945 E9.08297
G1 X60.326 Y38.505 E9.10223
G1 X60.402 Y39.3 E9.1288
G1 X60.402 Y46.988 E9.3845
G1 X60.362 Y47.566 E9.40377
G1 X60.243 Y48.133 E9.42304
G1 X60.047 Y48.678 E9.4423
G1 X59.778 Y49.191 E9.46157
G1 X59.441 Y49.662 E9.48083
G1 X59.042 Y50.082 E9.5001
G1 X58.589 Y50.444 E9.51939
G1 X58.091 Y50.739 E9.53864
G1 X57.557 Y50.964 E9.55791
G1 X56.997 Y51.112 E9.57718
G1 X56.201 Y51.188 E9.60377
G1 X48.515 Y51.187 E9.85941
G1 X47.938 Y51.147 E9.87865
G1 X47.371 Y51.028 E9.89792
G1 X46.825 Y50.832 E9.91721
G1 X46.313 Y50.563 E9.93645
G1 X45.841 Y50.225 E9.95576
G1 X45.421 Y49.827 E9.975
G1 X45.06 Y49.374 E9.99427
G1 X44.764 Y48.875 E10.01356
G1 X44.54 Y48.341 E10.03282
G1 X44.392 Y47.781 E10.05209
G1 X44.316 Y46.988 E10.07859
G1 X44.315 Y39.301 E10.33426
G0 F6000 X44.715 Y39.3
G1 F300 X44.755 Y38.751 E10.35256
G1 X44.874 Y38.213 E10.37089
G1 X45.069 Y37.698 E10.38921
G1 X45.337 Y37.216 E10.40755
G1 X45.672 Y36.779 E10.42586
G1 X46.066 Y36.394 E10.44419
G1 X46.512 Y36.07 E10.46252
G1 X47.001 Y35.815 E10.48086
G1 X47.521 Y35.632 E10.4992
G1 X48.061 Y35.527 E10.5175
G1 X48.515 Y35.5 E10.53262
G1 X56.202 Y35.5 E10.78829
G1 X56.752 Y35.54 E10.80663
G1 X57.29 Y35.659 E10.82496
G1 X57.805 Y35.855 E10.84329
G1 X58.286 Y36.123 E10.8616
G1 X58.724 Y36.457 E10.87992
G1 X59.108 Y36.852 E10.89824
G1 X59.432 Y37.298 E10.91658
G1 X59.687 Y37.786 E10.93489
G1 X59.87 Y38.306 E10.95323
G1 X59.975 Y38.847 E10.97156
G1 X60.002 Y39.3 E10.98665
G1 X60.002 Y46.988 E11.24236
G1 X59.962 Y47.538 E11.2607
G1 X59.843 Y48.076 E11.27902
G1 X59.647 Y48.591 E11.29735
G1 X59.379 Y49.072 E11.31566
G1 X59.045 Y49.51 E11.33398
G1 X58.65 Y49.894 E11.35231
G1 X58.204 Y50.218 E11.37064
G1 X57.716 Y50.473 E11.38896
G1 X57.196 Y50.656 E11.40729
G1 X56.655 Y50.761 E11.42562
G1 X56.202 Y50.788 E11.44071
G1 X48.516 Y50.787 E11.69635
G1 X47.966 Y50.747 E11.71469
G1 X47.428 Y50.628 E11.73302
G1 X46.913 Y50.432 E11.75135
G1 X46.431 Y50.164 E11.76969
G1 X45.994 Y49.829 E11.788
G1 X45.609 Y49.435 E11.80633
G1 X45.286 Y48.989 E11.82464
G1 X45.03 Y48.5 E11.843
G1 X44.848 Y47.981 E11.86129
G1 X44.743 Y47.44 E11.87962
G1 X44.716 Y46.987 E11.89472
G1 X44.715 Y39.3 E12.15039
G0 F6000 X45.115 Y39.3
G1 F300 X45.155 Y38.781 E12.1677
G1 X45.274 Y38.273 E12.18505
G1 X45.469 Y37.79 E12.20238
G1 X45.735 Y37.342 E12.21971
G1 X46.067 Y36.94 E12.23705
G1 X46.456 Y36.594 E12.25436
G1 X46.894 Y36.311 E12.27171
G1 X47.37 Y36.099 E12.28904
G1 X47.873 Y35.961 E12.30639
G1 X48.515 Y35.9 E12.32784
G1 X56.202 Y35.9 E12.58351
G1 X56.722 Y35.94 E12.60085
G1 X57.229 Y36.059 E12.61817
G1 X57.712 Y36.254 E12.6355
G1 X58.16 Y36.52 E12.65283
G1 X58.562 Y36.852 E12.67017
G1 X58.908 Y37.242 E12.68751
G1 X59.191 Y37.68 E12.70485
G1 X59.404 Y38.155 E12.72217
G1 X59.541 Y38.658 E12.73951
G1 X59.602 Y39.3 E12.76096
G1 X59.602 Y46.988 E13.01666
G1 X59.562 Y47.508 E13.03401
G1 X59.443 Y48.015 E13.05133
G1 X59.248 Y48.498 E13.06865
G1 X58.982 Y48.946 E13.08598
G1 X58.65 Y49.348 E13.10332
G1 X58.26 Y49.694 E13.12066
G1 X57.822 Y49.977 E13.13801
G1 X57.347 Y50.19 E13.15532
G1 X56.844 Y50.327 E13.17266
G1 X56.202 Y50.388 E13.19411
G1 X48.516 Y50.387 E13.44975
G1 X47.996 Y50.347 E13.46709
G1 X47.489 Y50.228 E13.48441
G1 X47.005 Y50.033 E13.50177
G1 X46.558 Y49.766 E13.51909
G1 X46.156 Y49.434 E13.53643
G1 X45.809 Y49.045 E13.55377
G1 X45.527 Y48.607 E13.57109
G1 X45.314 Y48.131 E13.58844
G1 X45.177 Y47.628 E13.60578
G1 X45.116 Y46.987 E13.62719
G1 X45.115 Y39.3 E13.88286
G0 F6000 X45.515 Y39.3
G1 F300 X45.555 Y38.813 E13.89911
G1 X45.674 Y38.338 E13.9154
G1 X45.868 Y37.888 E13.9317
G1 X46.133 Y37.477 E13.94796
G1 X46.461 Y37.114 E13.96424
G1 X46.844 Y36.809 E13.98052
G1 X47.271 Y36.57 E13.9968
G1 X47.732 Y36.404 E14.01309
G1 X48.213 Y36.315 E14.02936
G1 X48.515 Y36.3 E14.03942
G1 X56.202 Y36.3 E14.29509
G1 X56.69 Y36.34 E14.31138
G1 X57.165 Y36.459 E14.32766
G1 X57.614 Y36.653 E14.34393
G1 X58.026 Y36.918 E14.36022
G1 X58.389 Y37.246 E14.3765
G1 X58.694 Y37.629 E14.39278
G1 X58.932 Y38.057 E14.40907
G1 X59.098 Y38.517 E14.42533
G1 X59.187 Y38.998 E14.4416
G1 X59.202 Y39.3 E14.45166
G1 X59.202 Y46.988 E14.70736
G1 X59.162 Y47.476 E14.72365
G1 X59.043 Y47.951 E14.73994
G1 X58.849 Y48.4 E14.7562
G1 X58.584 Y48.812 E14.7725
G1 X58.256 Y49.175 E14.78877
G1 X57.873 Y49.48 E14.80505
G1 X57.445 Y49.718 E14.82134
G1 X56.985 Y49.884 E14.83761
G1 X56.504 Y49.973 E14.85388
G1 X56.202 Y49.988 E14.86393
G1 X48.516 Y49.987 E15.11957
G1 X48.028 Y49.947 E15.13586
G1 X47.553 Y49.828 E15.15214
G1 X47.104 Y49.634 E15.16841
G1 X46.692 Y49.369 E15.18471
G1 X46.329 Y49.041 E15.20098
G1 X46.024 Y48.658 E15.21726
G1 X45.786 Y48.23 E15.23355
G1 X45.62 Y47.77 E15.24982
G1 X45.531 Y47.288 E15.26612
G1 X45.516 Y46.987 E15.27614
G1 X45.515 Y39.3 E15.53181
G0 F6000 X45.915 Y39.3
G1 F300 X45.955 Y38.846 E15.54697
G1 X46.073 Y38.406 E15.56212
G1 X46.267 Y37.994 E15.57727
G1 X46.529 Y37.622 E15.5924
G1 X46.853 Y37.301 E15.60757
G1 X47.227 Y37.041 E15.62272
G1 X47.641 Y36.851 E15.63787
G1 X48.082 Y36.736 E15.65303
G1 X48.515 Y36.7 E15.66748
G1 X56.202 Y36.7 E15.92315
G1 X56.656 Y36.74 E15.93831
G1 X57.096 Y36.858 E15.95346
G1 X57.508 Y37.052 E15.96861
G1 X57.881 Y37.315 E15.98379
G1 X58.202 Y37.638 E15.99893
G1 X58.461 Y38.013 E16.01409
G1 X58.651 Y38.427 E16.02924
G1 X58.766 Y38.868 E16.0444
G1 X58.802 Y39.3 E16.05882
G1 X58.802 Y46.988 E16.31452
G1 X58.762 Y47.442 E16.32968
G1 X58.644 Y47.882 E16.34483
G1 X58.45 Y48.294 E16.35998
G1 X58.187 Y48.667 E16.37516
G1 X57.864 Y48.988 E16.39031
G1 X57.489 Y49.247 E16.40546
G1 X57.075 Y49.437 E16.42062
G1 X56.634 Y49.552 E16.43577
G1 X56.202 Y49.588 E16.45019
G1 X48.516 Y49.587 E16.70583
G1 X48.062 Y49.547 E16.72099
G1 X47.622 Y49.428 E16.73615
G1 X47.209 Y49.235 E16.75131
G1 X46.837 Y48.972 E16.76646
G1 X46.516 Y48.649 E16.78161
G1 X46.257 Y48.274 E16.79677
G1 X46.067 Y47.86 E16.81192
G1 X45.952 Y47.419 E16.82708
G1 X45.916 Y46.987 E16.84149
G1 X45.915 Y39.3 E17.09716
G0 F6000 X46.315 Y39.3
G1 F300 X46.355 Y38.883 E17.1111
G1 X46.473 Y38.481 E17.12503
G1 X46.665 Y38.109 E17.13896
G1 X46.925 Y37.78 E17.1529
G1 X47.242 Y37.506 E17.16684
G1 X47.605 Y37.297 E17.18077
G1 X48.002 Y37.161 E17.19473
G1 X48.515 Y37.1 E17.21191
G1 X56.202 Y37.1 E17.46758
G1 X56.619 Y37.14 E17.48151
G1 X57.021 Y37.258 E17.49545
G1 X57.393 Y37.451 E17.50939
G1 X57.722 Y37.71 E17.52331
G1 X57.996 Y38.027 E17.53725
G1 X58.205 Y38.39 E17.55118
G1 X58.341 Y38.787 E17.56514
G1 X58.402 Y39.3 E17.58232
G1 X58.402 Y46.988 E17.83803
G1 X58.362 Y47.405 E17.85196
G1 X58.244 Y47.807 E17.86589
G1 X58.051 Y48.179 E17.87983
G1 X57.792 Y48.508 E17.89376
G1 X57.475 Y48.782 E17.9077
G1 X57.112 Y48.991 E17.92163
G1 X56.715 Y49.127 E17.93559
G1 X56.202 Y49.188 E17.95277
G1 X48.516 Y49.187 E18.20841
G1 X48.099 Y49.147 E18.22234
G1 X47.697 Y49.029 E18.23627
G1 X47.324 Y48.836 E18.25024
G1 X46.995 Y48.577 E18.26417
G1 X46.721 Y48.26 E18.2781
G1 X46.513 Y47.896 E18.29205
G1 X46.377 Y47.5 E18.30597
G1 X46.316 Y46.987 E18.32316
G1 X46.315 Y39.3 E18.57883
G0 F6000 X46.715 Y39.3
G1 F300 X46.755 Y38.923 E18.59144
G1 X46.873 Y38.563 E18.60404
G1 X47.063 Y38.236 E18.61662
G1 X47.318 Y37.955 E18.62924
G1 X47.626 Y37.735 E18.64183
G1 X47.974 Y37.583 E18.65446
G1 X48.515 Y37.5 E18.67266
G1 X56.202 Y37.5 E18.92833
G1 X56.579 Y37.54 E18.94094
G1 X56.939 Y37.658 E18.95354
G1 X57.266 Y37.848 E18.96612
G1 X57.547 Y38.103 E18.97874
G1 X57.767 Y38.412 E18.99136
G1 X57.919 Y38.759 E19.00396
G1 X58.002 Y39.3 E19.02216
G1 X58.002 Y46.988 E19.27786
G1 X57.962 Y47.365 E19.29047
G1 X57.844 Y47.725 E19.30307
G1 X57.654 Y48.052 E19.31565
G1 X57.399 Y48.333 E19.32827
G1 X57.09 Y48.553 E19.34089
G1 X56.743 Y48.705 E19.35349
G1 X56.202 Y48.788 E19.37169
G1 X48.516 Y48.787 E19.62733
G1 X48.139 Y48.747 E19.63994
G1 X47.779 Y48.629 E19.65254
G1 X47.451 Y48.438 E19.66517
G1 X47.171 Y48.183 E19.67776
G1 X46.95 Y47.875 E19.69037
G1 X46.799 Y47.528 E19.70296
G1 X46.716 Y46.987 E19.72116
G1 X46.715 Y39.3 E19.97683
G0 F6000 X47.115 Y39.3
G1 F300 X47.155 Y38.968 E19.98795
G1 X47.272 Y38.656 E19.99904
G1 X47.46 Y38.38 E20.01014
G1 X47.708 Y38.156 E20.02126
G1 X48.002 Y37.997 E20.03238
G1 X48.375 Y37.9 E20.04519
G1 X56.202 Y37.9 E20.30552
G1 X56.534 Y37.94 E20.31664
G1 X56.846 Y38.057 E20.32773
G1 X57.123 Y38.245 E20.33886
G1 X57.346 Y38.493 E20.34995
G1 X57.505 Y38.787 E20.36107
G1 X57.602 Y39.161 E20.37392
G1 X57.602 Y46.988 E20.63425
