;FLAVOR:Marlin
;TIME:18369
;Filament used: 11.7897m
;Layer height: 0.2
;MINX:25.397
;MINY:30.724
;MINZ:0.2
;MAXX:74.386
;MAXY:142.689
;MAXZ:47.8
;Generated with Cura_SteamEngine main
M140 S65
M105
M190 S65
M104 S215
M105
M109 S215
M82 ;absolute extrusion mode
M201 X500.00 Y500.00 Z100.00 E5000.00 ;Setup machine max acceleration
M203 X500.00 Y500.00 Z10.00 E50.00 ;Setup machine max feedrate
M204 P500.00 R1000.00 T500.00 ;Setup Print/Retract/Travel acceleration
M205 X8.00 Y8.00 Z0.40 E5.00 ;Setup Jerk
M220 S100 ;Reset Feedrate
M221 S100 ;Reset Flowrate

G28 ;Home
G29 ;BL-touch
G92 E0 ;Reset Extruder
G1 Z2.0 F3000 ;Move Z Axis up
G1 X10.1 Y20 Z0.28 F5000.0 ;Move to start position
G1 X10.1 Y200.0 Z0.28 F1500.0 E15 ;Draw the first line
G1 X10.4 Y200.0 Z0.28 F5000.0 ;Move to side a little
G1 X10.4 Y20 Z0.28 F1500.0 E30 ;Draw the second line
G92 E0 ;Reset Extruder
G1 Z2.0 F3000 ;Move Z Axis up
G92 E0
G92 E0
G1 F2700 E-5
;LAYER_COUNT:239
;LAYER:0
M107
;MESH:holder.cup.v2.thick_reversed.3mf
G0 F6000 X34.942 Y107.852 Z0.2
;TYPE:WALL-INNER
G1 F2700 E0
G1 F300 X34.415 Y108.062 E0.01887
G1 X33.893 Y108.13 E0.03638
G1 X33.344 Y108.057 E0.0548
G1 X32.832 Y107.847 E0.0732
G1 X32.399 Y107.514 E0.09137
G1 X32.066 Y107.079 E0.10959
G1 X31.854 Y106.568 E0.12799
G1 X31.791 Y106.024 E0.14621
G1 X31.795 Y105.945 E0.14884
G1 X31.856 Y105.481 E0.1644
G1 X32.066 Y104.969 E0.18281
G1 X32.404 Y104.538 E0.20103
G1 X32.839 Y104.196 E0.21943
G1 X33.349 Y103.989 E0.23774
G1 X33.892 Y103.918 E0.25595
G1 X34.432 Y103.989 E0.27407
G1 X34.939 Y104.195 E0.29227
G1 X35.38 Y104.534 E0.31077
G1 X35.72 Y104.975 E0.32929
G1 X35.927 Y105.484 E0.34757
G1 X35.997 Y106.025 E0.36571
G1 X35.923 Y106.576 E0.3842
G1 X35.713 Y107.084 E0.40248
G1 X35.386 Y107.503 E0.42016
G1 X34.942 Y107.852 E0.43894
G0 F6000 X34.332 Y107.669
;TYPE:WALL-OUTER
G1 F300 X33.89 Y107.726 E0.45377
G1 X33.451 Y107.669 E0.46849
G1 X33.033 Y107.498 E0.48351
G1 X32.687 Y107.231 E0.49805
G1 X32.415 Y106.876 E0.51292
G1 X32.242 Y106.447 E0.52831
G1 X32.191 Y106.024 E0.54248
G1 X32.246 Y105.584 E0.55723
G1 X32.413 Y105.177 E0.57186
G1 X32.687 Y104.821 E0.5868
G1 X33.047 Y104.543 E0.60193
G1 X33.469 Y104.376 E0.61702
G1 X33.892 Y104.322 E0.63121
G1 X34.331 Y104.379 E0.64593
G1 X34.736 Y104.544 E0.66048
G1 X35.096 Y104.82 E0.67556
G1 X35.372 Y105.179 E0.69063
G1 X35.537 Y105.585 E0.7052
G1 X35.593 Y106.024 E0.71992
G1 X35.537 Y106.456 E0.73441
G1 X35.363 Y106.88 E0.74965
G1 X35.098 Y107.225 E0.76412
G1 X34.756 Y107.491 E0.77853
G1 X34.332 Y107.669 E0.79383
G1 F2700 E-4.20617
G0 F6000 X34.445 Y107.945
G0 X34.378 Y108.249
G0 X34.381 Y135.8
G0 X34.946 Y139.849
;TYPE:WALL-INNER
G1 F2700 E0.79383
G1 F300 X34.435 Y140.059 E0.8122
G1 X33.89 Y140.13 E0.83048
G1 X33.348 Y140.059 E0.84866
G1 X32.829 Y139.846 E0.86732
G1 X32.404 Y139.511 E0.88532
G1 X32.067 Y139.083 E0.90344
G1 X31.855 Y138.571 E0.92187
G1 X31.795 Y138.1 E0.93766
G1 X31.795 Y137.945 E0.94282
G1 X31.856 Y137.481 E0.95838
G1 X32.065 Y136.972 E0.97669
G1 X32.4 Y136.534 E0.99503
G1 X32.842 Y136.195 E1.01355
G1 X33.351 Y135.988 E1.03183
G1 X33.892 Y135.918 E1.04997
G1 X34.439 Y135.996 E1.06835
G1 X34.948 Y136.202 E1.08661
G1 X35.381 Y136.536 E1.1048
G1 X35.716 Y136.972 E1.12309
G1 X35.929 Y137.501 E1.14206
G1 X35.997 Y138.024 E1.1596
G1 X35.927 Y138.567 E1.17781
G1 X35.714 Y139.081 E1.19631
G1 X35.38 Y139.516 E1.21455
G1 X34.946 Y139.849 E1.23275
G0 F6000 X34.747 Y139.499
;TYPE:WALL-OUTER
G1 F300 X34.313 Y139.672 E1.24829
G1 X33.89 Y139.726 E1.26247
G1 X33.451 Y139.669 E1.27719
G1 X33.033 Y139.497 E1.29223
G1 X32.687 Y139.228 E1.30681
G1 X32.416 Y138.877 E1.32155
G1 X32.242 Y138.447 E1.33698
G1 X32.192 Y138.05 E1.35029
G1 X32.192 Y137.997 E1.35205
G1 X32.246 Y137.584 E1.36591
G1 X32.412 Y137.177 E1.38053
G1 X32.686 Y136.82 E1.3955
G1 X33.047 Y136.543 E1.41063
G1 X33.451 Y136.378 E1.42514
G1 X33.892 Y136.322 E1.43993
G1 X34.332 Y136.379 E1.45469
G1 X34.747 Y136.553 E1.46965
G1 X35.095 Y136.821 E1.48426
G1 X35.363 Y137.168 E1.49884
G1 X35.536 Y137.584 E1.51383
G1 X35.593 Y138.024 E1.52859
G1 X35.537 Y138.463 E1.54331
G1 X35.364 Y138.88 E1.55832
G1 X35.095 Y139.231 E1.57303
G1 X34.747 Y139.499 E1.58764
G1 F2700 E-3.41236
G0 F6000 X34.928 Y139.735
G0 X35.912 Y139.078
G0 X63.868 Y139.075
G0 X66.949 Y139.848
;TYPE:WALL-INNER
G1 F2700 E1.58764
G1 F300 X66.435 Y140.059 E1.60612
G1 X65.89 Y140.13 E1.6244
G1 X65.348 Y140.059 E1.64258
G1 X64.832 Y139.847 E1.66113
G1 X64.399 Y139.514 E1.6793
G1 X64.067 Y139.081 E1.69745
G1 X63.854 Y138.567 E1.71596
G1 X63.795 Y138.1 E1.73161
G1 X63.796 Y137.945 E1.73677
G1 X63.863 Y137.476 E1.75252
G1 X64.069 Y136.969 E1.77073
G1 X64.404 Y136.538 E1.78888
G1 X64.831 Y136.203 E1.80693
G1 X65.344 Y135.995 E1.82535
G1 X65.885 Y135.918 E1.84352
G1 X66.435 Y135.99 E1.86197
G1 X66.939 Y136.196 E1.88008
G1 X67.38 Y136.534 E1.89856
G1 X67.72 Y136.975 E1.91708
G1 X67.927 Y137.484 E1.93536
G1 X67.997 Y138.024 E1.95347
G1 X67.926 Y138.569 E1.97175
G1 X67.713 Y139.084 E1.99028
G1 X67.378 Y139.511 E2.00833
G1 X66.949 Y139.848 E2.02648
G0 F6000 X66.747 Y139.499
;TYPE:WALL-OUTER
G1 F300 X66.313 Y139.672 E2.04202
G1 X65.89 Y139.726 E2.0562
G1 X65.451 Y139.669 E2.07092
G1 X65.033 Y139.498 E2.08595
G1 X64.687 Y139.231 E2.10048
G1 X64.416 Y138.877 E2.11531
G1 X64.244 Y138.463 E2.13022
G1 X64.192 Y138.05 E2.14407
G1 X64.192 Y137.997 E2.14583
G1 X64.246 Y137.583 E2.15971
G1 X64.421 Y137.166 E2.17476
G1 X64.687 Y136.821 E2.18925
G1 X65.036 Y136.552 E2.2039
G1 X65.451 Y136.379 E2.21886
G1 X65.892 Y136.322 E2.23365
G1 X66.331 Y136.379 E2.24837
G1 X66.736 Y136.544 E2.26291
G1 X67.096 Y136.82 E2.278
G1 X67.372 Y137.179 E2.29306
G1 X67.537 Y137.585 E2.30764
G1 X67.593 Y138.024 E2.32236
G1 X67.539 Y138.447 E2.33654
G1 X67.364 Y138.88 E2.35208
G1 X67.095 Y139.228 E2.36671
G1 X66.747 Y139.499 E2.38138
G1 F2700 E-2.61862
G0 F6000 X66.928 Y139.735
G0 X67.505 Y139.638
G0 X69.091 Y139.638
G0 X69.291 Y141.424
;TYPE:WALL-INNER
G1 F2700 E2.38138
G1 F300 X69.291 Y102.624 E3.67187
G1 X59.837 Y102.622 E3.98631
G1 X59.584 Y102.541 E3.99515
G1 X59.477 Y102.46 E3.99961
G1 X59.334 Y102.25 E4.00806
G1 X59.292 Y102.073 E4.01411
G1 X59.296 Y36.944 E6.18031
G1 X59.351 Y36.76 E6.1867
G1 X59.496 Y36.571 E6.19462
G1 X59.777 Y36.424 E6.20517
G1 X69.291 Y36.424 E6.5216
G1 X69.291 Y31.124 E6.69788
G1 X30.491 Y31.124 E7.98838
G1 X30.491 Y36.424 E8.16465
G1 X40.005 Y36.424 E8.48109
G1 X40.286 Y36.571 E8.49164
G1 X40.431 Y36.761 E8.49959
G1 X40.486 Y36.944 E8.50594
G1 X40.489 Y102.077 E10.67228
G1 X40.448 Y102.25 E10.67819
G1 X40.322 Y102.443 E10.68586
G1 X40.101 Y102.587 E10.69463
G1 X39.947 Y102.622 E10.69988
G1 X30.491 Y102.624 E11.01439
G1 X30.491 Y141.424 E12.30488
G1 X69.291 Y141.424 E13.59538
G0 F6000 X69.691 Y141.824
;TYPE:WALL-OUTER
G1 F300 X69.691 Y102.224 E14.91248
G1 X59.873 Y102.224 E15.23903
G1 X59.782 Y102.193 E15.24222
G1 X59.691 Y102.07 E15.24731
G1 X59.698 Y36.967 E17.41265
G1 X59.73 Y36.903 E17.41503
G1 X59.856 Y36.826 E17.41994
G1 X69.691 Y36.824 E17.74705
G1 X69.691 Y30.724 E17.94994
G1 X30.091 Y30.724 E19.26704
G1 X30.091 Y36.824 E19.46993
G1 X39.925 Y36.824 E19.79701
G1 X40.052 Y36.903 E19.80198
G1 X40.09 Y36.997 E19.80535
G1 X40.089 Y102.074 E21.96982
G1 X40.041 Y102.158 E21.97304
G1 X39.91 Y102.224 E21.97792
G1 X30.091 Y102.224 E22.3045
G1 X30.091 Y141.824 E23.6216
G1 X69.691 Y141.824 E24.9387
G1 F2700 E19.9387
G0 F6000 X69.421 Y141.554
G0 X69.091 Y108.001
G0 X67.124 Y107.941
G0 X66.947 Y107.849
;TYPE:WALL-INNER
G1 F2700 E24.9387
G1 F300 X66.437 Y108.058 E24.95704
G1 X65.886 Y108.13 E24.97552
G1 X65.342 Y108.052 E24.9938
G1 X64.841 Y107.852 E25.01174
G1 X64.413 Y107.524 E25.02967
G1 X64.072 Y107.087 E25.04811
G1 X63.853 Y106.557 E25.06718
G1 X63.795 Y106.1 E25.0825
G1 X63.796 Y105.945 E25.08766
G1 X63.857 Y105.48 E25.10326
G1 X64.064 Y104.972 E25.1215
G1 X64.4 Y104.534 E25.13986
G1 X64.843 Y104.195 E25.15842
G1 X65.349 Y103.989 E25.17659
G1 X65.892 Y103.918 E25.1948
G1 X66.432 Y103.989 E25.21292
G1 X66.941 Y104.196 E25.23119
G1 X67.378 Y104.538 E25.24965
G1 X67.719 Y104.973 E25.26803
G1 X67.927 Y105.484 E25.28638
G1 X67.997 Y106.024 E25.30449
G1 X67.926 Y106.569 E25.32277
G1 X67.714 Y107.081 E25.34121
G1 X67.382 Y107.513 E25.35933
G1 X66.947 Y107.849 E25.37761
G0 F6000 X66.748 Y107.498
;TYPE:WALL-OUTER
G1 F300 X66.331 Y107.67 E25.39261
G1 X65.89 Y107.726 E25.4074
G1 X65.45 Y107.669 E25.42215
G1 X65.025 Y107.49 E25.43749
G1 X64.698 Y107.238 E25.45122
G1 X64.422 Y106.885 E25.46613
G1 X64.244 Y106.456 E25.48157
G1 X64.192 Y106.05 E25.49519
G1 X64.192 Y105.997 E25.49695
G1 X64.246 Y105.584 E25.5108
G1 X64.412 Y105.177 E25.52542
G1 X64.686 Y104.82 E25.54039
G1 X65.048 Y104.543 E25.55555
G1 X65.469 Y104.376 E25.57062
G1 X65.892 Y104.322 E25.5848
G1 X66.331 Y104.379 E25.59952
G1 X66.736 Y104.545 E25.61408
G1 X67.095 Y104.821 E25.62914
G1 X67.371 Y105.179 E25.64418
G1 X67.537 Y105.585 E25.65877
G1 X67.593 Y106.024 E25.67349
G1 X67.539 Y106.447 E25.68767
G1 X67.365 Y106.879 E25.70316
G1 X67.095 Y107.231 E25.71791
G1 X66.748 Y107.498 E25.73248
G0 F6000 X66.529 Y108.411
;TYPE:SKIN
G1 F300 X65.888 Y108.493 E25.75397
G1 X65.273 Y108.413 E25.7746
G1 X64.623 Y108.144 E25.79799
G1 X64.143 Y107.765 E25.81834
G1 X63.755 Y107.251 E25.83976
G1 X63.511 Y106.683 E25.86032
G1 X63.425 Y106.05 E25.88156
G1 X63.425 Y105.997 E25.88333
G1 X63.504 Y105.389 E25.90372
G1 X63.745 Y104.797 E25.92498
G1 X64.131 Y104.291 E25.94615
G1 X64.642 Y103.893 E25.96769
G1 F285.7 X64.93 Y103.751 E25.9789
G1 F259.7 X65.218 Y103.609 E25.99124
G1 F237.6 X65.274 Y103.571 E25.99408
G1 F229.9 X65.583 Y103.541 E26.00755
G1 F234.4 X65.893 Y103.511 E26.02081
G1 X66.199 Y103.541 E26.0339
G1 F229.9 X66.505 Y103.571 E26.04725
G1 F237.6 X66.56 Y103.609 E26.05006
G1 F259.2 X66.851 Y103.752 E26.06254
G1 F285 X67.142 Y103.895 E26.07389
G1 F300 X67.636 Y104.282 E26.09476
G1 X68.018 Y104.769 E26.11535
G1 F289.2 X68.182 Y105.1 E26.12809
G1 F268.5 X68.346 Y105.431 E26.14182
G1 F256.4 X68.374 Y105.725 E26.15332
G1 F250 X68.402 Y106.019 E26.1651
G1 F241.9 X68.373 Y106.338 E26.17832
G1 F232.6 X68.343 Y106.658 E26.19211
G1 F236.2 X68.308 Y106.706 E26.19461
G1 F257.5 X68.162 Y106.993 E26.20709
G1 F284.4 X68.016 Y107.281 E26.21842
G1 F300 X67.648 Y107.761 E26.23854
G1 X67.129 Y108.166 E26.26043
G1 X66.529 Y108.411 E26.28199
G1 F2700 E21.28199
G0 F6000 X66.623 Y108.09
G0 X64.705 Y107.975
G0 X35.851 Y107.196
G0 X35.148 Y108.148
G1 F2700 E26.28199
G1 F300 X34.534 Y108.404 E26.30412
G1 X33.897 Y108.494 E26.32551
G1 X33.252 Y108.41 E26.34715
G1 X32.657 Y108.167 E26.36852
G1 X32.15 Y107.778 E26.38978
G1 X31.768 Y107.283 E26.41057
G1 F289.2 X31.603 Y106.954 E26.42327
G1 F268.5 X31.437 Y106.625 E26.43697
G1 F255.9 X31.41 Y106.342 E26.44806
G1 F249.5 X31.382 Y106.058 E26.45947
G1 F245.9 X31.382 Y105.994 E26.46207
G1 F249.5 X31.409 Y105.712 E26.4734
G1 F255.9 X31.437 Y105.43 E26.48445
G1 F268.5 X31.601 Y105.099 E26.49818
G1 F289.2 X31.766 Y104.767 E26.51097
G1 F300 X32.146 Y104.282 E26.53147
G1 X32.641 Y103.894 E26.55238
G1 F288.5 X32.963 Y103.732 E26.56485
G1 F267.9 X33.286 Y103.57 E26.57831
G1 F252.6 X33.589 Y103.541 E26.59034
G1 F241.4 X33.893 Y103.511 E26.60296
G1 F233.9 X34.199 Y103.541 E26.61608
G1 F229.9 X34.505 Y103.571 E26.62942
G1 F237.6 X34.56 Y103.609 E26.63223
G1 F259.2 X34.847 Y103.75 E26.64454
G1 F285 X35.135 Y103.892 E26.65578
G1 F300 X35.627 Y104.266 E26.67633
G1 X36.038 Y104.795 E26.69862
G1 X36.279 Y105.393 E26.72006
G1 X36.36 Y106.024 E26.74122
G1 X36.277 Y106.65 E26.76222
G1 X36.018 Y107.279 E26.78485
G1 X35.632 Y107.773 E26.8057
G1 X35.148 Y108.148 E26.82606
G1 F2700 E21.82606
G0 F6000 X35.093 Y107.863
G0 X34.378 Y108.249
G0 X35.113 Y136.101
G0 X35.646 Y139.764
G1 F2700 E26.82606
G1 F300 X35.15 Y140.149 E26.84695
G1 F289.2 X34.821 Y140.313 E26.85963
G1 F268.5 X34.491 Y140.478 E26.87334
G1 F253.2 X34.19 Y140.507 E26.88526
G1 F241.9 X33.889 Y140.536 E26.89773
G1 X33.592 Y140.507 E26.91004
G1 F253.2 X33.294 Y140.478 E26.92184
G1 F268.5 X32.96 Y140.311 E26.93572
G1 F289.2 X32.625 Y140.144 E26.94864
G1 F300 X32.124 Y139.748 E26.96988
G1 X31.768 Y139.283 E26.98936
G1 F289.2 X31.603 Y138.955 E27.00203
G1 F268.5 X31.437 Y138.627 E27.01569
G1 F255.9 X31.409 Y138.327 E27.02744
G1 F249.5 X31.381 Y138.026 E27.03953
G1 X31.409 Y137.728 E27.0515
G1 F255.9 X31.437 Y137.43 E27.06317
G1 F268.5 X31.6 Y137.102 E27.07679
G1 F289.2 X31.763 Y136.773 E27.08946
G1 F300 X32.138 Y136.283 E27.10998
G1 X32.666 Y135.876 E27.13215
G1 X33.263 Y135.636 E27.15355
G1 X33.9 Y135.554 E27.17492
G1 X34.497 Y135.639 E27.19497
G1 X35.108 Y135.874 E27.21675
G1 X35.652 Y136.294 E27.2396
G1 X36.028 Y136.789 E27.26028
G1 X36.274 Y137.381 E27.2816
G1 X36.36 Y138.02 E27.30305
G1 X36.278 Y138.663 E27.32461
G1 X36.034 Y139.256 E27.34593
G1 X35.646 Y139.764 E27.36719
G1 F2700 E22.36719
G0 F6000 X35.558 Y139.45
G0 X35.912 Y139.078
G0 X64.657 Y139.94
G0 X66.491 Y140.478
G1 F2700 E27.36719
G1 F253.2 X66.19 Y140.507 E27.37911
G1 F241.9 X65.889 Y140.536 E27.39158
G1 X65.592 Y140.507 E27.40389
G1 F253.2 X65.294 Y140.478 E27.41569
G1 F268.5 X64.964 Y140.314 E27.42939
G1 F289.2 X64.634 Y140.149 E27.44212
G1 F300 X64.152 Y139.779 E27.46233
G1 X63.75 Y139.261 E27.48414
G1 X63.503 Y138.658 E27.50581
G1 X63.425 Y138.042 E27.52646
G1 X63.426 Y137.988 E27.52826
G1 X63.514 Y137.382 E27.54863
G1 X63.738 Y136.815 E27.5689
G1 X64.145 Y136.28 E27.59126
G1 X64.647 Y135.894 E27.61232
G1 X65.247 Y135.647 E27.6339
G1 X65.89 Y135.554 E27.65551
G1 X66.527 Y135.639 E27.67689
G1 X67.116 Y135.877 E27.69802
G1 X67.629 Y136.269 E27.71949
G1 X68.019 Y136.772 E27.74066
G1 F289.2 X68.182 Y137.101 E27.75333
G1 F268.5 X68.346 Y137.431 E27.76703
G1 F256.4 X68.374 Y137.725 E27.77852
G1 F250 X68.402 Y138.019 E27.79031
G1 F241.9 X68.373 Y138.339 E27.80356
G1 F232.6 X68.343 Y138.659 E27.81735
G1 F236.2 X68.308 Y138.707 E27.81986
G1 F257.5 X68.159 Y138.998 E27.83252
G1 F284.4 X68.01 Y139.289 E27.844
G1 F300 X67.619 Y139.786 E27.86503
G1 X67.147 Y140.15 E27.88485
G1 F289.2 X66.819 Y140.314 E27.89751
G1 F268.5 X66.491 Y140.478 E27.91114
G1 F2700 E22.91114
G0 F6000 X66.384 Y140.165
G0 X67.124 Y139.941
G0 X67.179 Y141.224
G0 X68.931 Y141.064
G1 F2700 E27.91114
G1 F300 X68.931 Y139.42 E27.96582
G1 F284.4 X68.909 Y139.121 E27.97634
G1 F257.5 X68.887 Y138.822 E27.98796
G1 F236.2 X68.868 Y138.704 E27.993
G1 F232.6 X68.878 Y138.361 E28.00773
G1 F241.9 X68.888 Y138.018 E28.02188
G1 X68.878 Y137.697 E28.03512
G1 F232.6 X68.868 Y137.375 E28.04895
G1 F238.1 X68.89 Y137.238 E28.05476
G1 F260.3 X68.91 Y136.942 E28.06613
G1 F285.7 X68.931 Y136.646 E28.0765
G1 F300 X68.931 Y107.412 E29.04882
G1 F284.4 X68.909 Y107.116 E29.05924
G1 F257.5 X68.887 Y106.82 E29.07074
G1 F236.2 X68.868 Y106.703 E29.07575
G1 F232.6 X68.878 Y106.361 E29.09043
G1 F241.9 X68.888 Y106.019 E29.10454
G1 X68.878 Y105.697 E29.11782
G1 F232.6 X68.868 Y105.375 E29.13165
G1 F238.1 X68.89 Y105.239 E29.13742
G1 F260.3 X68.91 Y104.942 E29.14883
G1 F285.7 X68.931 Y104.645 E29.15923
G1 F300 X68.931 Y102.984 E29.21447
G1 X67.263 Y102.984 E29.26995
G1 F285 X66.968 Y103.004 E29.2803
G1 F259.2 X66.673 Y103.025 E29.29169
G1 F237.6 X66.539 Y103.047 E29.29739
G1 F232.1 X66.248 Y103.037 E29.30991
G1 F241 X65.957 Y103.027 E29.32196
G1 X65.598 Y103.036 E29.33683
G1 F232.1 X65.239 Y103.046 E29.35227
G1 F237.6 X65.105 Y103.025 E29.35797
G1 F259.7 X64.813 Y103.005 E29.36921
G1 F285.7 X64.52 Y102.984 E29.37947
G1 F300 X59.689 Y102.978 E29.54015
G1 X59.341 Y102.813 E29.55296
G1 X59.149 Y102.635 E29.56167
G1 X59.028 Y102.449 E29.56905
G1 X58.934 Y102.104 E29.58094
G1 X58.932 Y36.924 E31.74884
G1 X59.011 Y36.64 E31.75864
G1 X59.153 Y36.412 E31.76758
G1 X59.432 Y36.176 E31.77973
G1 X59.726 Y36.066 E31.79017
G1 X68.931 Y36.064 E32.09633
G1 X68.931 Y31.484 E32.24866
G1 X30.851 Y31.484 E33.51521
G1 X30.851 Y33.774 E33.59137
G1 X30.851 Y36.064 E33.66754
G1 X40.092 Y36.064 E33.9749
G1 X40.528 Y36.304 E33.99145
G1 X40.758 Y36.606 E34.00408
G1 X40.844 Y36.895 E34.0141
G1 X40.848 Y102.109 E36.18313
G1 X40.753 Y102.451 E36.19494
G1 X40.597 Y102.68 E36.20415
G1 X40.301 Y102.893 E36.21628
G1 X39.998 Y102.978 E36.22675
G1 X35.258 Y102.982 E36.3844
