;FLAVOR:Marlin
;TIME:9986
;Filament used: 6.34735m
;Layer height: 0.2
;MINX:24.569
;MINY:200.153
;MINZ:0.2
;MAXX:101.236
;MAXY:281.187
;MAXZ:6
;Generated with Cura_SteamEngine 4.12.1
M140 S65
M105
M190 S65
M104 S215
M105
M109 S215
M82 ;absolute extrusion mode
M201 X500.00 Y500.00 Z100.00 E5000.00 ;Setup machine max acceleration
M203 X500.00 Y500.00 Z10.00 E50.00 ;Setup machine max feedrate
M204 P500.00 R1000.00 T500.00 ;Setup Print/Retract/Travel acceleration
M205 X8.00 Y8.00 Z0.40 E5.00 ;Setup Jerk
M220 S100 ;Reset Feedrate
M221 S100 ;Reset Flowrate

G28 ;Home

G92 E0 ;Reset Extruder
G1 Z2.0 F3000 ;Move Z Axis up
G1 X10.1 Y20 Z0.28 F5000.0 ;Move to start position
G1 X10.1 Y200.0 Z0.28 F1500.0 E15 ;Draw the first line
G1 X10.4 Y200.0 Z0.28 F5000.0 ;Move to side a little
G1 X10.4 Y20 Z0.28 F1500.0 E30 ;Draw the second line
G92 E0 ;Reset Extruder
G1 Z2.0 F3000 ;Move Z Axis up

G92 E0
G92 E0
G1 F2700 E-5
;LAYER_COUNT:30
;LAYER:0
M107
;MESH:lid.v2.with_hole.stl
G0 F6000 X26.771 Y223.182 Z0.2
;TYPE:WALL-INNER
G1 F2700 E0
G1 F300 X26.493 Y222.645 E0.02011
G1 X26.106 Y221.776 E0.05175
G1 X25.789 Y220.934 E0.08168
G1 X25.517 Y220.049 E0.11247
G1 X25.3 Y219.157 E0.143
G1 X25.133 Y218.238 E0.17407
G1 X25.023 Y217.323 E0.20472
G1 X24.969 Y216.418 E0.23488
G1 X24.969 Y215.485 E0.26591
G1 X25.024 Y214.568 E0.29646
G1 X25.133 Y213.663 E0.32678
G1 X25.3 Y212.743 E0.35788
G1 X25.518 Y211.849 E0.38849
G1 X25.79 Y210.967 E0.41918
G1 X26.106 Y210.127 E0.44903
G1 X26.489 Y209.265 E0.48041
G1 X26.768 Y208.729 E0.5005
G1 X26.768 Y209.264 E0.50634
G1 X26.77 Y222.644 E0.95136
G1 X26.771 Y223.182 E0.9572
G0 F6000 X26.943 Y223.88
G0 X27.27 Y224.052
G1 F300 X33.962 Y224.052 E1.17978
G1 X33.962 Y207.852 E1.71859
G1 X27.27 Y207.852 E1.94117
G1 X27.381 Y207.666 E1.94837
G1 X27.909 Y206.89 E1.97959
G1 X28.464 Y206.174 E2.00972
G1 X29.069 Y205.482 E2.04029
G1 X29.718 Y204.823 E2.07106
G1 X30.4 Y204.208 E2.1016
G1 X31.129 Y203.626 E2.13263
G1 X31.884 Y203.094 E2.16334
G1 X32.651 Y202.621 E2.19332
G1 X33.479 Y202.175 E2.2246
G1 X34.309 Y201.79 E2.25503
G1 X35.154 Y201.458 E2.28522
G1 X36.044 Y201.17 E2.31634
G1 X36.948 Y200.935 E2.3474
G1 X37.837 Y200.76 E2.37754
G1 X38.748 Y200.636 E2.40812
G1 X39.666 Y200.568 E2.43873
G1 X40.583 Y200.553 E2.46924
G1 X41.517 Y200.596 E2.50034
G1 X42.43 Y200.691 E2.53087
G1 X43.339 Y200.842 E2.56151
G1 X44.234 Y201.046 E2.59205
G1 X45.123 Y201.307 E2.62286
G1 X45.987 Y201.617 E2.65339
G1 X46.837 Y201.98 E2.68413
G1 X47.671 Y202.397 E2.71515
G1 X48.449 Y202.846 E2.74502
G1 X49.224 Y203.358 E2.77592
G1 X49.968 Y203.915 E2.80683
G1 X50.661 Y204.502 E2.83704
G1 X51.326 Y205.138 E2.86764
G1 X51.953 Y205.812 E2.89826
G1 X52.538 Y206.523 E2.92888
G1 X53.088 Y207.281 E2.96003
G1 X53.585 Y208.058 E2.99071
G1 X54.039 Y208.873 E3.02174
G1 X54.423 Y209.672 E3.05122
G1 X54.786 Y210.558 E3.08307
G1 X55.072 Y211.394 E3.11246
G1 X55.323 Y212.306 E3.14392
G1 X55.512 Y213.197 E3.17421
G1 X55.653 Y214.131 E3.20563
G1 X55.733 Y215.013 E3.23508
G1 X55.762 Y215.946 E3.26613
G1 X55.733 Y216.886 E3.29741
G1 X55.653 Y217.772 E3.327
G1 X55.512 Y218.706 E3.35841
G1 X55.323 Y219.597 E3.38871
G1 X55.076 Y220.494 E3.41965
G1 X54.779 Y221.363 E3.4502
G1 X54.437 Y222.199 E3.48024
G1 X54.029 Y223.049 E3.5116
G1 X53.585 Y223.845 E3.54192
G1 X53.088 Y224.622 E3.57259
G1 X52.545 Y225.371 E3.60336
G1 X51.955 Y226.088 E3.63425
G1 X51.329 Y226.762 E3.66484
G1 X50.674 Y227.389 E3.695
G1 X49.96 Y227.994 E3.72613
G1 X49.224 Y228.545 E3.7567
G1 X48.451 Y229.055 E3.78751
G1 X47.671 Y229.506 E3.81747
G1 X46.837 Y229.923 E3.84849
G1 X45.99 Y230.285 E3.87912
G1 X45.123 Y230.596 E3.90976
G1 X44.234 Y230.857 E3.94057
G1 X43.339 Y231.061 E3.97111
G1 X42.43 Y231.212 E4.00175
G1 X41.517 Y231.307 E4.03228
G1 X40.583 Y231.35 E4.06338
G1 X39.666 Y231.335 E4.09389
G1 X38.748 Y231.267 E4.1245
G1 X37.837 Y231.143 E4.15508
G1 X36.944 Y230.967 E4.18535
G1 X36.032 Y230.731 E4.21669
G1 X35.169 Y230.451 E4.24686
G1 X34.309 Y230.113 E4.2776
G1 X33.479 Y229.728 E4.30803
G1 X32.651 Y229.282 E4.33931
G1 X31.884 Y228.809 E4.36928
G1 X31.129 Y228.277 E4.4
G1 X30.4 Y227.695 E4.43103
G1 X29.718 Y227.08 E4.46157
G1 X29.069 Y226.421 E4.49233
G1 X28.464 Y225.729 E4.5229
G1 X27.909 Y225.013 E4.55304
G1 X27.381 Y224.237 E4.58425
G1 X27.27 Y224.052 E4.59143
G1 F2700 E-0.40857
G0 F6000 X33.79 Y223.88
G1 F2700 E4.59143
G0 F6000 X33.562 Y223.652
;TYPE:WALL-OUTER
G1 F300 X33.562 Y208.252 E5.10363
G1 X27.258 Y208.252 E5.31331
G1 X27.168 Y208.402 E5.31912
G1 X27.171 Y223.652 E5.82634
G1 X33.562 Y223.652 E6.03891
G1 F2700 E1.03891
G0 F6000 X33.862 Y223.652
G0 X34.172 Y218.376
G0 X36.475 Y217.771
G0 X38.141 Y219.204
G0 X39.035 Y219.66
G0 X40.014 Y219.875
G0 X41.028 Y219.834
G0 X41.986 Y219.541
G0 X42.471 Y219.241
G0 X43.669 Y218.376
;TYPE:WALL-INNER
G1 F2700 E6.03891
G1 F300 X43.915 Y217.997 E6.05394
G1 X43.955 Y217.924 E6.0567
G1 X44.145 Y217.529 E6.07128
G1 X44.176 Y217.452 E6.07404
G1 X44.315 Y217.034 E6.08869
G1 X44.337 Y216.953 E6.09149
G1 X44.421 Y216.519 E6.10619
G1 X44.432 Y216.436 E6.10897
G1 X44.46 Y215.999 E6.12354
G1 X44.461 Y215.917 E6.12627
G1 X44.433 Y215.468 E6.14123
G1 X44.422 Y215.385 E6.14401
G1 X44.338 Y214.951 E6.15872
G1 X44.316 Y214.87 E6.16151
G1 X44.177 Y214.452 E6.17616
G1 X44.146 Y214.375 E6.17892
G1 X43.956 Y213.98 E6.1935
G1 X43.916 Y213.907 E6.19627
G1 X43.67 Y213.528 E6.2113
G1 X43.618 Y213.462 E6.21409
G1 X43.333 Y213.127 E6.22872
G1 X43.274 Y213.068 E6.23149
G1 X42.949 Y212.771 E6.24614
G1 X42.883 Y212.719 E6.24893
G1 X42.526 Y212.471 E6.26339
G1 X42.454 Y212.426 E6.26621
G1 X42.056 Y212.218 E6.28115
G1 X41.979 Y212.185 E6.28394
G1 X41.567 Y212.034 E6.29853
G1 X41.487 Y212.011 E6.3013
G1 X41.062 Y211.913 E6.31581
G1 X40.978 Y211.898 E6.31864
G1 X40.537 Y211.856 E6.33338
G1 X40.454 Y211.853 E6.33614
G1 X40.005 Y211.867 E6.35108
G1 X39.922 Y211.877 E6.35386
G1 X39.493 Y211.944 E6.3683
G1 X39.409 Y211.963 E6.37117
G1 X38.983 Y212.09 E6.38595
G1 X38.905 Y212.12 E6.38873
G1 X38.502 Y212.298 E6.40339
G1 X38.429 Y212.337 E6.40614
G1 X38.056 Y212.563 E6.42064
G1 X37.985 Y212.611 E6.42349
G1 X37.64 Y212.887 E6.43819
G1 X37.578 Y212.942 E6.44095
G1 X37.271 Y213.26 E6.45565
G1 X37.216 Y213.323 E6.45843
G1 X36.95 Y213.679 E6.47321
G1 X36.904 Y213.749 E6.476
G1 X36.688 Y214.133 E6.49065
G1 X36.65 Y214.209 E6.49348
G1 X36.484 Y214.622 E6.50828
G1 X36.458 Y214.701 E6.51105
G1 X36.347 Y215.123 E6.52556
G1 X36.33 Y215.206 E6.52838
G1 X36.275 Y215.646 E6.54313
G1 X36.269 Y215.728 E6.54586
G1 X36.268 Y216.172 E6.56063
G1 X36.274 Y216.256 E6.56343
G1 X36.329 Y216.696 E6.57818
G1 X36.346 Y216.779 E6.58099
G1 X36.457 Y217.201 E6.59551
G1 X36.483 Y217.28 E6.59827
G1 X36.649 Y217.693 E6.61308
G1 X36.687 Y217.769 E6.6159
G1 X36.903 Y218.153 E6.63056
G1 X36.949 Y218.223 E6.63334
G1 X37.215 Y218.579 E6.64813
G1 X37.27 Y218.642 E6.65091
G1 X37.577 Y218.96 E6.66561
G1 X37.639 Y219.015 E6.66836
G1 X37.984 Y219.291 E6.68306
G1 X38.055 Y219.339 E6.68591
G1 X38.428 Y219.565 E6.70042
G1 X38.501 Y219.604 E6.70317
G1 X38.904 Y219.782 E6.71782
G1 X38.982 Y219.812 E6.7206
G1 X39.408 Y219.939 E6.73539
G1 X39.492 Y219.958 E6.73825
G1 X39.921 Y220.025 E6.75269
G1 X40.002 Y220.035 E6.75541
G1 X40.447 Y220.05 E6.77022
G1 X40.531 Y220.049 E6.77301
G1 X40.977 Y220.006 E6.78791
G1 X41.061 Y219.991 E6.79075
G1 X41.486 Y219.893 E6.80526
G1 X41.566 Y219.87 E6.80803
G1 X41.978 Y219.719 E6.82262
G1 X42.055 Y219.686 E6.82541
G1 X42.453 Y219.479 E6.84033
G1 X42.525 Y219.434 E6.84315
G1 X42.882 Y219.185 E6.85763
G1 X42.948 Y219.133 E6.86042
G1 X43.273 Y218.836 E6.87507
G1 X43.332 Y218.777 E6.87784
G1 X43.617 Y218.442 E6.89247
G1 X43.669 Y218.376 E6.89527
G0 F6000 X43.343 Y218.143
;TYPE:WALL-OUTER
G1 F300 X43.571 Y217.792 E6.90919
G1 X43.599 Y217.741 E6.91112
G1 X43.779 Y217.367 E6.92493
G1 X43.801 Y217.313 E6.92687
G1 X43.932 Y216.919 E6.94068
G1 X43.947 Y216.863 E6.9426
G1 X44.026 Y216.454 E6.95646
G1 X44.034 Y216.396 E6.95841
G1 X44.06 Y215.983 E6.97217
G1 X44.061 Y215.926 E6.97407
G1 X44.035 Y215.508 E6.988
G1 X44.027 Y215.45 E6.98994
G1 X43.948 Y215.041 E7.0038
G1 X43.933 Y214.985 E7.00573
G1 X43.802 Y214.591 E7.01954
G1 X43.78 Y214.537 E7.02147
G1 X43.6 Y214.163 E7.03528
G1 X43.572 Y214.112 E7.03721
G1 X43.344 Y213.761 E7.05114
G1 X43.308 Y213.715 E7.05308
G1 X43.039 Y213.398 E7.06691
G1 X42.998 Y213.357 E7.06884
G1 X42.691 Y213.077 E7.08266
G1 X42.645 Y213.041 E7.0846
G1 X42.306 Y212.805 E7.09834
G1 X42.256 Y212.774 E7.10029
G1 X41.885 Y212.58 E7.11422
G1 X41.831 Y212.557 E7.11617
G1 X41.443 Y212.414 E7.12992
G1 X41.387 Y212.398 E7.13186
G1 X40.983 Y212.305 E7.14565
G1 X40.925 Y212.295 E7.14761
G1 X40.511 Y212.255 E7.16144
G1 X40.453 Y212.253 E7.16337
G1 X40.035 Y212.266 E7.17728
G1 X39.977 Y212.273 E7.17922
G1 X39.568 Y212.337 E7.19299
G1 X39.511 Y212.35 E7.19494
G1 X39.112 Y212.469 E7.20879
G1 X39.057 Y212.49 E7.21074
G1 X38.677 Y212.658 E7.22456
G1 X38.626 Y212.685 E7.22648
G1 X38.271 Y212.9 E7.24029
G1 X38.222 Y212.933 E7.24225
G1 X37.898 Y213.193 E7.25607
G1 X37.855 Y213.231 E7.25798
G1 X37.566 Y213.53 E7.27181
G1 X37.528 Y213.574 E7.27374
G1 X37.278 Y213.908 E7.28762
G1 X37.246 Y213.957 E7.28956
G1 X37.042 Y214.319 E7.30338
G1 X37.016 Y214.372 E7.30535
G1 X36.86 Y214.759 E7.31923
G1 X36.842 Y214.814 E7.32115
G1 X36.737 Y215.214 E7.3349
G1 X36.725 Y215.272 E7.33687
G1 X36.673 Y215.685 E7.35072
G1 X36.669 Y215.742 E7.35262
G1 X36.668 Y216.159 E7.36649
G1 X36.672 Y216.217 E7.36842
G1 X36.724 Y216.63 E7.38227
G1 X36.736 Y216.688 E7.38424
G1 X36.841 Y217.088 E7.39799
G1 X36.859 Y217.143 E7.39992
G1 X37.015 Y217.53 E7.4138
G1 X37.041 Y217.583 E7.41576
G1 X37.245 Y217.945 E7.42958
G1 X37.277 Y217.994 E7.43153
G1 X37.527 Y218.328 E7.4454
G1 X37.565 Y218.372 E7.44734
G1 X37.854 Y218.671 E7.46117
G1 X37.897 Y218.709 E7.46308
G1 X38.221 Y218.969 E7.47689
G1 X38.27 Y219.002 E7.47886
G1 X38.625 Y219.217 E7.49266
G1 X38.676 Y219.244 E7.49458
G1 X39.056 Y219.412 E7.5084
G1 X39.111 Y219.433 E7.51036
G1 X39.51 Y219.552 E7.52421
G1 X39.567 Y219.565 E7.52615
G1 X39.976 Y219.629 E7.53992
G1 X40.033 Y219.636 E7.54183
G1 X40.45 Y219.65 E7.55571
G1 X40.508 Y219.649 E7.55764
G1 X40.924 Y219.609 E7.57154
G1 X40.982 Y219.599 E7.57349
G1 X41.386 Y219.506 E7.58728
G1 X41.442 Y219.49 E7.58922
G1 X41.83 Y219.347 E7.60297
G1 X41.884 Y219.324 E7.60493
G1 X42.255 Y219.131 E7.61883
G1 X42.305 Y219.1 E7.62079
G1 X42.644 Y218.863 E7.63455
G1 X42.69 Y218.827 E7.63649
G1 X42.997 Y218.547 E7.65031
G1 X43.038 Y218.506 E7.65224
G1 X43.307 Y218.189 E7.66607
G1 X43.343 Y218.143 E7.66801
G0 F6000 X43.701 Y218.398
G1 F2700 E2.66801
G0 F6000 X42.635 Y217.646
G0 X53.781 Y225.821
G0 X52.588 Y224.955
G0 X52.63 Y225.424
G1 F2700 E7.66801
G0 F6000 X52.864 Y225.612
G1 F300 X52.259 Y226.349 E7.69972
G1 X51.616 Y227.041 E7.73114
G1 X50.933 Y227.694 E7.76257
G1 X50.211 Y228.306 E7.79405
G1 X49.455 Y228.872 E7.82546
G1 X48.666 Y229.393 E7.85691
G1 X47.85 Y229.864 E7.88825
G1 X47.008 Y230.285 E7.91956
G1 X46.128 Y230.661 E7.95139
G1 X45.25 Y230.976 E7.98241
G1 X44.339 Y231.243 E8.01399
G1 X43.409 Y231.455 E8.04571
G1 X42.488 Y231.608 E8.07676
G1 X41.544 Y231.707 E8.10833
G1 X40.595 Y231.75 E8.13993
G1 X39.647 Y231.735 E8.17146
G1 X38.714 Y231.666 E8.20258
G1 X37.774 Y231.538 E8.23413
G1 X36.851 Y231.356 E8.26542
G1 X35.925 Y231.116 E8.29724
G1 X35.031 Y230.826 E8.3285
G1 X34.146 Y230.478 E8.36013
G1 X33.3 Y230.086 E8.39114
G1 X32.457 Y229.632 E8.42299
G1 X31.662 Y229.141 E8.45407
G1 X30.879 Y228.59 E8.48591
G1 X30.15 Y228.008 E8.51694
G1 X29.439 Y227.367 E8.54878
G1 X28.784 Y226.702 E8.57982
G1 X28.154 Y225.981 E8.61167
G1 X27.582 Y225.243 E8.64272
G1 X27.05 Y224.462 E8.67415
G1 X26.558 Y223.64 E8.70601
G1 X26.129 Y222.813 E8.737
G1 X25.74 Y221.938 E8.76885
G1 X25.41 Y221.062 E8.79999
G1 X25.129 Y220.149 E8.83176
G1 X24.908 Y219.242 E8.86281
G1 X24.739 Y218.309 E8.89434
G1 X24.625 Y217.362 E8.92607
G1 X24.569 Y216.418 E8.95752
G1 X24.569 Y215.485 E8.98855
G1 X24.626 Y214.529 E9.02041
G1 X24.739 Y213.591 E9.05183
G1 X24.908 Y212.661 E9.08327
G1 X25.129 Y211.754 E9.11432
G1 X25.411 Y210.839 E9.14616
G1 X25.74 Y209.965 E9.17722
G1 X26.129 Y209.09 E9.20907
G1 X26.559 Y208.263 E9.24007
G1 X27.05 Y207.441 E9.27192
G1 X27.582 Y206.66 E9.30335
G1 X28.154 Y205.922 E9.33441
G1 X28.784 Y205.201 E9.36625
G1 X29.439 Y204.536 E9.3973
G1 X30.15 Y203.895 E9.42914
G1 X30.879 Y203.313 E9.46016
G1 X31.662 Y202.762 E9.49201
G1 X32.457 Y202.271 E9.52309
G1 X33.3 Y201.817 E9.55493
G1 X34.146 Y201.425 E9.58594
G1 X35.031 Y201.077 E9.61757
G1 X35.925 Y200.788 E9.64882
G1 X36.851 Y200.547 E9.68065
G1 X37.774 Y200.365 E9.71194
G1 X38.714 Y200.237 E9.74349
G1 X39.647 Y200.168 E9.77461
G1 X40.595 Y200.153 E9.80614
G1 X41.544 Y200.196 E9.83774
G1 X42.488 Y200.295 E9.86931
G1 X43.409 Y200.448 E9.90036
G1 X44.339 Y200.66 E9.93209
G1 X45.25 Y200.927 E9.96366
G1 X46.128 Y201.242 E9.99468
G1 X47.008 Y201.618 E10.02651
G1 X47.85 Y202.039 E10.05782
G1 X48.663 Y202.508 E10.08904
G1 X49.455 Y203.031 E10.12061
G1 X50.208 Y203.595 E10.1519
G1 X50.93 Y204.206 E10.18336
G1 X51.613 Y204.859 E10.21479
G1 X52.256 Y205.551 E10.2462
G1 X52.857 Y206.282 E10.27768
G1 X53.419 Y207.056 E10.30949
G1 X53.922 Y207.842 E10.34053
G1 X54.388 Y208.678 E10.37236
G1 X54.793 Y209.52 E10.40344
G1 X55.156 Y210.406 E10.43529
G1 X55.458 Y211.288 E10.46629
G1 X55.709 Y212.2 E10.49776
G1 X55.908 Y213.137 E10.52962
G1 X56.049 Y214.071 E10.56103
G1 X56.133 Y215.001 E10.59209
G1 X56.162 Y215.946 E10.62354
G1 X56.133 Y216.901 E10.65531
G1 X56.049 Y217.832 E10.6864
G1 X55.908 Y218.766 E10.71782
G1 X55.709 Y219.703 E10.74968
G1 X55.458 Y220.613 E10.78108
G1 X55.156 Y221.498 E10.81218
G1 X54.798 Y222.372 E10.84359
G1 X54.388 Y223.225 E10.87507
G1 X53.922 Y224.061 E10.90691
G1 X53.419 Y224.847 E10.93794
G1 X52.864 Y225.612 E10.96938
G0 F6000 X52.516 Y225.344
G0 X52.238 Y225.131
;TYPE:SKIN
G1 F300 X51.661 Y225.831 E10.99955
G1 X51.046 Y226.494 E11.02963
G1 X50.422 Y227.091 E11.05835
G1 X49.714 Y227.692 E11.08924
G1 X49.004 Y228.223 E11.11873
G1 X48.242 Y228.725 E11.14908
G1 X47.482 Y229.164 E11.17827
G1 X46.683 Y229.564 E11.20799
G1 X45.838 Y229.926 E11.23856
G1 X44.999 Y230.226 E11.2682
G1 X44.132 Y230.481 E11.29826
G1 X43.259 Y230.679 E11.32803
G1 X42.389 Y230.824 E11.35737
G1 X41.493 Y230.917 E11.38733
G1 X40.571 Y230.96 E11.41803
G1 X39.672 Y230.945 E11.44793
G1 X38.797 Y230.881 E11.47711
G1 X37.899 Y230.758 E11.50726
G1 X37.042 Y230.589 E11.53631
G1 X36.139 Y230.355 E11.56734
G1 X35.3 Y230.084 E11.59666
G1 X34.452 Y229.75 E11.62697
G1 X33.659 Y229.382 E11.65605
G1 X32.846 Y228.944 E11.68677
G1 X32.089 Y228.477 E11.71635
G1 X31.374 Y227.973 E11.74545
G1 X30.653 Y227.398 E11.77612
G1 X29.987 Y226.797 E11.80596
G1 X29.37 Y226.173 E11.83514
G1 X28.758 Y225.472 E11.86609
G1 X28.224 Y224.783 E11.89509
G1 X27.992 Y224.442 E11.9088
G1 X34.352 Y224.442 E12.12034
G1 X34.352 Y207.462 E12.6851
G1 X27.991 Y207.462 E12.89666
G1 X28.224 Y207.12 E12.91043
G1 X28.758 Y206.431 E12.93942
G1 X29.37 Y205.73 E12.97037
G1 X29.987 Y205.106 E12.99956
G1 X30.653 Y204.505 E13.02939
G1 X31.373 Y203.93 E13.06004
G1 X32.089 Y203.426 E13.08916
G1 X32.846 Y202.959 E13.11875
G1 X33.659 Y202.521 E13.14946
G1 X34.452 Y202.153 E13.17854
G1 X35.291 Y201.823 E13.20853
G1 X36.146 Y201.547 E13.23841
G1 X37.046 Y201.313 E13.26934
G1 X37.899 Y201.145 E13.29825
G1 X38.797 Y201.022 E13.3284
G1 X39.672 Y200.958 E13.35758
G1 X40.571 Y200.943 E13.38749
G1 X41.493 Y200.986 E13.41818
G1 X42.389 Y201.079 E13.44815
G1 X43.259 Y201.224 E13.47748
G1 X44.132 Y201.422 E13.50725
G1 X44.998 Y201.677 E13.53728
G1 X45.833 Y201.976 E13.56678
G1 X46.683 Y202.339 E13.59752
G1 X47.482 Y202.739 E13.62724
G1 X48.234 Y203.172 E13.6561
G1 X49.003 Y203.68 E13.68676
G1 X49.716 Y204.213 E13.71636
G1 X50.4 Y204.792 E13.74617
G1 X51.049 Y205.412 E13.77602
G1 X51.652 Y206.06 E13.80546
G1 X52.222 Y206.752 E13.83528
G1 X52.772 Y207.51 E13.86643
G1 X53.244 Y208.247 E13.89554
G1 X53.698 Y209.062 E13.92657
G1 X54.062 Y209.82 E13.95454
G1 X54.425 Y210.706 E13.98638
G1 X54.699 Y211.508 E14.01457
G1 X54.941 Y212.387 E14.04489
G1 X55.128 Y213.267 E14.07482
G1 X55.267 Y214.189 E14.10583
