;FLAVOR:Marlin
;TIME:5574
;Filament used: 3.27517m
;Layer height: 0.2
;MINX:19.369
;MINY:194.954
;MINZ:0.2
;MAXX:64.925
;MAXY:286.386
;MAXZ:6
;Generated with Cura_SteamEngine 4.12.1
M140 S65
M105
M190 S65
M104 S215
M105
M109 S215
M82 ;absolute extrusion mode
M201 X500.00 Y500.00 Z100.00 E5000.00 ;Setup machine max acceleration
M203 X500.00 Y500.00 Z10.00 E50.00 ;Setup machine max feedrate
M204 P500.00 R1000.00 T500.00 ;Setup Print/Retract/Travel acceleration
M205 X8.00 Y8.00 Z0.40 E5.00 ;Setup Jerk
M220 S100 ;Reset Feedrate
M221 S100 ;Reset Flowrate

G28 ;Home

G92 E0 ;Reset Extruder
G1 Z2.0 F3000 ;Move Z Axis up
G1 X10.1 Y20 Z0.28 F5000.0 ;Move to start position
G1 X10.1 Y200.0 Z0.28 F1500.0 E15 ;Draw the first line
G1 X10.4 Y200.0 Z0.28 F5000.0 ;Move to side a little
G1 X10.4 Y20 Z0.28 F1500.0 E30 ;Draw the second line
G92 E0 ;Reset Extruder
G1 Z2.0 F3000 ;Move Z Axis up

G92 E0
G92 E0
G1 F2700 E-5
;LAYER_COUNT:30
;LAYER:0
M107
G0 F6000 X36.777 Y195.262 Z0.2
;TYPE:SKIRT
G1 F2700 E0
G1 F300 X37.068 Y195.214 E0.00981
G1 X38.016 Y195.085 E0.04163
G1 X38.319 Y195.053 E0.05176
G1 X39.273 Y194.982 E0.08358
G1 X39.566 Y194.969 E0.09334
G1 X40.522 Y194.954 E0.12514
G1 X40.825 Y194.958 E0.13522
G1 X41.781 Y195.001 E0.16705
G1 X42.078 Y195.023 E0.17695
G1 X43.031 Y195.123 E0.20882
G1 X43.323 Y195.163 E0.21862
G1 X44.269 Y195.319 E0.25051
G1 X44.575 Y195.379 E0.26088
G1 X45.506 Y195.593 E0.29266
G1 X45.791 Y195.667 E0.30245
G1 X46.71 Y195.936 E0.3343
G1 X46.991 Y196.028 E0.34413
G1 X47.893 Y196.351 E0.376
G1 X48.173 Y196.461 E0.38601
G1 X49.052 Y196.837 E0.4178
G1 X49.318 Y196.96 E0.42755
G1 X50.176 Y197.388 E0.45944
G1 X50.445 Y197.533 E0.46961
G1 X51.274 Y198.012 E0.50145
G1 X51.53 Y198.17 E0.51146
G1 X52.329 Y198.698 E0.54331
G1 X52.569 Y198.866 E0.55305
G1 X53.333 Y199.438 E0.5848
G1 X53.567 Y199.625 E0.59476
G1 X54.298 Y200.244 E0.62662
G1 X54.526 Y200.45 E0.63684
G1 X55.218 Y201.113 E0.66871
G1 X55.423 Y201.32 E0.6784
G1 X56.075 Y202.022 E0.71027
G1 X56.272 Y202.248 E0.72024
G1 X56.88 Y202.987 E0.75207
G1 X57.065 Y203.226 E0.76212
G1 X57.627 Y204 E0.79394
G1 X57.795 Y204.247 E0.80387
G1 X58.311 Y205.055 E0.83576
G1 X58.463 Y205.309 E0.8456
G1 X58.929 Y206.144 E0.87741
G1 X59.071 Y206.418 E0.88767
G1 X59.485 Y207.281 E0.91951
G1 X59.601 Y207.541 E0.92898
G1 X59.966 Y208.428 E0.96088
G1 X60.073 Y208.712 E0.97097
G1 X60.382 Y209.615 E1.00272
G1 X60.473 Y209.912 E1.01305
G1 X60.726 Y210.835 E1.04488
G1 X60.794 Y211.113 E1.0544
G1 X60.994 Y212.05 E1.08626
G1 X61.048 Y212.347 E1.0963
G1 X61.191 Y213.294 E1.12816
G1 X61.227 Y213.592 E1.13814
G1 X61.313 Y214.546 E1.17
G1 X61.331 Y214.843 E1.1799
G1 X61.36 Y215.799 E1.21171
G1 X61.36 Y216.103 E1.22182
G1 X61.331 Y217.059 E1.25363
G1 X61.313 Y217.356 E1.26353
G1 X61.227 Y218.31 E1.29539
G1 X61.191 Y218.608 E1.30537
G1 X61.048 Y219.555 E1.33722
G1 X60.995 Y219.846 E1.34706
G1 X60.796 Y220.784 E1.37896
G1 X60.725 Y221.074 E1.38889
G1 X60.471 Y221.996 E1.42069
G1 X60.383 Y222.284 E1.43071
G1 X60.074 Y223.189 E1.46252
G1 X59.966 Y223.475 E1.47268
G1 X59.602 Y224.36 E1.50451
G1 X59.485 Y224.623 E1.51409
G1 X59.07 Y225.487 E1.54597
G1 X58.929 Y225.759 E1.55616
G1 X58.463 Y226.594 E1.58796
G1 X58.312 Y226.847 E1.59776
G1 X57.797 Y227.654 E1.6296
G1 X57.628 Y227.902 E1.63958
G1 X57.066 Y228.676 E1.6714
G1 X56.881 Y228.915 E1.68145
G1 X56.272 Y229.655 E1.71332
G1 X56.077 Y229.878 E1.72318
G1 X55.426 Y230.58 E1.75502
G1 X55.216 Y230.793 E1.76497
G1 X54.524 Y231.455 E1.79682
G1 X54.299 Y231.658 E1.8069
G1 X53.568 Y232.277 E1.83876
G1 X53.334 Y232.463 E1.8487
G1 X52.569 Y233.036 E1.88049
G1 X52.329 Y233.205 E1.89025
G1 X51.53 Y233.733 E1.92211
G1 X51.274 Y233.891 E1.93211
G1 X50.445 Y234.37 E1.96396
G1 X50.176 Y234.515 E1.97412
G1 X49.318 Y234.943 E2.00601
G1 X49.052 Y235.066 E2.01576
G1 X48.173 Y235.442 E2.04756
G1 X47.893 Y235.552 E2.05756
G1 X46.991 Y235.875 E2.08943
G1 X46.71 Y235.967 E2.09926
G1 X45.791 Y236.236 E2.13111
G1 X45.501 Y236.311 E2.14107
G1 X44.57 Y236.524 E2.17284
G1 X44.274 Y236.583 E2.18288
G1 X43.328 Y236.74 E2.21477
G1 X43.031 Y236.78 E2.22474
G1 X42.078 Y236.88 E2.25661
G1 X41.781 Y236.902 E2.26652
G1 X40.825 Y236.945 E2.29835
G1 X40.522 Y236.949 E2.30842
G1 X39.566 Y236.934 E2.34022
G1 X39.273 Y236.921 E2.34998
G1 X38.319 Y236.85 E2.3818
G1 X38.016 Y236.818 E2.39193
G1 X37.068 Y236.689 E2.42375
G1 X36.782 Y236.642 E2.43339
G1 X35.841 Y236.458 E2.46528
G1 X35.542 Y236.39 E2.47548
G1 X34.616 Y236.149 E2.50731
G1 X34.33 Y236.065 E2.51722
G1 X33.419 Y235.769 E2.54908
G1 X33.133 Y235.667 E2.55918
G1 X32.241 Y235.316 E2.59106
G1 X31.973 Y235.201 E2.60076
G1 X31.106 Y234.8 E2.63253
G1 X30.832 Y234.663 E2.64272
G1 X29.988 Y234.208 E2.67461
G1 X29.738 Y234.064 E2.68421
G1 X28.925 Y233.563 E2.71597
G1 X28.669 Y233.394 E2.72617
G1 X27.885 Y232.842 E2.75806
G1 X27.644 Y232.661 E2.76809
G1 X26.895 Y232.063 E2.79997
G1 X26.667 Y231.87 E2.8099
G1 X25.956 Y231.229 E2.84174
G1 X25.745 Y231.027 E2.85146
G1 X25.073 Y230.346 E2.88328
G1 X24.864 Y230.121 E2.89349
G1 X24.235 Y229.4 E2.92532
G1 X24.049 Y229.174 E2.93505
G1 X23.463 Y228.417 E2.96689
G1 X23.285 Y228.172 E2.97696
G1 X22.746 Y227.381 E3.0088
G1 X22.585 Y227.129 E3.01875
G1 X22.094 Y226.307 E3.05059
G1 X21.95 Y226.048 E3.06045
G1 X21.509 Y225.199 E3.09227
G1 X21.378 Y224.927 E3.10231
G1 X20.989 Y224.053 E3.13413
G1 X20.876 Y223.777 E3.14405
G1 X20.539 Y222.879 E3.17595
G1 X20.442 Y222.595 E3.18593
G1 X20.16 Y221.68 E3.21778
G1 X20.081 Y221.394 E3.22764
G1 X19.854 Y220.465 E3.25945
G1 X19.791 Y220.17 E3.26949
G1 X19.62 Y219.227 E3.30136
G1 X19.576 Y218.931 E3.31131
G1 X19.462 Y217.982 E3.34311
G1 X19.435 Y217.684 E3.35306
G1 X19.378 Y216.729 E3.38488
G1 X19.369 Y216.431 E3.39479
G1 X19.369 Y215.473 E3.42666
G1 X19.378 Y215.175 E3.43657
G1 X19.435 Y214.219 E3.46843
G1 X19.462 Y213.921 E3.47838
G1 X19.576 Y212.972 E3.51017
G1 X19.619 Y212.681 E3.51995
G1 X19.789 Y211.738 E3.55182
G1 X19.854 Y211.433 E3.56219
G1 X20.082 Y210.504 E3.59401
G1 X20.16 Y210.223 E3.60371
G1 X20.442 Y209.308 E3.63556
G1 X20.539 Y209.024 E3.64554
G1 X20.876 Y208.126 E3.67744
G1 X20.989 Y207.85 E3.68736
G1 X21.378 Y206.976 E3.71918
G1 X21.509 Y206.704 E3.72922
G1 X21.95 Y205.855 E3.76104
G1 X22.094 Y205.596 E3.77089
G1 X22.585 Y204.774 E3.80274
G1 X22.746 Y204.522 E3.81269
G1 X23.285 Y203.731 E3.84452
G1 X23.463 Y203.486 E3.85459
G1 X24.049 Y202.729 E3.88643
G1 X24.235 Y202.503 E3.89617
G1 X24.864 Y201.782 E3.92799
G1 X25.073 Y201.557 E3.93821
G1 X25.745 Y200.876 E3.97003
G1 X25.956 Y200.674 E3.97974
G1 X26.667 Y200.033 E4.01158
G1 X26.895 Y199.84 E4.02152
G1 X27.644 Y199.242 E4.0534
G1 X27.885 Y199.061 E4.06342
G1 X28.669 Y198.509 E4.09531
G1 X28.925 Y198.34 E4.10552
G1 X29.738 Y197.839 E4.13728
G1 X29.988 Y197.695 E4.14687
G1 X30.832 Y197.24 E4.17876
G1 X31.106 Y197.103 E4.18895
G1 X31.973 Y196.702 E4.22072
G1 X32.241 Y196.587 E4.23042
G1 X33.133 Y196.236 E4.26231
G1 X33.424 Y196.132 E4.27259
G1 X34.335 Y195.837 E4.30443
G1 X34.616 Y195.755 E4.31417
G1 X35.542 Y195.514 E4.34599
G1 X35.836 Y195.447 E4.35602
G1 X36.777 Y195.262 E4.38792
G0 F6000 X36.855 Y195.654
G1 F300 X37.122 Y195.61 E4.39692
G1 X38.07 Y195.481 E4.42874
G1 X38.349 Y195.452 E4.43807
G1 X39.303 Y195.381 E4.46989
G1 X39.572 Y195.369 E4.47885
G1 X40.528 Y195.354 E4.51065
G1 X40.807 Y195.358 E4.51993
G1 X41.763 Y195.401 E4.55176
G1 X42.036 Y195.421 E4.56086
G1 X42.989 Y195.521 E4.59273
G1 X43.257 Y195.557 E4.60172
G1 X44.203 Y195.713 E4.63361
G1 X44.485 Y195.769 E4.64318
G1 X45.416 Y195.983 E4.67495
G1 X45.678 Y196.051 E4.68395
G1 X46.597 Y196.32 E4.7158
G1 X46.856 Y196.404 E4.72486
G1 X47.758 Y196.727 E4.75672
G1 X48.016 Y196.829 E4.76595
G1 X48.895 Y197.205 E4.79775
G1 X49.139 Y197.318 E4.80669
G1 X49.997 Y197.746 E4.83858
G1 X50.245 Y197.879 E4.84794
G1 X51.074 Y198.358 E4.87979
G1 X51.309 Y198.503 E4.88897
G1 X52.108 Y199.031 E4.92082
G1 X52.329 Y199.187 E4.92982
G1 X53.093 Y199.759 E4.96156
G1 X53.309 Y199.931 E4.97075
G1 X54.04 Y200.55 E5.00261
G1 X54.249 Y200.738 E5.01196
G1 X54.941 Y201.401 E5.04383
G1 X55.13 Y201.593 E5.05279
G1 X55.782 Y202.295 E5.08466
G1 X55.963 Y202.502 E5.0938
G1 X56.571 Y203.241 E5.12563
G1 X56.741 Y203.461 E5.13488
G1 X57.303 Y204.235 E5.16669
G1 X57.458 Y204.462 E5.17584
G1 X57.974 Y205.27 E5.20772
G1 X58.114 Y205.504 E5.21679
G1 X58.58 Y206.339 E5.2486
G1 X58.71 Y206.591 E5.25803
G1 X59.124 Y207.454 E5.28986
G1 X59.231 Y207.694 E5.2986
G1 X59.596 Y208.581 E5.33051
G1 X59.694 Y208.842 E5.33978
G1 X60.003 Y209.745 E5.37152
G1 X60.087 Y210.018 E5.38102
G1 X60.34 Y210.941 E5.41285
G1 X60.403 Y211.197 E5.42162
G1 X60.603 Y212.134 E5.45349
G1 X60.652 Y212.407 E5.46271
G1 X60.795 Y213.354 E5.49457
G1 X60.828 Y213.628 E5.50375
G1 X60.914 Y214.582 E5.53561
G1 X60.931 Y214.856 E5.54474
G1 X60.96 Y215.812 E5.57655
G1 X60.96 Y216.09 E5.58579
G1 X60.931 Y217.046 E5.61761
G1 X60.914 Y217.32 E5.62674
G1 X60.828 Y218.274 E5.6586
G1 X60.795 Y218.548 E5.66777
G1 X60.652 Y219.495 E5.69963
G1 X60.604 Y219.763 E5.70868
G1 X60.405 Y220.701 E5.74058
G1 X60.34 Y220.968 E5.74972
G1 X60.086 Y221.89 E5.78153
G1 X60.004 Y222.154 E5.79072
G1 X59.695 Y223.059 E5.82253
G1 X59.596 Y223.323 E5.8319
G1 X59.232 Y224.208 E5.86373
G1 X59.124 Y224.45 E5.87255
G1 X58.709 Y225.314 E5.90443
G1 X58.58 Y225.564 E5.91378
G1 X58.114 Y226.399 E5.94559
G1 X57.975 Y226.632 E5.95461
G1 X57.46 Y227.439 E5.98645
G1 X57.304 Y227.667 E5.99564
G1 X56.742 Y228.441 E6.02745
G1 X56.572 Y228.661 E6.0367
G1 X55.963 Y229.401 E6.06858
G1 X55.784 Y229.606 E6.07763
G1 X55.133 Y230.308 E6.10947
G1 X54.94 Y230.504 E6.11862
G1 X54.248 Y231.166 E6.15047
G1 X54.041 Y231.352 E6.15973
G1 X53.31 Y231.971 E6.19159
G1 X53.095 Y232.143 E6.20075
G1 X52.33 Y232.716 E6.23254
G1 X52.108 Y232.872 E6.24156
G1 X51.309 Y233.4 E6.27341
G1 X51.074 Y233.545 E6.2826
G1 X50.245 Y234.024 E6.31444
G1 X49.997 Y234.157 E6.3238
G1 X49.139 Y234.585 E6.35569
G1 X48.895 Y234.698 E6.36464
G1 X48.016 Y235.074 E6.39643
G1 X47.758 Y235.176 E6.40566
G1 X46.856 Y235.499 E6.43753
G1 X46.597 Y235.583 E6.44658
G1 X45.678 Y235.852 E6.47843
G1 X45.412 Y235.921 E6.48757
G1 X44.481 Y236.134 E6.51934
G1 X44.208 Y236.188 E6.52859
G1 X43.262 Y236.345 E6.56049
G1 X42.989 Y236.382 E6.56965
G1 X42.036 Y236.482 E6.60152
G1 X41.763 Y236.502 E6.61063
G1 X40.807 Y236.545 E6.64245
G1 X40.528 Y236.549 E6.65174
G1 X39.572 Y236.534 E6.68354
G1 X39.303 Y236.522 E6.69249
G1 X38.349 Y236.451 E6.72431
G1 X38.07 Y236.422 E6.73364
G1 X37.122 Y236.293 E6.76546
G1 X36.859 Y236.25 E6.77432
G1 X35.918 Y236.066 E6.80621
G1 X35.642 Y236.003 E6.81563
G1 X34.716 Y235.762 E6.84746
G1 X34.454 Y235.685 E6.85654
G1 X33.543 Y235.389 E6.8884
G1 X33.28 Y235.295 E6.89769
G1 X32.388 Y234.944 E6.92957
G1 X32.141 Y234.838 E6.93851
G1 X31.274 Y234.437 E6.97028
G1 X31.022 Y234.311 E6.97965
G1 X30.178 Y233.856 E7.01154
G1 X29.948 Y233.723 E7.02038
G1 X29.135 Y233.222 E7.05214
G1 X28.9 Y233.067 E7.0615
G1 X28.116 Y232.515 E7.0934
G1 X27.894 Y232.349 E7.10261
G1 X27.145 Y231.751 E7.13449
G1 X26.935 Y231.573 E7.14365
G1 X26.224 Y230.932 E7.17549
G1 X26.03 Y230.746 E7.18443
G1 X25.358 Y230.065 E7.21625
G1 X25.166 Y229.858 E7.22564
G1 X24.537 Y229.137 E7.25746
G1 X24.366 Y228.929 E7.26642
G1 X23.78 Y228.172 E7.29826
G1 X23.616 Y227.946 E7.30755
G1 X23.077 Y227.155 E7.33938
G1 X22.929 Y226.924 E7.34851
G1 X22.438 Y226.102 E7.38035
G1 X22.305 Y225.863 E7.38945
G1 X21.864 Y225.014 E7.42127
G1 X21.743 Y224.764 E7.43051
G1 X21.354 Y223.89 E7.46233
G1 X21.25 Y223.636 E7.47146
G1 X20.913 Y222.738 E7.50336
G1 X20.824 Y222.477 E7.51253
G1 X20.542 Y221.562 E7.54437
G1 X20.469 Y221.299 E7.55345
G1 X20.242 Y220.37 E7.58526
G1 X20.185 Y220.099 E7.59447
G1 X20.014 Y219.156 E7.62635
G1 X19.973 Y218.884 E7.6355
G1 X19.859 Y217.935 E7.66729
G1 X19.834 Y217.66 E7.67647
G1 X19.777 Y216.705 E7.70829
G1 X19.769 Y216.431 E7.71741
G1 X19.769 Y215.473 E7.74927
G1 X19.777 Y215.199 E7.75839
G1 X19.834 Y214.243 E7.79024
G1 X19.859 Y213.968 E7.79943
G1 X19.973 Y213.019 E7.83122
G1 X20.013 Y212.752 E7.8402
G1 X20.183 Y211.809 E7.87207
G1 X20.243 Y211.529 E7.88159
G1 X20.471 Y210.6 E7.91341
G1 X20.542 Y210.341 E7.92234
G1 X20.824 Y209.426 E7.95418
G1 X20.913 Y209.165 E7.96336
G1 X21.25 Y208.267 E7.99526
G1 X21.354 Y208.013 E8.00439
G1 X21.743 Y207.139 E8.0362
G1 X21.864 Y206.889 E8.04544
G1 X22.305 Y206.04 E8.07726
G1 X22.438 Y205.801 E8.08636
G1 X22.929 Y204.979 E8.1182
G1 X23.077 Y204.748 E8.12733
G1 X23.616 Y203.957 E8.15917
G1 X23.78 Y203.731 E8.16845
G1 X24.366 Y202.974 E8.20029
G1 X24.537 Y202.766 E8.20925
G1 X25.166 Y202.045 E8.24107
G1 X25.358 Y201.838 E8.25046
G1 X26.03 Y201.157 E8.28228
G1 X26.224 Y200.971 E8.29122
G1 X26.935 Y200.33 E8.32306
G1 X27.145 Y200.152 E8.33222
G1 X27.894 Y199.554 E8.3641
G1 X28.116 Y199.388 E8.37332
G1 X28.9 Y198.836 E8.40521
G1 X29.135 Y198.681 E8.41457
G1 X29.948 Y198.18 E8.44633
G1 X30.178 Y198.047 E8.45517
G1 X31.022 Y197.592 E8.48706
G1 X31.274 Y197.466 E8.49643
G1 X32.141 Y197.065 E8.5282
G1 X32.388 Y196.959 E8.53714
G1 X33.28 Y196.608 E8.56903
G1 X33.547 Y196.513 E8.57845
G1 X34.458 Y196.218 E8.6103
G1 X34.716 Y196.142 E8.61925
G1 X35.642 Y195.901 E8.65107
G1 X35.914 Y195.839 E8.66035
G1 X36.855 Y195.654 E8.69225
G0 F6000 X36.932 Y196.047
G1 F300 X37.176 Y196.006 E8.70048
G1 X38.124 Y195.877 E8.7323
G1 X38.378 Y195.851 E8.74079
G1 X39.332 Y195.78 E8.77261
G1 X39.578 Y195.769 E8.7808
G1 X40.534 Y195.754 E8.8126
G1 X40.789 Y195.757 E8.82108
G1 X41.745 Y195.8 E8.85291
G1 X41.994 Y195.819 E8.86121
G1 X42.947 Y195.919 E8.89309
G1 X43.192 Y195.952 E8.90131
G1 X44.138 Y196.108 E8.9332
G1 X44.396 Y196.159 E8.94194
G1 X45.327 Y196.373 E8.97372
G1 X45.566 Y196.435 E8.98193
G1 X46.485 Y196.704 E9.01378
G1 X46.721 Y196.781 E9.02203
G1 X47.623 Y197.104 E9.0539
G1 X47.859 Y197.196 E9.06232
G1 X48.738 Y197.572 E9.09412
G1 X48.961 Y197.676 E9.10231
G1 X49.819 Y198.104 E9.1342
G1 X50.045 Y198.225 E9.14272
G1 X50.874 Y198.704 E9.17457
G1 X51.089 Y198.837 E9.18298
G1 X51.888 Y199.365 E9.21483
G1 X52.089 Y199.507 E9.22302
G1 X52.853 Y200.079 E9.25476
G1 X53.05 Y200.236 E9.26314
G1 X53.781 Y200.855 E9.295
G1 X53.973 Y201.027 E9.30357
G1 X54.665 Y201.69 E9.33544
G1 X54.836 Y201.865 E9.34358
G1 X55.488 Y202.567 E9.37545
G1 X55.654 Y202.757 E9.38384
G1 X56.262 Y203.496 E9.41567
G1 X56.418 Y203.696 E9.42411
G1 X56.98 Y204.47 E9.45592
G1 X57.121 Y204.677 E9.46425
G1 X57.637 Y205.485 E9.49614
G1 X57.765 Y205.699 E9.50443
G1 X58.231 Y206.534 E9.53623
G1 X58.35 Y206.764 E9.54485
G1 X58.764 Y207.627 E9.57668
G1 X58.861 Y207.846 E9.58465
G1 X59.226 Y208.733 E9.61655
G1 X59.316 Y208.971 E9.62501
G1 X59.625 Y209.874 E9.65676
G1 X59.702 Y210.124 E9.66546
G1 X59.955 Y211.047 E9.69729
G1 X60.011 Y211.28 E9.70526
G1 X60.211 Y212.217 E9.73713
G1 X60.257 Y212.467 E9.74558
G1 X60.4 Y213.414 E9.77744
G1 X60.43 Y213.664 E9.78581
G1 X60.516 Y214.618 E9.81767
G1 X60.531 Y214.868 E9.826
G1 X60.56 Y215.824 E9.85781
G1 X60.56 Y216.078 E9.86626
G1 X60.531 Y217.034 E9.89807
G1 X60.516 Y217.284 E9.9064
G1 X60.43 Y218.238 E9.93826
G1 X60.4 Y218.488 E9.94663
G1 X60.257 Y219.435 E9.97849
G1 X60.213 Y219.68 E9.98677
G1 X60.014 Y220.618 E10.01866
G1 X59.954 Y220.861 E10.02698
G1 X59.7 Y221.783 E10.05879
G1 X59.626 Y222.025 E10.06721
G1 X59.317 Y222.93 E10.09902
G1 X59.226 Y223.171 E10.10758
G1 X58.862 Y224.056 E10.13941
G1 X58.764 Y224.276 E10.14742
G1 X58.349 Y225.14 E10.1793
G1 X58.231 Y225.369 E10.18787
G1 X57.765 Y226.204 E10.21967
G1 X57.637 Y226.416 E10.22791
G1 X57.122 Y227.223 E10.25975
G1 X56.981 Y227.432 E10.26814
G1 X56.419 Y228.206 E10.29995
G1 X56.263 Y228.407 E10.30841
G1 X55.654 Y229.147 E10.34029
G1 X55.491 Y229.334 E10.34854
G1 X54.84 Y230.036 E10.38038
G1 X54.663 Y230.215 E10.38876
G1 X53.971 Y230.877 E10.42061
G1 X53.782 Y231.047 E10.42906
G1 X53.051 Y231.666 E10.46092
G1 X52.855 Y231.823 E10.46927
G1 X52.09 Y232.396 E10.50106
G1 X51.888 Y232.538 E10.50928
G1 X51.089 Y233.066 E10.54113
G1 X50.874 Y233.199 E10.54954
G1 X50.045 Y233.678 E10.58138
G1 X49.819 Y233.799 E10.58991
G1 X48.961 Y234.227 E10.6218
G1 X48.738 Y234.331 E10.62998
G1 X47.859 Y234.707 E10.66178
G1 X47.623 Y234.799 E10.67021
